; generated by Slic3r 1.2.9 on 2018-10-16 at 20:16:27

; external perimeters extrusion width = 0.40mm
; perimeters extrusion width = 0.40mm
; infill extrusion width = 0.40mm
; solid infill extrusion width = 0.40mm
; top infill extrusion width = 0.40mm
; support material extrusion width = 0.40mm

M107
M190 S110
M104 S230
M109 S230
G28 ; home all axes
G21 ; set units to millimeters
G90 ; use absolute coordinates
M82 ; use absolute distances for extrusion
G92 E0
G1 Z0.150 F1800.000
G1 E-1.00000 F1200.00000
G92 E0
G1 X73.504 Y31.133 F1800.000
G1 E1.00000 F1200.00000
G1 X74.609 Y29.758 E1.09219 F2400.000
G1 X77.051 Y28.911 E1.22723
G1 X88.851 Y28.911 E1.84372
G1 X90.571 Y29.306 E1.93592
G1 X91.946 Y30.411 E2.02811
G1 X92.794 Y32.853 E2.16315
G1 X92.792 Y44.779 E2.78623
G1 X91.336 Y90.234 E5.16221
G1 X90.887 Y91.940 E5.25441
G1 X89.738 Y93.279 E5.34660
G1 X87.396 Y94.050 E5.47539
G1 X78.896 Y94.050 E5.91948
G1 X77.176 Y93.655 E6.01167
G1 X75.801 Y92.550 E6.10386
G1 X74.957 Y90.268 E6.23098
G1 X73.112 Y44.813 E8.60770
G1 X73.109 Y32.853 E9.23255
G1 X73.490 Y31.192 E9.32161
G1 X73.817 Y31.208 F1800.000
G1 X74.915 Y29.920 E9.41000 F2400.000
G1 X77.051 Y29.225 E9.52737
G1 X88.851 Y29.225 E10.14386
G1 X90.496 Y29.619 E10.23226
G1 X91.784 Y30.717 E10.32065
G1 X92.479 Y32.853 E10.43802
G1 X92.478 Y44.769 E11.06057
G1 X91.022 Y90.224 E13.43656
G1 X90.575 Y91.856 E13.52496
G1 X89.437 Y93.107 E13.61335
G1 X87.396 Y93.736 E13.72494
G1 X78.896 Y93.736 E14.16902
G1 X77.251 Y93.341 E14.25741
G1 X75.963 Y92.244 E14.34581
G1 X75.271 Y90.255 E14.45584
G1 X73.426 Y44.800 E16.83257
G1 X73.423 Y32.853 E17.45674
G1 X73.803 Y31.266 E17.54200
G1 X74.131 Y31.286 F1800.000
G1 X75.219 Y30.091 E17.62643 F2400.000
G1 X77.051 Y29.539 E17.72640
G1 X88.851 Y29.539 E18.34289
G1 X90.418 Y29.933 E18.42731
G1 X91.613 Y31.021 E18.51174
G1 X92.165 Y32.853 E18.61170
G1 X92.164 Y44.759 E19.23373
G1 X90.708 Y90.214 E21.60972
G1 X90.265 Y91.767 E21.69415
G1 X89.139 Y92.927 E21.77857
G1 X87.396 Y93.422 E21.87322
G1 X78.896 Y93.422 E22.31730
G1 X77.329 Y93.028 E22.40173
G1 X76.134 Y91.940 E22.48615
G1 X75.585 Y90.242 E22.57938
G1 X73.740 Y44.787 E24.95610
G1 X73.737 Y32.853 E25.57961
G1 X74.116 Y31.344 E25.66090
G1 E24.66090 F1200.00000
G92 E0
G1 X86.182 Y87.060 F1800.000
G1 E1.00000 F1200.00000
G1 X86.007 Y87.432 E1.02149 F720.000
G1 X85.778 Y87.788 E1.04363
G1 X85.526 Y88.093 E1.06426
G1 X85.227 Y88.373 E1.08568
G1 X84.896 Y88.615 E1.10711
G1 X84.536 Y88.812 E1.12853
G1 X84.155 Y88.963 E1.14995
G1 X83.758 Y89.065 E1.17138
G1 X83.351 Y89.116 E1.19280
G1 X82.941 Y89.116 E1.21422
G1 X82.534 Y89.065 E1.23564
G1 X82.137 Y88.963 E1.25707
G1 X81.756 Y88.812 E1.27849
G1 X81.410 Y88.622 E1.29912
G1 X81.066 Y88.374 E1.32126
G1 X80.735 Y88.064 E1.34493
G1 X80.502 Y87.774 E1.36440
G1 X80.285 Y87.431 E1.38562
G1 X80.110 Y87.060 E1.40704
G1 X79.983 Y86.668 E1.42852
G1 X79.906 Y86.252 E1.45066
G1 X79.881 Y85.858 E1.47130
G1 X79.907 Y85.448 E1.49272
G1 X79.983 Y85.046 E1.51415
G1 X80.110 Y84.656 E1.53557
G1 X80.285 Y84.285 E1.55699
G1 X80.504 Y83.938 E1.57841
G1 X80.766 Y83.622 E1.59984
G1 X81.065 Y83.342 E1.62126
G1 X81.396 Y83.101 E1.64268
G1 X81.756 Y82.903 E1.66410
G1 X82.137 Y82.752 E1.68553
G1 X82.534 Y82.650 E1.70695
G1 X82.941 Y82.599 E1.72837
G1 X83.351 Y82.599 E1.74979
G1 X83.743 Y82.648 E1.77043
G1 X84.154 Y82.752 E1.79257
G1 X84.536 Y82.903 E1.81406
G1 X84.882 Y83.094 E1.83469
G1 X85.226 Y83.341 E1.85683
G1 X85.526 Y83.622 E1.87832
G1 X85.788 Y83.938 E1.89974
G1 X86.007 Y84.285 E1.92116
G1 X86.182 Y84.656 E1.94259
G1 X86.309 Y85.046 E1.96401
G1 X86.385 Y85.448 E1.98543
G1 X86.411 Y85.858 E2.00686
G1 X86.385 Y86.267 E2.02828
G1 X86.309 Y86.670 E2.04970
G1 X86.200 Y87.003 E2.06799
G1 X85.889 Y86.944 F1800.000
G1 X85.731 Y87.279 E2.08737 F720.000
G1 X85.524 Y87.603 E2.10744
G1 X85.297 Y87.877 E2.12605
G1 X85.027 Y88.131 E2.14541
G1 X84.727 Y88.349 E2.16477
G1 X84.402 Y88.527 E2.18413
G1 X84.058 Y88.664 E2.20348
G1 X83.699 Y88.756 E2.22284
G1 X83.331 Y88.802 E2.24220
G1 X82.961 Y88.802 E2.26156
G1 X82.593 Y88.756 E2.28091
G1 X82.234 Y88.664 E2.30027
G1 X81.890 Y88.527 E2.31963
G1 X81.578 Y88.356 E2.33824
G1 X81.266 Y88.131 E2.35831
G1 X80.967 Y87.850 E2.37974
G1 X80.758 Y87.591 E2.39715
G1 X80.561 Y87.279 E2.41643
G1 X80.403 Y86.944 E2.43579
G1 X80.288 Y86.591 E2.45517
G1 X80.218 Y86.213 E2.47524
G1 X80.196 Y85.858 E2.49385
G1 X80.219 Y85.488 E2.51321
G1 X80.288 Y85.124 E2.53257
G1 X80.403 Y84.772 E2.55192
G1 X80.561 Y84.436 E2.57128
G1 X80.759 Y84.123 E2.59064
G1 X80.995 Y83.838 E2.61000
G1 X81.265 Y83.584 E2.62935
G1 X81.565 Y83.367 E2.64871
G1 X81.890 Y83.188 E2.66807
G1 X82.234 Y83.052 E2.68743
G1 X82.593 Y82.960 E2.70678
G1 X82.961 Y82.913 E2.72614
G1 X83.331 Y82.913 E2.74550
G1 X83.685 Y82.958 E2.76411
G1 X84.057 Y83.051 E2.78418
G1 X84.402 Y83.188 E2.80356
G1 X84.714 Y83.360 E2.82217
G1 X85.026 Y83.584 E2.84225
G1 X85.297 Y83.838 E2.86163
G1 X85.533 Y84.123 E2.88099
G1 X85.731 Y84.436 E2.90035
G1 X85.889 Y84.772 E2.91970
G1 X86.004 Y85.124 E2.93906
G1 X86.073 Y85.488 E2.95842
G1 X86.096 Y85.858 E2.97778
G1 X86.073 Y86.227 E2.99713
G1 X86.004 Y86.591 E3.01649
G1 X85.908 Y86.887 E3.03271
G1 X86.113 Y87.239 F1800.000
G1 E2.03271 F1200.00000
G92 E0
G1 X86.882 Y89.593 F1800.000
G1 E1.00000 F1200.00000
G1 X79.410 Y89.593 E1.39036 F720.000
G1 X79.410 Y82.122 E1.78072
G1 X86.882 Y82.122 E2.17107
G1 X86.882 Y89.533 E2.55830
G1 X87.196 Y89.908 F1800.000
G1 X79.096 Y89.908 E2.98148 F720.000
G1 X79.096 Y81.808 E3.40467
G1 X87.196 Y81.808 E3.82785
G1 X87.196 Y89.848 E4.24790
G1 X86.850 Y89.708 F1800.000
G1 X86.898 Y89.515 F1800.000
G1 X84.476 Y89.515 E4.38207 F1920.000
G1 X84.412 Y89.182 E4.40086
G1 X86.898 Y89.182 E4.53855
G1 X86.898 Y88.849 E4.55701
G1 X84.497 Y88.849 E4.69002
G1 X85.037 Y88.516 E4.72519
G1 X86.898 Y88.516 E4.82826
G1 X86.898 Y88.182 E4.84672
G1 X85.422 Y88.182 E4.92847
G1 X85.709 Y87.849 E4.95284
G1 X86.898 Y87.849 E5.01867
G1 X86.898 Y87.516 E5.03713
G1 X85.928 Y87.516 E5.09085
G1 X86.094 Y87.183 E5.11148
G1 X86.433 Y87.183 E5.13023
G1 X86.526 Y87.153 F1800.000
G1 X86.616 Y86.476 E5.21136 F192.000
G1 X86.616 Y86.476 F1800.000
G1 X86.647 Y85.863 E5.24346 F192.000
G1 X86.616 Y85.239 E5.27608
G1 X86.616 Y85.239 F1800.000
G1 X86.526 Y84.562 E5.35721 F192.000
G1 X86.433 Y84.532 F1800.000
G1 X86.094 Y84.532 E5.37596 F1920.000
G1 X85.928 Y84.199 E5.39658
G1 X86.898 Y84.199 E5.45029
G1 X86.898 Y83.866 E5.46875
G1 X85.709 Y83.866 E5.53458
G1 X85.422 Y83.533 E5.55895
G1 X86.898 Y83.533 E5.64070
G1 X86.898 Y83.200 E5.65916
G1 X85.036 Y83.200 E5.76229
G1 X84.497 Y82.867 E5.79741
G1 X86.898 Y82.867 E5.93042
G1 X86.898 Y82.533 E5.94887
G1 X84.412 Y82.533 E6.08657
G1 X84.476 Y82.200 E6.10536
G1 X86.898 Y82.200 E6.23953
G1 E5.23953 F1200.00000
G92 E0
G1 X84.457 Y82.483 F1800.000
G1 E1.00000 F1200.00000
G1 X83.767 Y82.384 E1.08267 F192.000
G1 X83.767 Y82.386 F1800.000
G1 X83.361 Y82.360 E1.10395 F192.000
G1 X82.931 Y82.360 E1.12641
G1 X82.519 Y82.386 E1.14800
G1 X82.518 Y82.384 F1800.000
G1 X81.835 Y82.483 E1.22996 F192.000
G1 X81.816 Y82.200 F1800.000
G1 X79.394 Y82.200 E1.36413 F1920.000
G1 X79.394 Y82.533 E1.38259
G1 X81.880 Y82.533 E1.52028
G1 X81.795 Y82.867 E1.53932
G1 X79.394 Y82.867 E1.67232
G1 X79.394 Y83.200 E1.69078
G1 X81.255 Y83.200 E1.79386
G1 X80.870 Y83.533 E1.82206
G1 X79.394 Y83.533 E1.90381
G1 X79.394 Y83.866 E1.92227
G1 X80.583 Y83.866 E1.98809
G1 X80.364 Y84.199 E2.01017
G1 X79.394 Y84.199 E2.06388
G1 X79.859 Y84.532 E2.09557
G1 X80.198 Y84.532 E2.11432
G1 X79.766 Y84.562 F1800.000
G1 X79.676 Y85.239 E2.19545 F192.000
G1 X79.676 Y85.239 F1800.000
G1 X79.645 Y85.863 E2.22806 F192.000
G1 X79.676 Y86.474 E2.26004
G1 X79.676 Y86.474 F1800.000
G1 X79.766 Y87.153 E2.34146 F192.000
G1 X80.198 Y87.183 F1800.000
G1 X79.859 Y87.183 E2.36021 F1920.000
G1 X79.394 Y87.516 E2.39189
G1 X80.364 Y87.516 E2.44560
G1 X80.582 Y87.849 E2.46767
G1 X79.394 Y87.849 E2.53348
G1 X79.394 Y88.182 E2.55194
G1 X80.870 Y88.182 E2.63369
G1 X81.256 Y88.516 E2.66194
G1 X79.394 Y88.516 E2.76507
G1 X79.394 Y88.849 E2.78353
G1 X81.795 Y88.849 E2.91654
G1 X81.880 Y89.182 E2.93558
G1 X79.394 Y89.182 E3.07327
G1 X79.394 Y89.515 E3.09173
G1 X81.816 Y89.515 E3.22590
G1 X81.835 Y89.232 F1800.000
G1 X82.518 Y89.331 E3.30786 F192.000
G1 X82.519 Y89.329 F1800.000
G1 X82.931 Y89.355 E3.32945 F192.000
G1 X83.361 Y89.355 E3.35190
G1 X83.773 Y89.329 E3.37349
G1 X83.774 Y89.331 F1800.000
G1 X84.457 Y89.232 E3.45546 F192.000
G1 Z0.150 F1800.000
G1 Z0.150 F1800.000
G1 E2.45546 F1200.00000
G92 E0
G1 X87.810 Y80.608 F1800.000
G1 X82.951 Y71.708 F1800.000
G1 X89.265 Y48.239 F1800.000
G1 X89.265 Y45.653 F1800.000
G1 X83.260 Y43.659 F1800.000
G1 E1.00000 F1200.00000
G1 X82.642 Y43.659 E1.03225 F720.000
G1 X82.030 Y43.581 E1.06450
G1 X81.432 Y43.428 E1.09674
G1 X80.858 Y43.200 E1.12899
G1 X80.317 Y42.903 E1.16124
G1 X79.818 Y42.540 E1.19349
G1 X79.368 Y42.118 E1.22574
G1 X78.975 Y41.642 E1.25799
G1 X78.644 Y41.121 E1.29023
G1 X78.381 Y40.561 E1.32255
G1 X78.186 Y39.952 E1.35594
G1 X78.075 Y39.369 E1.38697
G1 X78.036 Y38.753 E1.41922
G1 X78.075 Y38.137 E1.45147
G1 X78.190 Y37.531 E1.48372
G1 X78.381 Y36.942 E1.51603
G1 X78.656 Y36.365 E1.54942
G1 X78.975 Y35.864 E1.58045
G1 X79.368 Y35.388 E1.61270
G1 X79.818 Y34.966 E1.64495
G1 X80.317 Y34.603 E1.67720
G1 X80.858 Y34.306 E1.70944
G1 X81.432 Y34.078 E1.74169
G1 X82.030 Y33.925 E1.77394
G1 X82.642 Y33.848 E1.80619
G1 X83.260 Y33.848 E1.83844
G1 X83.872 Y33.925 E1.87069
G1 X84.470 Y34.078 E1.90293
G1 X85.022 Y34.297 E1.93396
G1 X85.584 Y34.602 E1.96736
G1 X86.084 Y34.966 E1.99967
G1 X86.534 Y35.388 E2.03192
G1 X86.928 Y35.864 E2.06417
G1 X87.258 Y36.385 E2.09641
G1 X87.522 Y36.945 E2.12873
G1 X87.716 Y37.554 E2.16212
G1 X87.827 Y38.137 E2.19315
G1 X87.866 Y38.753 E2.22540
G1 X87.827 Y39.369 E2.25765
G1 X87.712 Y39.975 E2.28990
G1 X87.521 Y40.562 E2.32214
G1 X87.258 Y41.121 E2.35439
G1 X86.928 Y41.642 E2.38664
G1 X86.534 Y42.118 E2.41889
G1 X86.084 Y42.540 E2.45114
G1 X85.585 Y42.903 E2.48338
G1 X85.044 Y43.200 E2.51563
G1 X84.470 Y43.428 E2.54788
G1 X83.872 Y43.581 E2.58013
G1 X83.319 Y43.651 E2.60924
G1 X83.240 Y43.344 F1800.000
G1 X82.662 Y43.344 E2.63943 F720.000
G1 X82.089 Y43.272 E2.66961
G1 X81.530 Y43.128 E2.69979
G1 X80.992 Y42.916 E2.72998
G1 X80.486 Y42.637 E2.76016
G1 X80.019 Y42.298 E2.79034
G1 X79.598 Y41.902 E2.82052
G1 X79.229 Y41.457 E2.85071
G1 X78.920 Y40.969 E2.88089
G1 X78.674 Y40.446 E2.91110
G1 X78.491 Y39.875 E2.94243
G1 X78.387 Y39.330 E2.97143
G1 X78.351 Y38.753 E3.00161
G1 X78.387 Y38.176 E3.03180
G1 X78.495 Y37.609 E3.06198
G1 X78.674 Y37.059 E3.09219
G1 X78.932 Y36.518 E3.12352
G1 X79.229 Y36.049 E3.15252
G1 X79.598 Y35.604 E3.18270
G1 X80.019 Y35.208 E3.21289
G1 X80.486 Y34.869 E3.24307
G1 X80.992 Y34.591 E3.27325
G1 X81.530 Y34.378 E3.30343
G1 X82.089 Y34.234 E3.33362
G1 X82.662 Y34.162 E3.36380
G1 X83.240 Y34.162 E3.39398
G1 X83.813 Y34.234 E3.42417
G1 X84.373 Y34.378 E3.45435
G1 X84.889 Y34.582 E3.48335
G1 X85.416 Y34.869 E3.51468
G1 X85.883 Y35.208 E3.54489
G1 X86.305 Y35.604 E3.57507
G1 X86.673 Y36.049 E3.60526
G1 X86.982 Y36.537 E3.63544
G1 X87.229 Y37.060 E3.66565
G1 X87.411 Y37.631 E3.69698
G1 X87.515 Y38.176 E3.72598
G1 X87.551 Y38.753 E3.75616
G1 X87.515 Y39.330 E3.78634
G1 X87.407 Y39.897 E3.81653
G1 X87.228 Y40.447 E3.84671
G1 X86.982 Y40.969 E3.87689
G1 X86.673 Y41.457 E3.90708
G1 X86.305 Y41.902 E3.93726
G1 X85.883 Y42.298 E3.96744
G1 X85.416 Y42.637 E3.99763
G1 X84.910 Y42.916 E4.02781
G1 X84.373 Y43.128 E4.05799
G1 X83.813 Y43.272 E4.08817
G1 X83.299 Y43.337 E4.11522
G1 X83.055 Y43.699 F1800.000
G1 E3.11522 F1200.00000
G92 E0
G1 X88.337 Y44.139 F1800.000
G1 E1.00000 F1200.00000
G1 X77.565 Y44.139 E1.56277 F1920.000
G1 X77.565 Y33.367 E2.12553
G1 X88.337 Y33.367 E2.68830
G1 X88.337 Y44.079 E3.24793
G1 X88.651 Y44.453 F1800.000
G1 X77.251 Y44.453 E3.84352 F1440.000
G1 X77.251 Y33.053 E4.43912
G1 X88.651 Y33.053 E5.03471
G1 X88.651 Y44.393 E5.62717
G1 X88.305 Y44.253 F1800.000
G1 X88.353 Y44.060 F1800.000
G1 X84.568 Y44.060 E5.83595 F1920.000
G1 X84.526 Y43.729 E5.85440
G1 X88.353 Y43.729 E6.06549
G1 X88.353 Y43.397 E6.08379
G1 X84.612 Y43.397 E6.29013
G1 X85.317 Y43.065 F1800.000
G1 X88.353 Y43.065 E6.45760 F1920.000
G1 X88.353 Y42.734 E6.47590
G1 X85.823 Y42.734 E6.61542
G1 X86.223 Y42.402 E6.64406
G1 X88.353 Y42.402 E6.76156
G1 X88.353 Y42.070 E6.77986
G1 X86.555 Y42.070 E6.87901
G1 X86.830 Y41.738 E6.90276
G1 X88.353 Y41.738 E6.98678
G1 X88.353 Y41.407 E7.00508
G1 X87.052 Y41.407 E7.07683
G1 X87.250 Y41.075 E7.09815
G1 X88.353 Y41.075 E7.15896
G1 X88.353 Y40.743 E7.17726
G1 X87.406 Y40.743 E7.22946
G1 X87.537 Y40.411 E7.24913
G1 X87.875 Y40.411 E7.26774
G1 X87.968 Y40.382 F1800.000
G1 X88.021 Y40.044 E7.30831 F192.000
G1 X88.071 Y39.510 E7.37203
G1 X88.071 Y39.510 F1800.000
G1 X88.102 Y38.758 E7.41137 F192.000
G1 X88.071 Y37.996 E7.45121
G1 X88.023 Y37.485 E7.51210 F192.000
G1 X87.967 Y37.125 E7.55545
G1 X87.876 Y37.094 F1800.000
G1 X87.537 Y37.094 E7.57417 F1920.000
G1 X87.406 Y36.763 E7.59382
G1 X88.353 Y36.763 E7.64602
G1 X88.353 Y36.431 E7.66432
G1 X87.250 Y36.431 E7.72513
G1 X87.052 Y36.099 E7.74645
G1 X88.353 Y36.099 E7.81820
G1 X88.353 Y35.768 E7.83650
G1 X86.830 Y35.768 E7.92052
G1 X86.555 Y35.436 E7.94426
G1 X88.353 Y35.436 E8.04342
G1 X88.353 Y35.104 E8.06172
G1 X86.223 Y35.104 E8.17921
G1 X85.823 Y34.773 E8.20785
G1 X88.353 Y34.773 E8.34737
G1 X88.353 Y34.441 E8.36567
G1 X85.315 Y34.441 E8.53323
G1 X84.612 Y34.109 F1800.000
G1 X88.353 Y34.109 E8.73957 F1920.000
G1 X88.353 Y33.777 E8.75787
G1 X84.526 Y33.777 E8.96895
G1 X84.568 Y33.446 E8.98739
G1 X88.353 Y33.446 E9.19616
G1 E8.19616 F1200.00000
G92 E0
G1 X84.567 Y33.729 F1800.000
G1 E1.00000 F1200.00000
G1 X83.741 Y33.637 E1.09872 F192.000
G1 X83.270 Y33.607 E1.12342 F192.000
G1 X82.633 Y33.607 E1.15670
G1 X82.161 Y33.637 E1.18139
G1 X82.161 Y33.637 F1800.000
G1 X81.335 Y33.729 E1.28012 F192.000
G1 X81.334 Y33.446 F1800.000
G1 X77.550 Y33.446 E1.48890 F1920.000
G1 X77.550 Y33.777 E1.50720
G1 X81.376 Y33.777 E1.71829
G1 X81.290 Y34.109 E1.73720
G1 X77.550 Y34.109 E1.94354
G1 X77.550 Y34.441 E1.96184
G1 X80.585 Y34.441 E2.12930
G1 X80.079 Y34.773 E2.16270
G1 X77.550 Y34.773 E2.30222
G1 X77.550 Y35.104 E2.32052
G1 X79.679 Y35.104 E2.43801
G1 X79.347 Y35.436 E2.46392
G1 X77.550 Y35.436 E2.56307
G1 X77.550 Y35.768 E2.58137
G1 X79.073 Y35.768 E2.66539
G1 X78.850 Y36.099 E2.68742
G1 X77.550 Y36.099 E2.75917
G1 X77.550 Y36.431 E2.77747
G1 X78.654 Y36.431 E2.83843
G1 X78.496 Y36.763 E2.85870
G1 X77.550 Y36.763 E2.91094
G1 X78.027 Y37.095 E2.94303
G1 X78.365 Y37.095 E2.96164
G1 X77.934 Y37.124 F1800.000
G1 X77.882 Y37.462 E3.00221 F192.000
G1 X77.831 Y37.996 E3.06593
G1 X77.831 Y37.996 F1800.000
G1 X77.801 Y38.748 E3.10526 F192.000
G1 X77.831 Y39.510 E3.14511
G1 X77.831 Y39.510 F1800.000
G1 X77.879 Y40.021 E3.20600 F192.000
G1 X77.935 Y40.381 E3.24935
G1 X78.366 Y40.412 F1800.000
G1 X78.026 Y40.412 E3.26807 F1920.000
G1 X78.496 Y40.743 E3.29978
G1 X77.550 Y40.743 E3.35198
G1 X77.550 Y41.075 E3.37028
G1 X78.652 Y41.075 E3.43108
G1 X78.850 Y41.407 E3.45240
G1 X77.550 Y41.407 E3.52415
G1 X77.550 Y41.738 E3.54245
G1 X79.073 Y41.738 E3.62647
G1 X79.347 Y42.070 E3.65022
G1 X77.550 Y42.070 E3.74938
G1 X77.550 Y42.402 E3.76767
G1 X79.679 Y42.402 E3.88517
G1 X80.079 Y42.734 E3.91380
G1 X77.550 Y42.734 E4.05333
G1 X77.550 Y43.065 E4.07162
G1 X80.585 Y43.065 E4.23908
G1 X81.290 Y43.397 F1800.000
G1 X77.550 Y43.397 E4.44542 F1920.000
G1 X77.550 Y43.729 E4.46372
G1 X81.376 Y43.729 E4.67480
G1 X81.334 Y44.060 E4.69324
G1 X77.550 Y44.060 E4.90201
G1 E3.90201 F1200.00000
G92 E0
G1 X81.335 Y43.777 F1800.000
G1 E1.00000 F1200.00000
G1 X82.161 Y43.869 E1.09872 F192.000
G1 X82.161 Y43.869 F1800.000
G1 X82.633 Y43.899 E1.12342 F192.000
G1 X83.270 Y43.899 E1.15670
G1 X83.741 Y43.869 E1.18139
G1 X83.741 Y43.869 F1800.000
G1 X84.567 Y43.777 E1.28012 F192.000
G1 Z0.150 F1800.000
M104 S225 ; set temperature
G1 Z0.550 F1800.000
G1 E0.28012 F1200.00000
G92 E0
G1 X89.265 Y45.653 F1800.000
G1 X82.951 Y54.553 F1800.000
G1 X87.810 Y76.567 F1800.000
