; generated by Slic3r 1.2.9 on 2018-10-16 at 20:20:01

; external perimeters extrusion width = 0.40mm
; perimeters extrusion width = 0.40mm
; infill extrusion width = 0.40mm
; solid infill extrusion width = 0.40mm
; top infill extrusion width = 0.40mm
; support material extrusion width = 0.40mm

M107
M190 S110
M104 S230
M109 S230
G28 ; home all axes
G21 ; set units to millimeters
G90 ; use absolute coordinates
M82 ; use absolute distances for extrusion
G92 E0
G1 Z0.150 F1800.000
G1 E-1.00000 F1200.00000
G92 E0
G1 X75.632 Y49.450 F1800.000
G1 E1.00000 F1200.00000
G1 X76.738 Y48.075 E1.09219 F2400.000
G1 X79.180 Y47.228 E1.22723
G1 X90.820 Y47.228 E1.83536
G1 X92.540 Y47.622 E1.92756
G1 X93.915 Y48.728 E2.01975
G1 X94.762 Y51.170 E2.15479
G1 X94.762 Y62.810 E2.76292
G1 X94.742 Y63.207 E2.78367
G1 X93.122 Y79.227 E3.62490
G1 X92.557 Y80.898 E3.71709
G1 X91.318 Y82.155 E3.80929
G1 X89.200 Y82.772 E3.92455
G1 X80.800 Y82.772 E4.36341
G1 X79.080 Y82.378 E4.45560
G1 X77.705 Y81.272 E4.54780
G1 X76.878 Y79.227 E4.66306
G1 X75.258 Y63.207 E5.50429
G1 X75.238 Y62.810 E5.52504
G1 X75.238 Y51.170 E6.13317
G1 X75.619 Y49.509 E6.22223
G1 X75.946 Y49.525 F1800.000
G1 X77.044 Y48.237 E6.31062 F2400.000
G1 X79.180 Y47.542 E6.42799
G1 X90.820 Y47.542 E7.03612
G1 X92.465 Y47.936 E7.12452
G1 X93.753 Y49.034 E7.21291
G1 X94.448 Y51.170 E7.33028
G1 X94.448 Y62.810 E7.93841
G1 X94.430 Y63.175 E7.95751
G1 X92.810 Y79.195 E8.79874
G1 X92.252 Y80.792 E8.88714
G1 X91.030 Y81.963 E8.97553
G1 X89.200 Y82.458 E9.07459
G1 X80.800 Y82.458 E9.51345
G1 X79.155 Y82.064 E9.60185
G1 X77.867 Y80.966 E9.69024
G1 X77.190 Y79.195 E9.78930
G1 X75.570 Y63.175 E10.63054
G1 X75.552 Y62.810 E10.64963
G1 X75.552 Y51.170 E11.25776
G1 X75.932 Y49.583 E11.34302
G1 X76.260 Y49.603 F1800.000
G1 X77.348 Y48.408 E11.42745 F2400.000
G1 X79.180 Y47.856 E11.52741
G1 X90.820 Y47.856 E12.13555
G1 X92.387 Y48.250 E12.21997
G1 X93.582 Y49.338 E12.30440
G1 X94.134 Y51.170 E12.40436
G1 X94.134 Y62.810 E13.01249
G1 X94.117 Y63.143 E13.02994
G1 X92.497 Y79.163 E13.87117
G1 X91.948 Y80.683 E13.95559
G1 X90.745 Y81.762 E14.04002
G1 X89.200 Y82.144 E14.12316
G1 X80.800 Y82.144 E14.56202
G1 X79.233 Y81.750 E14.64644
G1 X78.038 Y80.662 E14.73087
G1 X77.503 Y79.163 E14.81401
G1 X75.883 Y63.143 E15.65524
G1 X75.866 Y62.810 E15.67268
G1 X75.866 Y51.170 E16.28081
G1 X76.245 Y49.661 E16.36210
G1 E15.36210 F1200.00000
G92 E0
G1 X87.817 Y76.179 F1800.000
G1 E1.00000 F1200.00000
G1 X87.601 Y76.520 E1.02109 F720.000
G1 X87.344 Y76.831 E1.04219
G1 X87.049 Y77.107 E1.06328
G1 X86.723 Y77.345 E1.08438
G1 X86.369 Y77.539 E1.10547
G1 X85.994 Y77.688 E1.12657
G1 X85.602 Y77.788 E1.14766
G1 X85.202 Y77.839 E1.16876
G1 X84.798 Y77.839 E1.18985
G1 X84.398 Y77.788 E1.21095
G1 X84.006 Y77.688 E1.23204
G1 X83.631 Y77.539 E1.25314
G1 X83.277 Y77.345 E1.27423
G1 X82.951 Y77.107 E1.29533
G1 X82.656 Y76.831 E1.31642
G1 X82.399 Y76.520 E1.33752
G1 X82.183 Y76.179 E1.35861
G1 X82.011 Y75.814 E1.37970
G1 X81.886 Y75.430 E1.40080
G1 X81.810 Y75.033 E1.42189
G1 X81.785 Y74.630 E1.44299
G1 X81.810 Y74.227 E1.46408
G1 X81.886 Y73.830 E1.48518
G1 X82.011 Y73.446 E1.50627
G1 X82.183 Y73.081 E1.52737
G1 X82.399 Y72.740 E1.54846
G1 X82.656 Y72.429 E1.56956
G1 X82.951 Y72.153 E1.59065
G1 X83.277 Y71.915 E1.61175
G1 X83.631 Y71.721 E1.63284
G1 X84.006 Y71.572 E1.65394
G1 X84.398 Y71.472 E1.67503
G1 X84.798 Y71.421 E1.69612
G1 X85.202 Y71.421 E1.71722
G1 X85.602 Y71.472 E1.73831
G1 X85.994 Y71.572 E1.75941
G1 X86.369 Y71.721 E1.78050
G1 X86.723 Y71.915 E1.80160
G1 X87.049 Y72.153 E1.82269
G1 X87.344 Y72.429 E1.84379
G1 X87.601 Y72.740 E1.86488
G1 X87.817 Y73.081 E1.88598
G1 X87.989 Y73.446 E1.90707
G1 X88.114 Y73.830 E1.92817
G1 X88.190 Y74.227 E1.94926
G1 X88.215 Y74.630 E1.97035
G1 X88.190 Y75.033 E1.99145
G1 X88.114 Y75.430 E2.01254
G1 X87.989 Y75.814 E2.03364
G1 X87.843 Y76.125 E2.05160
G1 X87.542 Y76.027 F1800.000
G1 X87.346 Y76.335 E2.07063 F720.000
G1 X87.114 Y76.615 E2.08966
G1 X86.849 Y76.865 E2.10869
G1 X86.554 Y77.079 E2.12772
G1 X86.235 Y77.254 E2.14675
G1 X85.896 Y77.388 E2.16578
G1 X85.543 Y77.479 E2.18480
G1 X85.182 Y77.525 E2.20383
G1 X84.818 Y77.525 E2.22286
G1 X84.457 Y77.479 E2.24189
G1 X84.104 Y77.388 E2.26092
G1 X83.765 Y77.254 E2.27995
G1 X83.446 Y77.079 E2.29898
G1 X83.151 Y76.865 E2.31801
G1 X82.886 Y76.615 E2.33704
G1 X82.654 Y76.335 E2.35607
G1 X82.458 Y76.027 E2.37510
G1 X82.303 Y75.698 E2.39413
G1 X82.191 Y75.351 E2.41316
G1 X82.122 Y74.994 E2.43219
G1 X82.100 Y74.630 E2.45122
G1 X82.122 Y74.266 E2.47025
G1 X82.191 Y73.909 E2.48928
G1 X82.303 Y73.562 E2.50830
G1 X82.458 Y73.233 E2.52733
G1 X82.654 Y72.925 E2.54636
G1 X82.886 Y72.645 E2.56539
G1 X83.151 Y72.395 E2.58442
G1 X83.446 Y72.181 E2.60345
G1 X83.765 Y72.006 E2.62248
G1 X84.104 Y71.872 E2.64151
G1 X84.457 Y71.781 E2.66054
G1 X84.818 Y71.735 E2.67957
G1 X85.182 Y71.735 E2.69860
G1 X85.543 Y71.781 E2.71763
G1 X85.896 Y71.872 E2.73666
G1 X86.235 Y72.006 E2.75569
G1 X86.554 Y72.181 E2.77472
G1 X86.849 Y72.395 E2.79375
G1 X87.114 Y72.645 E2.81277
G1 X87.346 Y72.925 E2.83180
G1 X87.542 Y73.233 E2.85083
G1 X87.697 Y73.562 E2.86986
G1 X87.809 Y73.909 E2.88889
G1 X87.878 Y74.266 E2.90792
G1 X87.900 Y74.630 E2.92695
G1 X87.878 Y74.994 E2.94598
G1 X87.809 Y75.351 E2.96501
G1 X87.697 Y75.698 E2.98404
G1 X87.567 Y75.973 E2.99993
G1 X87.724 Y76.343 F1800.000
G1 E1.99993 F1200.00000
G92 E0
G1 X88.686 Y78.316 F1800.000
G1 E1.00000 F1200.00000
G1 X81.314 Y78.316 E1.38513 F720.000
G1 X81.314 Y70.944 E1.77027
G1 X88.686 Y70.944 E2.15540
G1 X88.686 Y78.256 E2.53740
G1 X89.000 Y78.630 F1800.000
G1 X81.000 Y78.630 E2.95536 F720.000
G1 X81.000 Y70.630 E3.37331
G1 X89.000 Y70.630 E3.79127
G1 X89.000 Y78.570 E4.20610
G1 X88.654 Y78.430 F1800.000
G1 X88.702 Y78.237 F1800.000
G1 X86.319 Y78.237 E4.33590 F1920.000
G1 X86.256 Y77.910 E4.35406
G1 X88.702 Y77.910 E4.48727
G1 X88.702 Y77.582 E4.50511
G1 X86.318 Y77.582 E4.63495
G1 X86.852 Y77.255 E4.66908
G1 X88.702 Y77.255 E4.76984
G1 X88.702 Y76.927 E4.78768
G1 X87.233 Y76.927 E4.86770
G1 X87.517 Y76.600 E4.89132
G1 X88.702 Y76.600 E4.95586
G1 X88.702 Y76.272 E4.97370
G1 X87.733 Y76.272 E5.02643
G1 X87.898 Y75.944 E5.04641
G1 X88.237 Y75.944 E5.06484
G1 X88.330 Y75.915 F1800.000
G1 X88.420 Y75.244 E5.14518 F192.000
G1 X88.420 Y75.244 F1800.000
G1 X88.451 Y74.635 E5.17707 F192.000
G1 X88.420 Y74.016 E5.20947
G1 X88.420 Y74.016 F1800.000
G1 X88.330 Y73.345 E5.28981 F192.000
G1 X88.237 Y73.316 F1800.000
G1 X87.898 Y73.316 E5.30824 F1920.000
G1 X87.733 Y72.988 E5.32822
G1 X88.702 Y72.988 E5.38095
G1 X88.702 Y72.660 E5.39879
G1 X87.517 Y72.660 E5.46333
G1 X87.233 Y72.333 E5.48695
G1 X88.702 Y72.333 E5.56697
G1 X88.702 Y72.005 E5.58481
G1 X86.852 Y72.005 E5.68556
G1 X86.318 Y71.678 E5.71969
G1 X88.702 Y71.678 E5.84954
G1 X88.702 Y71.350 E5.86738
G1 X86.256 Y71.350 E6.00058
G1 X86.319 Y71.023 E6.01875
G1 X88.702 Y71.023 E6.14855
G1 E5.14855 F1200.00000
G92 E0
G1 X86.300 Y71.305 F1800.000
G1 E1.00000 F1200.00000
G1 X85.622 Y71.206 E1.08135 F192.000
G1 X85.622 Y71.208 F1800.000
G1 X85.212 Y71.183 E1.10280 F192.000
G1 X84.788 Y71.183 E1.12492
G1 X84.378 Y71.208 E1.14637
G1 X84.378 Y71.206 F1800.000
G1 X83.700 Y71.305 E1.22772 F192.000
G1 X83.681 Y71.023 F1800.000
G1 X81.298 Y71.023 E1.35752 F1920.000
G1 X81.298 Y71.350 E1.37536
G1 X83.744 Y71.350 E1.50856
G1 X83.682 Y71.678 E1.52672
G1 X81.298 Y71.678 E1.65656
G1 X81.298 Y72.005 E1.67440
G1 X83.148 Y72.005 E1.77515
G1 X82.767 Y72.333 E1.80251
G1 X81.298 Y72.333 E1.88253
G1 X81.298 Y72.660 E1.90037
G1 X82.483 Y72.660 E1.96490
G1 X82.267 Y72.988 E1.98629
G1 X81.298 Y72.988 E2.03903
G1 X81.763 Y73.316 E2.07000
G1 X82.102 Y73.316 E2.08844
G1 X81.670 Y73.345 F1800.000
G1 X81.580 Y74.016 E2.16878 F192.000
G1 X81.580 Y74.016 F1800.000
G1 X81.549 Y74.625 E2.20067 F192.000
G1 X81.580 Y75.244 E2.23306
G1 X81.580 Y75.244 F1800.000
G1 X81.670 Y75.915 E2.31340 F192.000
G1 X82.102 Y75.944 F1800.000
G1 X81.763 Y75.944 E2.33184 F1920.000
G1 X81.298 Y76.272 E2.36282
G1 X82.267 Y76.272 E2.41555
G1 X82.483 Y76.600 E2.43694
G1 X81.298 Y76.600 E2.50147
G1 X81.298 Y76.927 E2.51932
G1 X82.767 Y76.927 E2.59934
G1 X83.148 Y77.255 E2.62669
G1 X81.298 Y77.255 E2.72744
G1 X81.298 Y77.582 E2.74528
G1 X83.682 Y77.582 E2.87513
G1 X83.744 Y77.910 E2.89329
G1 X81.298 Y77.910 E3.02649
G1 X81.298 Y78.237 E3.04433
G1 X83.681 Y78.237 E3.17413
G1 X83.700 Y77.955 F1800.000
G1 X84.378 Y78.054 E3.25547 F192.000
G1 X84.378 Y78.052 F1800.000
G1 X84.788 Y78.077 E3.27692 F192.000
G1 X85.212 Y78.077 E3.29905
G1 X85.622 Y78.052 E3.32050
G1 X85.622 Y78.054 F1800.000
G1 X86.300 Y77.955 E3.40185 F192.000
G1 Z0.150 F1800.000
G1 Z0.150 F1800.000
G1 E2.40185 F1200.00000
G92 E0
G1 X89.614 Y69.430 F1800.000
G1 X91.356 Y67.688 F1800.000
G1 X91.234 Y66.396 F1800.000
G1 X91.234 Y63.810 F1800.000
G1 X85.304 Y61.816 F1800.000
G1 E1.00000 F1200.00000
G1 X84.696 Y61.816 E1.03172 F720.000
G1 X84.094 Y61.740 E1.06345
G1 X83.506 Y61.589 E1.09517
G1 X82.941 Y61.365 E1.12689
G1 X82.409 Y61.072 E1.15862
G1 X81.918 Y60.716 E1.19034
G1 X81.475 Y60.300 E1.22206
G1 X81.088 Y59.832 E1.25379
G1 X80.763 Y59.320 E1.28546
G1 X80.509 Y58.785 E1.31643
G1 X80.316 Y58.191 E1.34903
G1 X80.202 Y57.573 E1.38188
G1 X80.165 Y56.990 E1.41240
G1 X80.203 Y56.384 E1.44413
G1 X80.317 Y55.788 E1.47585
G1 X80.505 Y55.209 E1.50764
G1 X80.775 Y54.641 E1.54049
G1 X81.088 Y54.148 E1.57101
G1 X81.475 Y53.680 E1.60273
G1 X81.918 Y53.264 E1.63446
G1 X82.409 Y52.908 E1.66618
G1 X82.941 Y52.615 E1.69790
G1 X83.506 Y52.391 E1.72963
G1 X84.072 Y52.246 E1.76015
G1 X84.695 Y52.164 E1.79300
G1 X85.304 Y52.164 E1.82479
G1 X85.883 Y52.238 E1.85531
G1 X86.493 Y52.391 E1.88816
G1 X87.059 Y52.615 E1.91995
G1 X87.591 Y52.908 E1.95167
G1 X88.082 Y53.264 E1.98340
G1 X88.525 Y53.680 E2.01512
G1 X88.912 Y54.148 E2.04684
G1 X89.237 Y54.660 E2.07852
G1 X89.491 Y55.195 E2.10949
G1 X89.683 Y55.788 E2.14202
G1 X89.797 Y56.384 E2.17374
G1 X89.835 Y56.990 E2.20547
G1 X89.797 Y57.596 E2.23719
G1 X89.683 Y58.192 E2.26892
G1 X89.496 Y58.770 E2.30064
G1 X89.237 Y59.319 E2.33236
G1 X88.912 Y59.832 E2.36409
G1 X88.525 Y60.300 E2.39581
G1 X88.082 Y60.716 E2.42753
G1 X87.591 Y61.072 E2.45926
G1 X87.059 Y61.365 E2.49098
G1 X86.494 Y61.589 E2.52270
G1 X85.906 Y61.740 E2.55443
G1 X85.363 Y61.808 E2.58301
G1 X85.284 Y61.501 F1800.000
G1 X84.716 Y61.501 E2.61267 F720.000
G1 X84.153 Y61.430 E2.64233
G1 X83.603 Y61.289 E2.67199
G1 X83.075 Y61.080 E2.70165
G1 X82.578 Y60.807 E2.73131
G1 X82.119 Y60.473 E2.76096
G1 X81.705 Y60.084 E2.79062
G1 X81.343 Y59.647 E2.82028
G1 X81.039 Y59.168 E2.84992
G1 X80.802 Y58.668 E2.87882
G1 X80.621 Y58.114 E2.90929
G1 X80.514 Y57.534 E2.94007
G1 X80.480 Y56.990 E2.96857
G1 X80.515 Y56.423 E2.99823
G1 X80.622 Y55.866 E3.02789
G1 X80.797 Y55.325 E3.05757
G1 X81.051 Y54.794 E3.08835
G1 X81.343 Y54.333 E3.11685
G1 X81.705 Y53.896 E3.14651
G1 X82.119 Y53.507 E3.17617
G1 X82.578 Y53.173 E3.20583
G1 X83.075 Y52.900 E3.23548
G1 X83.603 Y52.691 E3.26514
G1 X84.131 Y52.555 E3.29364
G1 X84.716 Y52.479 E3.32442
G1 X85.284 Y52.479 E3.35411
G1 X85.825 Y52.547 E3.38261
G1 X86.396 Y52.691 E3.41339
G1 X86.925 Y52.900 E3.44307
G1 X87.422 Y53.173 E3.47273
G1 X87.881 Y53.507 E3.50239
G1 X88.295 Y53.896 E3.53205
G1 X88.657 Y54.333 E3.56171
G1 X88.961 Y54.812 E3.59135
G1 X89.198 Y55.312 E3.62025
G1 X89.378 Y55.866 E3.65069
G1 X89.485 Y56.423 E3.68034
G1 X89.520 Y56.990 E3.71000
G1 X89.485 Y57.557 E3.73966
G1 X89.378 Y58.114 E3.76932
G1 X89.203 Y58.654 E3.79898
G1 X88.961 Y59.168 E3.82864
G1 X88.657 Y59.647 E3.85829
G1 X88.295 Y60.084 E3.88795
G1 X87.881 Y60.473 E3.91761
G1 X87.422 Y60.807 E3.94727
G1 X86.925 Y61.080 E3.97693
G1 X86.397 Y61.289 E4.00658
G1 X85.847 Y61.430 E4.03624
G1 X85.343 Y61.494 E4.06277
G1 X85.099 Y61.856 F1800.000
G1 E3.06277 F1200.00000
G92 E0
G1 X90.306 Y62.296 F1800.000
G1 E1.00000 F1200.00000
G1 X79.694 Y62.296 E1.55441 F1920.000
G1 X79.694 Y51.684 E2.10881
G1 X90.306 Y51.684 E2.66322
G1 X90.306 Y62.236 E3.21449
G1 X90.620 Y62.610 F1800.000
G1 X79.380 Y62.610 E3.80172 F1440.000
G1 X79.380 Y51.370 E4.38896
G1 X90.620 Y51.370 E4.97619
G1 X90.620 Y62.550 E5.56029
G1 X90.274 Y62.410 F1800.000
G1 X90.322 Y62.217 F1800.000
G1 X86.602 Y62.217 E5.76165 F1920.000
G1 X86.561 Y61.892 E5.77942
G1 X90.322 Y61.892 E5.98301
G1 X90.322 Y61.566 E6.00063
G1 X86.615 Y61.566 E6.20129
G1 X87.312 Y61.241 F1800.000
G1 X90.322 Y61.241 E6.36423 F1920.000
G1 X90.322 Y60.915 E6.38185
G1 X87.813 Y60.915 E6.51768
G1 X88.207 Y60.590 E6.54538
G1 X90.322 Y60.590 E6.65984
G1 X90.322 Y60.264 E6.67746
G1 X88.536 Y60.264 E6.77413
G1 X88.805 Y59.938 E6.79700
G1 X90.322 Y59.938 E6.87909
G1 X90.322 Y59.613 E6.89671
G1 X89.026 Y59.613 E6.96686
G1 X89.223 Y59.287 E6.98745
G1 X90.322 Y59.287 E7.04695
G1 X90.322 Y58.962 E7.06458
G1 X89.376 Y58.962 E7.11578
G1 X89.506 Y58.636 E7.13477
G1 X89.844 Y58.636 E7.15304
G1 X89.937 Y58.607 F1800.000
G1 X89.991 Y58.261 E7.19457 F192.000
G1 X90.040 Y57.741 E7.25668
G1 X90.040 Y57.741 F1800.000
G1 X90.071 Y56.985 E7.29618 F192.000
G1 X90.040 Y56.239 E7.33517
G1 X90.040 Y56.239 F1800.000
G1 X89.991 Y55.719 E7.39728 F192.000
G1 X89.937 Y55.373 E7.43881
G1 X89.844 Y55.344 F1800.000
G1 X89.506 Y55.344 E7.45707 F1920.000
G1 X89.377 Y55.018 E7.47603
G1 X90.322 Y55.018 E7.52716
G1 X90.322 Y54.693 E7.54478
G1 X89.223 Y54.693 E7.60427
G1 X89.026 Y54.367 E7.62487
G1 X90.322 Y54.367 E7.69502
G1 X90.322 Y54.042 E7.71264
G1 X88.805 Y54.042 E7.79473
G1 X88.536 Y53.716 E7.81760
G1 X90.322 Y53.716 E7.91427
G1 X90.322 Y53.390 E7.93189
G1 X88.207 Y53.390 E8.04635
G1 X87.813 Y53.065 E8.07405
G1 X90.322 Y53.065 E8.20988
G1 X90.322 Y52.739 E8.22750
G1 X87.312 Y52.739 E8.39043
G1 X86.615 Y52.414 F1800.000
G1 X90.322 Y52.414 E8.59109 F1920.000
G1 X90.322 Y52.088 E8.60872
G1 X86.561 Y52.088 E8.81230
G1 X86.601 Y51.763 E8.83006
G1 X90.322 Y51.763 E9.03147
G1 E8.03147 F1200.00000
G92 E0
G1 X86.602 Y52.046 F1800.000
G1 E1.00000 F1200.00000
G1 X85.787 Y51.954 E1.09741 F192.000
G1 X85.787 Y51.954 F1800.000
G1 X85.313 Y51.924 E1.12218 F192.000
G1 X84.685 Y51.924 E1.15502
G1 X84.233 Y51.953 E1.17866
G1 X84.233 Y51.953 F1800.000
G1 X83.398 Y52.046 E1.27843 F192.000
G1 X83.398 Y51.763 F1800.000
G1 X79.678 Y51.763 E1.47979 F1920.000
G1 X79.678 Y52.088 E1.49742
G1 X83.439 Y52.088 E1.70101
G1 X83.385 Y52.414 E1.71888
G1 X79.678 Y52.414 E1.91953
G1 X79.678 Y52.739 E1.93716
G1 X82.688 Y52.739 E2.10009
G1 X82.187 Y53.065 E2.13242
G1 X79.678 Y53.065 E2.26824
G1 X79.678 Y53.390 E2.28587
G1 X81.793 Y53.390 E2.40032
G1 X81.464 Y53.716 E2.42537
G1 X79.678 Y53.716 E2.52203
G1 X79.678 Y54.042 E2.53966
G1 X81.195 Y54.042 E2.62174
G1 X80.974 Y54.367 E2.64303
G1 X79.678 Y54.367 E2.71318
G1 X79.678 Y54.693 E2.73080
G1 X80.780 Y54.693 E2.79045
G1 X80.625 Y55.018 E2.80997
G1 X79.678 Y55.018 E2.86122
G1 X80.156 Y55.344 E2.89252
G1 X80.494 Y55.344 E2.91079
G1 X80.063 Y55.373 F1800.000
G1 X80.009 Y55.719 E2.95232 F192.000
G1 X79.960 Y56.239 E3.01443
G1 X79.960 Y56.239 F1800.000
G1 X79.929 Y56.995 E3.05393 F192.000
G1 X79.960 Y57.731 E3.09243
G1 X80.009 Y58.259 E3.15537 F192.000
G1 X80.063 Y58.607 E3.19718
G1 X80.494 Y58.636 F1800.000
G1 X80.156 Y58.636 E3.21545 F1920.000
G1 X80.623 Y58.962 E3.24624
G1 X79.678 Y58.962 E3.29737
G1 X79.678 Y59.287 E3.31499
G1 X80.777 Y59.287 E3.37449
G1 X80.974 Y59.613 E3.39508
G1 X79.678 Y59.613 E3.46523
G1 X79.678 Y59.938 E3.48286
G1 X81.195 Y59.938 E3.56494
G1 X81.464 Y60.264 E3.58781
G1 X79.678 Y60.264 E3.68448
G1 X79.678 Y60.590 E3.70210
G1 X81.793 Y60.590 E3.81656
G1 X82.187 Y60.915 E3.84426
G1 X79.678 Y60.915 E3.98009
G1 X79.678 Y61.241 E3.99771
G1 X82.688 Y61.241 E4.16065
G1 X83.385 Y61.566 F1800.000
G1 X79.678 Y61.566 E4.36131 F1920.000
G1 X79.678 Y61.892 E4.37893
G1 X83.439 Y61.892 E4.58252
G1 X83.398 Y62.217 E4.60029
G1 X79.678 Y62.217 E4.80165
G1 E3.80165 F1200.00000
G92 E0
G1 X83.398 Y61.934 F1800.000
G1 E1.00000 F1200.00000
G1 X84.213 Y62.026 E1.09741 F192.000
G1 X84.213 Y62.026 F1800.000
G1 X84.687 Y62.056 E1.12218 F192.000
G1 X85.313 Y62.056 E1.15493
G1 X85.787 Y62.026 E1.17970
G1 X86.602 Y61.934 E1.27711 F192.000
G1 Z0.150 F1800.000
M104 S225 ; set temperature
