; generated by Slic3r 1.2.9 on 2018-10-16 at 20:23:06

; external perimeters extrusion width = 0.40mm
; perimeters extrusion width = 0.40mm
; infill extrusion width = 0.40mm
; solid infill extrusion width = 0.40mm
; top infill extrusion width = 0.40mm
; support material extrusion width = 0.40mm

M107
M190 S110
M104 S230
M109 S230
G28 ; home all axes
G21 ; set units to millimeters
G90 ; use absolute coordinates
M82 ; use absolute distances for extrusion
G92 E0
G1 Z0.150 F1800.000
G1 E-1.00000 F1200.00000
G92 E0
G1 X68.511 Y55.965 F1800.000
G1 E1.00000 F1200.00000
G1 X70.952 Y55.118 E1.13504 F2400.000
G1 X82.832 Y55.118 E1.75571
G1 X83.235 Y55.138 E1.77677
G1 X99.450 Y56.803 E2.62838
G1 X101.121 Y57.372 E2.72057
G1 X102.376 Y58.612 E2.81277
G1 X102.990 Y60.725 E2.92773
G1 X102.990 Y69.275 E3.37442
G1 X102.595 Y70.995 E3.46661
G1 X101.489 Y72.370 E3.55881
G1 X99.450 Y73.197 E3.67377
G1 X83.235 Y74.862 E4.52537
G1 X82.832 Y74.882 E4.54644
G1 X70.952 Y74.882 E5.16711
G1 X69.233 Y74.488 E5.25930
G1 X67.857 Y73.382 E5.35150
G1 X67.010 Y70.940 E5.48653
G1 X67.010 Y59.060 E6.10720
G1 X67.405 Y57.340 E6.19940
G1 X68.473 Y56.012 E6.28846
G1 X68.816 Y56.127 F1800.000
G1 X70.952 Y55.432 E6.40582 F2400.000
G1 X82.832 Y55.432 E7.02649
G1 X83.203 Y55.451 E7.04588
G1 X99.418 Y57.116 E7.89749
G1 X101.015 Y57.676 E7.98588
G1 X102.183 Y58.900 E8.07428
G1 X102.676 Y60.725 E8.17306
G1 X102.676 Y69.275 E8.61975
G1 X102.281 Y70.920 E8.70815
G1 X101.184 Y72.208 E8.79654
G1 X99.418 Y72.884 E8.89532
G1 X83.203 Y74.549 E9.74693
G1 X82.832 Y74.568 E9.76631
G1 X70.952 Y74.568 E10.38698
G1 X69.307 Y74.174 E10.47538
G1 X68.020 Y73.076 E10.56377
G1 X67.324 Y70.940 E10.68114
G1 X67.324 Y59.060 E11.30181
G1 X67.719 Y57.415 E11.39021
G1 X68.777 Y56.173 E11.47547
G1 X69.121 Y56.298 F1800.000
G1 X70.952 Y55.746 E11.57543 F2400.000
G1 X82.832 Y55.746 E12.19610
G1 X83.171 Y55.763 E12.21381
G1 X99.386 Y57.428 E13.06542
G1 X100.905 Y57.980 E13.14985
G1 X101.982 Y59.185 E13.23427
G1 X102.362 Y60.725 E13.31715
G1 X102.362 Y69.275 E13.76384
G1 X101.968 Y70.842 E13.84827
G1 X100.879 Y72.037 E13.93270
G1 X99.386 Y72.572 E14.01558
G1 X83.171 Y74.237 E14.86718
G1 X82.832 Y74.254 E14.88489
G1 X70.952 Y74.254 E15.50556
G1 X69.385 Y73.860 E15.58999
G1 X68.191 Y72.772 E15.67441
G1 X67.638 Y70.940 E15.77438
G1 X67.638 Y59.060 E16.39505
G1 X68.032 Y57.493 E16.47947
G1 X69.080 Y56.343 E16.56076
G1 E15.56076 F1200.00000
G92 E0
G1 X97.434 Y66.934 F1800.000
G1 E1.00000 F1200.00000
G1 X97.171 Y67.252 E1.02159 F720.000
G1 X96.870 Y67.535 E1.04317
G1 X96.535 Y67.778 E1.06476
G1 X96.173 Y67.977 E1.08635
G1 X95.789 Y68.129 E1.10793
G1 X95.389 Y68.232 E1.12952
G1 X94.979 Y68.284 E1.15111
G1 X94.566 Y68.284 E1.17269
G1 X94.156 Y68.232 E1.19428
G1 X93.756 Y68.129 E1.21587
G1 X93.372 Y67.977 E1.23745
G1 X93.010 Y67.778 E1.25904
G1 X92.674 Y67.534 E1.28069
G1 X92.364 Y67.241 E1.30300
G1 X92.111 Y66.934 E1.32380
G1 X91.889 Y66.585 E1.34538
G1 X91.713 Y66.211 E1.36697
G1 X91.585 Y65.817 E1.38862
G1 X91.507 Y65.397 E1.41093
G1 X91.482 Y65.000 E1.43172
G1 X91.508 Y64.588 E1.45331
G1 X91.586 Y64.182 E1.47490
G1 X91.713 Y63.789 E1.49648
G1 X91.889 Y63.415 E1.51807
G1 X92.111 Y63.066 E1.53966
G1 X92.374 Y62.748 E1.56124
G1 X92.675 Y62.465 E1.58283
G1 X93.010 Y62.222 E1.60442
G1 X93.372 Y62.023 E1.62600
G1 X93.756 Y61.871 E1.64759
G1 X94.141 Y61.772 E1.66839
G1 X94.565 Y61.716 E1.69069
G1 X94.979 Y61.716 E1.71235
G1 X95.389 Y61.768 E1.73393
G1 X95.789 Y61.871 E1.75552
G1 X96.173 Y62.023 E1.77711
G1 X96.535 Y62.222 E1.79869
G1 X96.871 Y62.466 E1.82034
G1 X97.181 Y62.759 E1.84265
G1 X97.434 Y63.066 E1.86345
G1 X97.656 Y63.415 E1.88503
G1 X97.832 Y63.789 E1.90662
G1 X97.959 Y64.182 E1.92821
G1 X98.037 Y64.588 E1.94979
G1 X98.063 Y65.000 E1.97138
G1 X98.037 Y65.412 E1.99297
G1 X97.959 Y65.818 E2.01455
G1 X97.832 Y66.211 E2.03614
G1 X97.656 Y66.585 E2.05773
G1 X97.466 Y66.883 E2.07618
G1 X97.180 Y66.749 F1800.000
G1 X96.941 Y67.037 E2.09570 F720.000
G1 X96.669 Y67.293 E2.11522
G1 X96.367 Y67.512 E2.13474
G1 X96.039 Y67.692 E2.15427
G1 X95.692 Y67.830 E2.17379
G1 X95.330 Y67.923 E2.19331
G1 X94.959 Y67.970 E2.21283
G1 X94.586 Y67.970 E2.23235
G1 X94.215 Y67.923 E2.25187
G1 X93.853 Y67.830 E2.27140
G1 X93.506 Y67.692 E2.29092
G1 X93.178 Y67.512 E2.31044
G1 X92.876 Y67.292 E2.32998
G1 X92.594 Y67.026 E2.35023
G1 X92.365 Y66.749 E2.36900
G1 X92.165 Y66.433 E2.38852
G1 X92.006 Y66.095 E2.40804
G1 X91.890 Y65.739 E2.42759
G1 X91.820 Y65.359 E2.44783
G1 X91.797 Y65.000 E2.46660
G1 X91.821 Y64.627 E2.48612
G1 X91.891 Y64.260 E2.50564
G1 X92.006 Y63.905 E2.52516
G1 X92.165 Y63.567 E2.54469
G1 X92.365 Y63.251 E2.56421
G1 X92.604 Y62.963 E2.58373
G1 X92.876 Y62.707 E2.60325
G1 X93.178 Y62.488 E2.62277
G1 X93.506 Y62.308 E2.64229
G1 X93.853 Y62.170 E2.66181
G1 X94.201 Y62.081 E2.68058
G1 X94.585 Y62.030 E2.70083
G1 X94.959 Y62.030 E2.72037
G1 X95.330 Y62.077 E2.73989
G1 X95.692 Y62.170 E2.75942
G1 X96.039 Y62.308 E2.77894
G1 X96.367 Y62.488 E2.79846
G1 X96.669 Y62.708 E2.81801
G1 X96.951 Y62.974 E2.83825
G1 X97.180 Y63.251 E2.85702
G1 X97.380 Y63.567 E2.87654
G1 X97.539 Y63.905 E2.89606
G1 X97.654 Y64.260 E2.91558
G1 X97.724 Y64.627 E2.93510
G1 X97.748 Y65.000 E2.95462
G1 X97.724 Y65.373 E2.97415
G1 X97.654 Y65.740 E2.99367
G1 X97.539 Y66.095 E3.01319
G1 X97.380 Y66.433 E3.03271
G1 X97.212 Y66.698 E3.04910
G1 X97.324 Y67.093 F1800.000
G1 E2.04910 F1200.00000
G92 E0
G1 X98.533 Y68.761 F1800.000
G1 E1.00000 F1200.00000
G1 X91.012 Y68.761 E1.39297 F720.000
G1 X91.012 Y61.239 E1.78594
G1 X98.533 Y61.239 E2.17891
G1 X98.533 Y68.701 E2.56874
G1 X98.848 Y69.075 F1800.000
G1 X90.698 Y69.075 E2.99454 F720.000
G1 X90.698 Y60.925 E3.42034
G1 X98.848 Y60.925 E3.84613
G1 X98.848 Y69.015 E4.26879
G1 X98.501 Y68.875 F1800.000
G1 X98.549 Y68.682 F1800.000
G1 X96.107 Y68.682 E4.40522 F1920.000
G1 X96.043 Y68.346 E4.42432
G1 X98.549 Y68.346 E4.56433
G1 X98.549 Y68.010 E4.58309
G1 X96.140 Y68.010 E4.71769
G1 X96.683 Y67.675 E4.75338
G1 X98.549 Y67.675 E4.85762
G1 X98.549 Y67.339 E4.87638
G1 X97.070 Y67.339 E4.95900
G1 X97.359 Y67.003 E4.98375
G1 X98.549 Y67.003 E5.05023
G1 X98.549 Y66.667 E5.06899
G1 X97.579 Y66.667 E5.12319
G1 X97.746 Y66.331 E5.14414
G1 X98.084 Y66.331 E5.16305
G1 X98.177 Y66.301 F1800.000
G1 X98.268 Y65.621 E5.24457 F192.000
G1 X98.298 Y65.005 E5.27679 F192.000
G1 X98.268 Y64.379 E5.30952
G1 X98.268 Y64.379 F1800.000
G1 X98.177 Y63.699 E5.39104 F192.000
G1 X98.084 Y63.669 F1800.000
G1 X97.746 Y63.669 E5.40994 F1920.000
G1 X97.579 Y63.333 E5.43090
G1 X98.549 Y63.333 E5.48510
G1 X98.549 Y62.997 E5.50386
G1 X97.359 Y62.997 E5.57034
G1 X97.068 Y62.661 E5.59517
G1 X98.549 Y62.661 E5.67791
G1 X98.549 Y62.325 E5.69668
G1 X96.683 Y62.325 E5.80091
G1 X96.140 Y61.990 E5.83660
G1 X98.549 Y61.990 E5.97120
G1 X98.549 Y61.654 E5.98996
G1 X96.043 Y61.654 E6.12997
G1 X96.107 Y61.318 E6.14907
G1 X98.549 Y61.318 E6.28550
G1 E5.28550 F1200.00000
G92 E0
G1 X96.088 Y61.600 F1800.000
G1 E1.00000 F1200.00000
G1 X95.403 Y61.501 E1.08216 F192.000
G1 X95.403 Y61.503 F1800.000
G1 X94.989 Y61.478 E1.10382 F192.000
G1 X94.554 Y61.478 E1.12653
G1 X94.142 Y61.504 E1.14811
G1 X94.142 Y61.501 F1800.000
G1 X93.457 Y61.600 E1.23026 F192.000
G1 X93.438 Y61.318 F1800.000
G1 X90.996 Y61.318 E1.36669 F1920.000
G1 X90.996 Y61.654 E1.38545
G1 X93.502 Y61.654 E1.52546
G1 X93.405 Y61.990 E1.54499
G1 X90.996 Y61.990 E1.67958
G1 X90.996 Y62.325 E1.69835
G1 X92.862 Y62.325 E1.80259
G1 X92.475 Y62.661 E1.83122
G1 X90.996 Y62.661 E1.91383
G1 X90.996 Y62.997 E1.93260
G1 X92.186 Y62.997 E1.99908
G1 X91.966 Y63.333 E2.02150
G1 X90.996 Y63.333 E2.07570
G1 X91.461 Y63.669 E2.10774
G1 X91.799 Y63.669 E2.12665
G1 X91.368 Y63.699 F1800.000
G1 X91.277 Y64.379 E2.20817 F192.000
G1 X91.277 Y64.379 F1800.000
G1 X91.247 Y65.005 E2.24090 F192.000
G1 X91.278 Y65.618 E2.27298
G1 X91.278 Y65.618 F1800.000
G1 X91.368 Y66.301 E2.35480 F192.000
G1 X91.799 Y66.331 F1800.000
G1 X91.461 Y66.331 E2.37371 F1920.000
G1 X90.996 Y66.667 E2.40575
G1 X91.966 Y66.667 E2.45995
G1 X92.186 Y67.003 E2.48237
G1 X90.996 Y67.003 E2.54885
G1 X90.996 Y67.339 E2.56762
G1 X92.477 Y67.339 E2.65035
G1 X92.862 Y67.675 E2.67889
G1 X90.996 Y67.675 E2.78313
G1 X90.996 Y68.010 E2.80190
G1 X93.405 Y68.010 E2.93649
G1 X93.502 Y68.346 E2.95603
G1 X90.996 Y68.346 E3.09603
G1 X90.996 Y68.682 E3.11480
G1 X93.438 Y68.682 E3.25122
G1 X93.457 Y68.400 F1800.000
G1 X94.142 Y68.499 E3.33338 F192.000
G1 X94.142 Y68.497 F1800.000
G1 X94.556 Y68.522 E3.35505 F192.000
G1 X94.989 Y68.522 E3.37766
G1 X95.403 Y68.497 E3.39933
G1 X95.403 Y68.499 F1800.000
G1 X96.088 Y68.400 E3.48149 F192.000
G1 Z0.150 F1800.000
G1 Z0.150 F1800.000
G1 E2.48149 F1200.00000
G92 E0
G1 X89.498 Y69.689 F1800.000
G1 X87.737 Y71.450 F1800.000
G1 X86.418 Y71.354 F1800.000
G1 X83.832 Y71.354 F1800.000
G1 X81.809 Y65.621 F1800.000
G1 E1.00000 F1200.00000
G1 X81.692 Y66.232 E1.03251 F720.000
G1 X81.500 Y66.824 E1.06502
G1 X81.235 Y67.387 E1.09753
G1 X80.901 Y67.913 E1.13004
G1 X80.505 Y68.392 E1.16255
G1 X80.051 Y68.818 E1.19506
G1 X79.548 Y69.184 E1.22758
G1 X79.002 Y69.484 E1.26009
G1 X78.424 Y69.713 E1.29260
G1 X77.821 Y69.867 E1.32511
G1 X77.204 Y69.945 E1.35762
G1 X76.581 Y69.945 E1.39013
G1 X75.964 Y69.867 E1.42264
G1 X75.361 Y69.713 E1.45515
G1 X74.783 Y69.484 E1.48766
G1 X74.237 Y69.184 E1.52017
G1 X73.731 Y68.816 E1.55286
G1 X73.280 Y68.392 E1.58520
G1 X72.884 Y67.913 E1.61771
G1 X72.550 Y67.387 E1.65022
G1 X72.285 Y66.824 E1.68273
G1 X72.093 Y66.231 E1.71530
G1 X71.975 Y65.598 E1.74897
G1 X71.937 Y65.000 E1.78025
G1 X71.976 Y64.379 E1.81276
G1 X72.093 Y63.768 E1.84527
G1 X72.285 Y63.176 E1.87778
G1 X72.550 Y62.613 E1.91029
G1 X72.884 Y62.087 E1.94280
G1 X73.280 Y61.608 E1.97532
G1 X73.734 Y61.182 E2.00783
G1 X74.237 Y60.816 E2.04034
G1 X74.783 Y60.516 E2.07285
G1 X75.361 Y60.287 E2.10536
G1 X75.964 Y60.133 E2.13787
G1 X76.581 Y60.055 E2.17038
G1 X77.204 Y60.055 E2.20289
G1 X77.821 Y60.133 E2.23540
G1 X78.424 Y60.287 E2.26791
G1 X79.002 Y60.516 E2.30042
G1 X79.548 Y60.816 E2.33293
G1 X80.054 Y61.184 E2.36562
G1 X80.505 Y61.608 E2.39797
G1 X80.901 Y62.087 E2.43047
G1 X81.235 Y62.613 E2.46298
G1 X81.500 Y63.176 E2.49549
G1 X81.692 Y63.769 E2.52806
G1 X81.810 Y64.402 E2.56173
G1 X81.848 Y65.000 E2.59301
G1 X81.812 Y65.561 E2.62239
G1 X81.496 Y65.582 F1800.000
G1 X81.387 Y66.154 E2.65283 F720.000
G1 X81.207 Y66.708 E2.68328
G1 X80.959 Y67.236 E2.71372
G1 X80.647 Y67.728 E2.74417
G1 X80.275 Y68.177 E2.77462
G1 X79.850 Y68.575 E2.80506
G1 X79.379 Y68.918 E2.83551
G1 X78.868 Y69.199 E2.86595
G1 X78.326 Y69.413 E2.89640
G1 X77.762 Y69.558 E2.92684
G1 X77.184 Y69.631 E2.95729
G1 X76.601 Y69.631 E2.98773
G1 X76.023 Y69.558 E3.01818
G1 X75.459 Y69.413 E3.04863
G1 X74.917 Y69.199 E3.07907
G1 X74.406 Y68.918 E3.10952
G1 X73.932 Y68.574 E3.14013
G1 X73.510 Y68.177 E3.17041
G1 X73.138 Y67.728 E3.20085
G1 X72.826 Y67.236 E3.23130
G1 X72.578 Y66.708 E3.26175
G1 X72.398 Y66.154 E3.29222
G1 X72.287 Y65.559 E3.32382
G1 X72.252 Y65.000 E3.35307
G1 X72.289 Y64.418 E3.38352
G1 X72.398 Y63.846 E3.41396
G1 X72.578 Y63.292 E3.44441
G1 X72.826 Y62.764 E3.47485
G1 X73.138 Y62.272 E3.50530
G1 X73.510 Y61.823 E3.53575
G1 X73.935 Y61.425 E3.56619
G1 X74.406 Y61.082 E3.59664
G1 X74.917 Y60.801 E3.62708
G1 X75.459 Y60.587 E3.65753
G1 X76.023 Y60.442 E3.68797
G1 X76.601 Y60.369 E3.71842
G1 X77.184 Y60.369 E3.74886
G1 X77.762 Y60.442 E3.77931
G1 X78.326 Y60.587 E3.80976
G1 X78.868 Y60.801 E3.84020
G1 X79.379 Y61.082 E3.87065
G1 X79.853 Y61.426 E3.90126
G1 X80.275 Y61.823 E3.93154
G1 X80.647 Y62.272 E3.96198
G1 X80.959 Y62.764 E3.99243
G1 X81.207 Y63.292 E4.02287
G1 X81.387 Y63.846 E4.05335
G1 X81.498 Y64.441 E4.08495
G1 X81.533 Y65.000 E4.11420
G1 X81.500 Y65.522 E4.14151
G1 X81.810 Y65.830 F1800.000
G1 E3.14151 F1200.00000
G92 E0
G1 X82.318 Y70.426 F1800.000
G1 E1.00000 F1200.00000
G1 X71.467 Y70.426 E1.56695 F1920.000
G1 X71.467 Y59.574 E2.13389
G1 X82.318 Y59.574 E2.70084
G1 X82.318 Y70.366 E3.26465
G1 X82.632 Y70.740 F1800.000
G1 X71.152 Y70.740 E3.86442 F1440.000
G1 X71.152 Y59.260 E4.46419
G1 X82.632 Y59.260 E5.06396
G1 X82.632 Y70.680 E5.66060
G1 X82.286 Y70.540 F1800.000
G1 X82.334 Y70.347 F1800.000
G1 X78.517 Y70.347 E5.87313 F1920.000
G1 X78.475 Y70.013 E5.89192
G1 X82.334 Y70.013 E6.10680
G1 X82.334 Y69.678 E6.12544
G1 X78.577 Y69.678 E6.33465
G1 X79.285 Y69.343 F1800.000
G1 X82.334 Y69.343 E6.50439 F1920.000
G1 X82.334 Y69.008 E6.52303
G1 X79.795 Y69.008 E6.66441
G1 X80.196 Y68.673 E6.69353
G1 X82.334 Y68.673 E6.81255
G1 X82.334 Y68.339 E6.83119
G1 X80.531 Y68.339 E6.93160
G1 X80.808 Y68.004 E6.95579
G1 X82.334 Y68.004 E7.04078
G1 X82.334 Y67.669 E7.05942
G1 X81.031 Y67.669 E7.13197
G1 X81.230 Y67.334 E7.15366
G1 X82.334 Y67.334 E7.21512
G1 X82.334 Y66.999 E7.23377
G1 X81.388 Y66.999 E7.28646
G1 X81.519 Y66.665 E7.30648
G1 X81.856 Y66.665 E7.32526
G1 X81.949 Y66.635 F1800.000
G1 X82.001 Y66.301 E7.36536 F192.000
G1 X82.053 Y65.761 E7.42987
G1 X82.053 Y65.761 F1800.000
G1 X82.083 Y64.995 E7.46990 F192.000
G1 X82.052 Y64.249 E7.50889
G1 X82.052 Y64.249 F1800.000
G1 X82.002 Y63.701 E7.57429 F192.000
G1 X81.949 Y63.365 E7.61468
G1 X81.856 Y63.335 F1800.000
G1 X81.519 Y63.335 E7.63346 F1920.000
G1 X81.388 Y63.001 E7.65348
G1 X82.334 Y63.001 E7.70617
G1 X82.334 Y62.666 E7.72481
G1 X81.230 Y62.666 E7.78628
G1 X81.031 Y62.331 E7.80796
G1 X82.334 Y62.331 E7.88051
G1 X82.334 Y61.996 E7.89916
G1 X80.808 Y61.996 E7.98414
G1 X80.531 Y61.661 E8.00834
G1 X82.334 Y61.661 E8.10875
G1 X82.334 Y61.327 E8.12739
G1 X80.197 Y61.327 E8.24639
G1 X79.795 Y60.992 E8.27552
G1 X82.334 Y60.992 E8.41690
G1 X82.334 Y60.657 E8.43554
G1 X79.285 Y60.657 E8.60528
G1 X78.577 Y60.322 F1800.000
G1 X82.334 Y60.322 E8.81448 F1920.000
G1 X82.334 Y59.987 E8.83312
G1 X78.475 Y59.987 E9.04801
G1 X78.517 Y59.653 E9.06680
G1 X82.334 Y59.653 E9.27933
G1 E8.27933 F1200.00000
G92 E0
G1 X78.516 Y59.937 F1800.000
G1 E1.00000 F1200.00000
G1 X77.685 Y59.844 E1.09936 F192.000
G1 X77.685 Y59.844 F1800.000
G1 X77.214 Y59.814 E1.12403 F192.000
G1 X76.571 Y59.814 E1.15758
G1 X76.100 Y59.844 E1.18224
G1 X76.100 Y59.844 F1800.000
G1 X75.269 Y59.937 E1.28161 F192.000
G1 X75.268 Y59.653 F1800.000
G1 X71.451 Y59.653 E1.49414 F1920.000
G1 X71.451 Y59.987 E1.51278
G1 X75.310 Y59.987 E1.72766
G1 X75.208 Y60.322 E1.74715
G1 X71.451 Y60.322 E1.95635
G1 X71.451 Y60.657 E1.97499
G1 X74.500 Y60.657 E2.14473
G1 X73.990 Y60.992 E2.17867
G1 X71.451 Y60.992 E2.32005
G1 X71.451 Y61.327 E2.33869
G1 X73.589 Y61.327 E2.45772
G1 X73.254 Y61.661 E2.48406
G1 X71.451 Y61.661 E2.58447
G1 X71.451 Y61.996 E2.60311
G1 X72.977 Y61.996 E2.68809
G1 X72.754 Y62.331 E2.71050
G1 X71.451 Y62.331 E2.78305
G1 X71.451 Y62.666 E2.80169
G1 X72.555 Y62.666 E2.86316
G1 X72.397 Y63.001 E2.88376
G1 X71.451 Y63.001 E2.93645
G1 X71.929 Y63.335 E2.96894
G1 X72.266 Y63.335 E2.98772
G1 X71.836 Y63.365 F1800.000
G1 X71.784 Y63.699 E3.02782 F192.000
G1 X71.732 Y64.239 E3.09233
G1 X71.732 Y64.239 F1800.000
G1 X71.702 Y65.005 E3.13235 F192.000
G1 X71.733 Y65.751 E3.17135
G1 X71.733 Y65.751 F1800.000
G1 X71.783 Y66.299 E3.23675 F192.000
G1 X71.836 Y66.635 E3.27713
G1 X72.266 Y66.665 F1800.000
G1 X71.929 Y66.665 E3.29592 F1920.000
G1 X72.397 Y66.999 E3.32798
G1 X71.451 Y66.999 E3.38067
G1 X71.451 Y67.334 E3.39931
G1 X72.555 Y67.334 E3.46078
G1 X72.754 Y67.669 E3.48246
G1 X71.451 Y67.669 E3.55502
G1 X71.451 Y68.004 E3.57366
G1 X72.977 Y68.004 E3.65864
G1 X73.254 Y68.339 E3.68284
G1 X71.451 Y68.339 E3.78325
G1 X71.451 Y68.673 E3.80189
G1 X73.588 Y68.673 E3.92089
G1 X73.990 Y69.008 E3.95002
G1 X71.451 Y69.008 E4.09140
G1 X71.451 Y69.343 E4.11004
G1 X74.500 Y69.343 E4.27979
G1 X75.208 Y69.678 F1800.000
G1 X71.451 Y69.678 E4.48899 F1920.000
G1 X71.451 Y70.013 E4.50763
G1 X75.310 Y70.013 E4.72251
G1 X75.268 Y70.347 E4.74130
G1 X71.451 Y70.347 E4.95383
G1 E3.95383 F1200.00000
G92 E0
G1 X75.269 Y70.063 F1800.000
G1 E1.00000 F1200.00000
G1 X76.100 Y70.156 E1.09936 F192.000
G1 X76.571 Y70.186 E1.12403 F192.000
G1 X77.214 Y70.186 E1.15758
G1 X77.685 Y70.156 E1.18224
G1 X78.516 Y70.063 E1.28161 F192.000
G1 Z0.150 F1800.000
M104 S225 ; set temperature
