; generated by Slic3r 1.2.9 on 2018-10-16 at 20:17:22

; external perimeters extrusion width = 0.40mm
; perimeters extrusion width = 0.40mm
; infill extrusion width = 0.40mm
; solid infill extrusion width = 0.40mm
; top infill extrusion width = 0.40mm
; support material extrusion width = 0.40mm

M107
M190 S110
M104 S230
M109 S230
G28 ; home all axes
G21 ; set units to millimeters
G90 ; use absolute coordinates
M82 ; use absolute distances for extrusion
G92 E0
G1 Z0.150 F1800.000
G1 E-1.00000 F1200.00000
G92 E0
G1 X68.656 Y56.045 F1800.000
G1 E1.00000 F1200.00000
G1 X71.097 Y55.198 E1.13504 F2400.000
G1 X82.817 Y55.198 E1.74735
G1 X83.216 Y55.218 E1.76820
G1 X99.301 Y56.853 E2.61289
G1 X100.972 Y57.420 E2.70509
G1 X102.229 Y58.659 E2.79728
G1 X102.845 Y60.775 E2.91244
G1 X102.845 Y69.225 E3.35391
G1 X102.450 Y70.945 E3.44611
G1 X101.344 Y72.320 E3.53830
G1 X99.301 Y73.147 E3.65346
G1 X83.216 Y74.782 E4.49815
G1 X82.817 Y74.802 E4.51901
G1 X71.097 Y74.802 E5.13132
G1 X69.378 Y74.408 E5.22351
G1 X68.002 Y73.302 E5.31570
G1 X67.155 Y70.860 E5.45074
G1 X67.155 Y59.140 E6.06305
G1 X67.550 Y57.420 E6.15525
G1 X68.618 Y56.092 E6.24430
G1 X68.961 Y56.207 F1800.000
G1 X71.097 Y55.512 E6.36167 F2400.000
G1 X82.817 Y55.512 E6.97398
G1 X83.184 Y55.530 E6.99318
G1 X99.269 Y57.165 E7.83787
G1 X100.866 Y57.724 E7.92626
G1 X102.036 Y58.946 E8.01466
G1 X102.531 Y60.775 E8.11362
G1 X102.531 Y69.225 E8.55509
G1 X102.136 Y70.870 E8.64349
G1 X101.039 Y72.158 E8.73188
G1 X99.269 Y72.835 E8.83085
G1 X83.184 Y74.470 E9.67554
G1 X82.817 Y74.488 E9.69474
G1 X71.097 Y74.488 E10.30705
G1 X69.452 Y74.094 E10.39544
G1 X68.165 Y72.996 E10.48384
G1 X67.469 Y70.860 E10.60120
G1 X67.469 Y59.140 E11.21351
G1 X67.864 Y57.495 E11.30191
G1 X68.922 Y56.253 E11.38717
G1 X69.266 Y56.378 F1800.000
G1 X71.097 Y55.826 E11.48714 F2400.000
G1 X82.817 Y55.826 E12.09945
G1 X83.153 Y55.843 E12.11698
G1 X99.238 Y57.478 E12.96167
G1 X100.757 Y58.028 E13.04609
G1 X101.835 Y59.232 E13.13052
G1 X102.217 Y60.775 E13.21357
G1 X102.217 Y69.225 E13.65504
G1 X101.823 Y70.792 E13.73947
G1 X100.734 Y71.987 E13.82389
G1 X99.238 Y72.522 E13.90695
G1 X83.153 Y74.157 E14.75164
G1 X82.817 Y74.174 E14.76917
G1 X71.097 Y74.174 E15.38148
G1 X69.530 Y73.780 E15.46590
G1 X68.336 Y72.692 E15.55033
G1 X67.783 Y70.860 E15.65030
G1 X67.783 Y59.140 E16.26261
G1 X68.177 Y57.573 E16.34703
G1 X69.225 Y56.423 E16.42832
G1 E15.42832 F1200.00000
G92 E0
G1 X97.299 Y66.905 F1800.000
G1 E1.00000 F1200.00000
G1 X97.039 Y67.218 E1.02126 F720.000
G1 X96.743 Y67.497 E1.04252
G1 X96.414 Y67.736 E1.06378
G1 X96.057 Y67.932 E1.08503
G1 X95.679 Y68.082 E1.10629
G1 X95.285 Y68.183 E1.12755
G1 X94.881 Y68.234 E1.14881
G1 X94.474 Y68.234 E1.17007
G1 X94.070 Y68.183 E1.19133
G1 X93.676 Y68.082 E1.21259
G1 X93.298 Y67.932 E1.23385
G1 X92.941 Y67.736 E1.25510
G1 X92.611 Y67.496 E1.27643
G1 X92.306 Y67.207 E1.29840
G1 X92.056 Y66.905 E1.31887
G1 X91.838 Y66.561 E1.34013
G1 X91.665 Y66.193 E1.36139
G1 X91.539 Y65.806 E1.38265
G1 X91.463 Y65.406 E1.40391
G1 X91.437 Y65.000 E1.42517
G1 X91.463 Y64.594 E1.44643
G1 X91.539 Y64.194 E1.46769
G1 X91.665 Y63.806 E1.48901
G1 X91.846 Y63.426 E1.51098
G1 X92.056 Y63.095 E1.53146
G1 X92.316 Y62.782 E1.55271
G1 X92.612 Y62.503 E1.57397
G1 X92.941 Y62.264 E1.59523
G1 X93.298 Y62.068 E1.61649
G1 X93.676 Y61.918 E1.63775
G1 X94.070 Y61.817 E1.65901
G1 X94.474 Y61.766 E1.68027
G1 X94.881 Y61.766 E1.70153
G1 X95.285 Y61.817 E1.72278
G1 X95.679 Y61.918 E1.74404
G1 X96.057 Y62.068 E1.76530
G1 X96.414 Y62.264 E1.78656
G1 X96.744 Y62.504 E1.80788
G1 X97.049 Y62.793 E1.82985
G1 X97.299 Y63.095 E1.85033
G1 X97.517 Y63.439 E1.87159
G1 X97.690 Y63.807 E1.89285
G1 X97.816 Y64.194 E1.91411
G1 X97.892 Y64.594 E1.93537
G1 X97.918 Y65.000 E1.95662
G1 X97.892 Y65.406 E1.97788
G1 X97.816 Y65.806 E1.99914
G1 X97.690 Y66.194 E2.02047
G1 X97.509 Y66.574 E2.04243
G1 X97.331 Y66.854 E2.05978
G1 X97.044 Y66.719 F1800.000
G1 X96.810 Y67.003 E2.07897 F720.000
G1 X96.542 Y67.254 E2.09817
G1 X96.245 Y67.470 E2.11736
G1 X95.923 Y67.647 E2.13655
G1 X95.581 Y67.782 E2.15575
G1 X95.226 Y67.874 E2.17494
G1 X94.861 Y67.920 E2.19413
G1 X94.494 Y67.920 E2.21333
G1 X94.129 Y67.874 E2.23252
G1 X93.774 Y67.782 E2.25171
G1 X93.432 Y67.647 E2.27091
G1 X93.110 Y67.470 E2.29010
G1 X92.812 Y67.254 E2.30932
G1 X92.536 Y66.992 E2.32922
G1 X92.311 Y66.719 E2.34767
G1 X92.114 Y66.409 E2.36687
G1 X91.958 Y66.077 E2.38606
G1 X91.844 Y65.728 E2.40525
G1 X91.775 Y65.367 E2.42445
G1 X91.752 Y65.000 E2.44364
G1 X91.775 Y64.633 E2.46283
G1 X91.844 Y64.272 E2.48203
G1 X91.958 Y63.923 E2.50125
G1 X92.122 Y63.579 E2.52115
G1 X92.311 Y63.280 E2.53960
G1 X92.545 Y62.997 E2.55880
G1 X92.813 Y62.746 E2.57799
G1 X93.110 Y62.530 E2.59718
G1 X93.432 Y62.353 E2.61638
G1 X93.774 Y62.218 E2.63557
G1 X94.129 Y62.126 E2.65476
G1 X94.494 Y62.080 E2.67396
G1 X94.861 Y62.080 E2.69315
G1 X95.226 Y62.126 E2.71234
G1 X95.581 Y62.218 E2.73154
G1 X95.923 Y62.353 E2.75073
G1 X96.245 Y62.530 E2.76992
G1 X96.543 Y62.746 E2.78914
G1 X96.819 Y63.008 E2.80905
G1 X97.044 Y63.280 E2.82750
G1 X97.241 Y63.591 E2.84669
G1 X97.397 Y63.923 E2.86589
G1 X97.511 Y64.272 E2.88508
G1 X97.580 Y64.633 E2.90427
G1 X97.603 Y65.000 E2.92347
G1 X97.580 Y65.367 E2.94266
G1 X97.511 Y65.728 E2.96185
G1 X97.397 Y66.077 E2.98107
G1 X97.233 Y66.421 E3.00097
G1 X97.076 Y66.669 E3.01629
G1 X97.187 Y67.058 F1800.000
G1 E2.01629 F1200.00000
G92 E0
G1 X98.388 Y68.711 F1800.000
G1 E1.00000 F1200.00000
G1 X90.967 Y68.711 E1.38774 F720.000
G1 X90.967 Y61.289 E1.77549
G1 X98.388 Y61.289 E2.16323
G1 X98.388 Y68.651 E2.54785
G1 X98.703 Y69.025 F1800.000
G1 X90.653 Y69.025 E2.96842 F720.000
G1 X90.653 Y60.975 E3.38899
G1 X98.703 Y60.975 E3.80956
G1 X98.703 Y68.965 E4.22700
G1 X98.356 Y68.825 F1800.000
G1 X98.404 Y68.632 F1800.000
G1 X96.003 Y68.632 E4.35901 F1920.000
G1 X95.940 Y68.302 E4.37751
G1 X98.404 Y68.302 E4.51299
G1 X98.404 Y67.971 E4.53116
G1 X96.013 Y67.971 E4.66263
G1 X96.550 Y67.641 E4.69731
G1 X98.404 Y67.641 E4.79924
G1 X98.404 Y67.310 E4.81741
G1 X96.933 Y67.310 E4.89830
G1 X97.219 Y66.979 E4.92232
G1 X98.404 Y66.979 E4.98749
G1 X98.404 Y66.649 E5.00567
G1 X97.436 Y66.649 E5.05888
G1 X97.601 Y66.318 E5.07919
G1 X97.940 Y66.318 E5.09780
G1 X98.033 Y66.289 F1800.000
G1 X98.123 Y65.617 E5.17833 F192.000
G1 X98.123 Y65.617 F1800.000
G1 X98.153 Y64.995 E5.21084 F192.000
G1 X98.123 Y64.383 E5.24284
G1 X98.123 Y64.383 F1800.000
G1 X98.033 Y63.710 E5.32357 F192.000
G1 X97.939 Y63.680 F1800.000
G1 X97.601 Y63.680 E5.34216 F1920.000
G1 X97.435 Y63.350 E5.36246
G1 X98.404 Y63.350 E5.41568
G1 X98.404 Y63.019 E5.43383
G1 X97.218 Y63.019 E5.49901
G1 X96.930 Y62.689 E5.52308
G1 X98.404 Y62.689 E5.60408
G1 X98.404 Y62.359 E5.62223
G1 X96.549 Y62.359 E5.72413
G1 X96.012 Y62.028 E5.75878
G1 X98.404 Y62.028 E5.89020
G1 X98.404 Y61.698 E5.90835
G1 X95.940 Y61.698 E6.04373
G1 X96.003 Y61.368 E6.06220
G1 X98.404 Y61.368 E6.19412
G1 E5.19412 F1200.00000
G92 E0
G1 X95.984 Y61.650 F1800.000
G1 E1.00000 F1200.00000
G1 X95.302 Y61.551 E1.08176 F192.000
G1 X95.302 Y61.553 F1800.000
G1 X94.891 Y61.528 E1.10329 F192.000
G1 X94.464 Y61.528 E1.12558
G1 X94.053 Y61.553 E1.14710
G1 X94.053 Y61.551 F1800.000
G1 X93.371 Y61.650 E1.22887 F192.000
G1 X93.352 Y61.368 F1800.000
G1 X90.951 Y61.368 E1.36088 F1920.000
G1 X90.951 Y61.698 E1.37905
G1 X93.415 Y61.698 E1.51453
G1 X93.342 Y62.029 E1.53314
G1 X90.951 Y62.029 E1.66461
G1 X90.951 Y62.359 E1.68278
G1 X92.805 Y62.359 E1.78471
G1 X92.422 Y62.690 E1.81251
G1 X90.951 Y62.690 E1.89340
G1 X90.951 Y63.021 E1.91157
G1 X92.136 Y63.021 E1.97674
G1 X91.919 Y63.351 E1.99850
G1 X90.951 Y63.351 E2.05171
G1 X91.415 Y63.682 E2.08305
G1 X91.754 Y63.682 E2.10166
G1 X91.322 Y63.711 F1800.000
G1 X91.232 Y64.383 E2.18219 F192.000
G1 X91.232 Y64.383 F1800.000
G1 X91.202 Y65.005 E2.21470 F192.000
G1 X91.232 Y65.617 E2.24670
G1 X91.232 Y65.617 F1800.000
G1 X91.322 Y66.290 E2.32743 F192.000
G1 X91.754 Y66.320 F1800.000
G1 X91.416 Y66.320 E2.34602 F1920.000
G1 X90.951 Y66.650 E2.37735
G1 X91.920 Y66.650 E2.43057
G1 X92.137 Y66.981 E2.45231
G1 X90.951 Y66.981 E2.51749
G1 X90.951 Y67.311 E2.53563
G1 X92.425 Y67.311 E2.61663
G1 X92.806 Y67.641 E2.64432
G1 X90.951 Y67.641 E2.74623
G1 X90.951 Y67.972 E2.76438
G1 X93.343 Y67.972 E2.89580
G1 X93.415 Y68.302 E2.91437
G1 X90.951 Y68.302 E3.04976
G1 X90.951 Y68.632 E3.06790
G1 X93.352 Y68.632 E3.19982
G1 X93.371 Y68.350 F1800.000
G1 X94.053 Y68.449 E3.28159 F192.000
G1 X94.053 Y68.447 F1800.000
G1 X94.464 Y68.472 E3.30311 F192.000
G1 X94.891 Y68.472 E3.32540
G1 X95.302 Y68.447 E3.34692
G1 X95.302 Y68.449 F1800.000
G1 X95.984 Y68.350 E3.42869 F192.000
G1 Z0.150 F1800.000
G1 Z0.150 F1800.000
G1 E2.42869 F1200.00000
G92 E0
G1 X89.453 Y69.639 F1800.000
G1 X87.704 Y71.388 F1800.000
G1 X86.403 Y71.274 F1800.000
G1 X83.817 Y71.274 F1800.000
G1 X81.794 Y65.611 F1800.000
G1 E1.00000 F1200.00000
G1 X81.680 Y66.209 E1.03179 F720.000
G1 X81.516 Y66.740 E1.06084
G1 X81.230 Y67.349 E1.09598
G1 X80.902 Y67.866 E1.12797
G1 X80.511 Y68.337 E1.15996
G1 X80.065 Y68.756 E1.19194
G1 X79.570 Y69.116 E1.22393
G1 X79.033 Y69.411 E1.25591
G1 X78.464 Y69.637 E1.28790
G1 X77.871 Y69.789 E1.31989
G1 X77.264 Y69.866 E1.35187
G1 X76.651 Y69.866 E1.38386
G1 X76.044 Y69.789 E1.41584
G1 X75.451 Y69.637 E1.44783
G1 X74.882 Y69.411 E1.47981
G1 X74.345 Y69.116 E1.51180
G1 X73.850 Y68.756 E1.54379
G1 X73.404 Y68.337 E1.57577
G1 X73.013 Y67.865 E1.60782
G1 X72.675 Y67.328 E1.64094
G1 X72.425 Y66.795 E1.67172
G1 X72.235 Y66.212 E1.70371
G1 X72.121 Y65.611 E1.73569
G1 X72.082 Y65.000 E1.76768
G1 X72.121 Y64.389 E1.79966
G1 X72.235 Y63.791 E1.83146
G1 X72.399 Y63.260 E1.86050
G1 X72.685 Y62.651 E1.89565
G1 X73.013 Y62.134 E1.92763
G1 X73.404 Y61.663 E1.95962
G1 X73.850 Y61.244 E1.99161
G1 X74.345 Y60.884 E2.02359
G1 X74.882 Y60.589 E2.05558
G1 X75.451 Y60.363 E2.08756
G1 X76.044 Y60.211 E2.11955
G1 X76.651 Y60.134 E2.15154
G1 X77.264 Y60.134 E2.18352
G1 X77.871 Y60.211 E2.21551
G1 X78.464 Y60.363 E2.24749
G1 X79.033 Y60.589 E2.27948
G1 X79.570 Y60.884 E2.31146
G1 X80.065 Y61.244 E2.34345
G1 X80.511 Y61.663 E2.37544
G1 X80.902 Y62.135 E2.40749
G1 X81.240 Y62.672 E2.44061
G1 X81.490 Y63.205 E2.47139
G1 X81.680 Y63.788 E2.50337
G1 X81.794 Y64.389 E2.53536
G1 X81.833 Y65.000 E2.56734
G1 X81.798 Y65.551 E2.59619
G1 X81.482 Y65.572 F1800.000
G1 X81.375 Y66.133 E2.62604 F720.000
G1 X81.222 Y66.626 E2.65302
G1 X80.954 Y67.197 E2.68598
G1 X80.647 Y67.681 E2.71590
G1 X80.282 Y68.122 E2.74582
G1 X79.864 Y68.514 E2.77574
G1 X79.401 Y68.850 E2.80567
G1 X78.899 Y69.126 E2.83559
G1 X78.367 Y69.337 E2.86551
G1 X77.812 Y69.480 E2.89543
G1 X77.244 Y69.551 E2.92535
G1 X76.671 Y69.551 E2.95527
G1 X76.103 Y69.480 E2.98519
G1 X75.548 Y69.337 E3.01511
G1 X75.016 Y69.126 E3.04503
G1 X74.514 Y68.850 E3.07495
G1 X74.051 Y68.514 E3.10487
G1 X73.633 Y68.122 E3.13479
G1 X73.268 Y67.680 E3.16474
G1 X72.952 Y67.177 E3.19579
G1 X72.717 Y66.679 E3.22455
G1 X72.540 Y66.134 E3.25447
G1 X72.433 Y65.572 E3.28439
G1 X72.397 Y65.000 E3.31431
G1 X72.433 Y64.428 E3.34423
G1 X72.540 Y63.867 E3.37407
G1 X72.693 Y63.374 E3.40106
G1 X72.961 Y62.803 E3.43402
G1 X73.268 Y62.319 E3.46394
G1 X73.633 Y61.878 E3.49386
G1 X74.051 Y61.486 E3.52378
G1 X74.514 Y61.150 E3.55370
G1 X75.016 Y60.874 E3.58362
G1 X75.548 Y60.663 E3.61354
G1 X76.103 Y60.520 E3.64346
G1 X76.671 Y60.449 E3.67338
G1 X77.244 Y60.449 E3.70330
G1 X77.812 Y60.520 E3.73322
G1 X78.367 Y60.663 E3.76314
G1 X78.899 Y60.874 E3.79306
G1 X79.401 Y61.150 E3.82298
G1 X79.864 Y61.486 E3.85290
G1 X80.282 Y61.878 E3.88283
G1 X80.647 Y62.320 E3.91277
G1 X80.963 Y62.823 E3.94383
G1 X81.198 Y63.321 E3.97258
G1 X81.375 Y63.866 E4.00250
G1 X81.482 Y64.428 E4.03242
G1 X81.518 Y65.000 E4.06234
G1 X81.486 Y65.512 E4.08913
G1 X81.795 Y65.820 F1800.000
G1 E3.08913 F1200.00000
G92 E0
G1 X82.303 Y70.346 F1800.000
G1 E1.00000 F1200.00000
G1 X71.612 Y70.346 E1.55859 F1920.000
G1 X71.612 Y59.654 E2.11717
G1 X82.303 Y59.654 E2.67576
G1 X82.303 Y70.286 E3.23121
G1 X82.617 Y70.660 F1800.000
G1 X71.297 Y70.660 E3.82262 F1440.000
G1 X71.297 Y59.340 E4.41403
G1 X82.617 Y59.340 E5.00545
G1 X82.617 Y70.600 E5.59372
G1 X82.271 Y70.460 F1800.000
G1 X82.319 Y70.267 F1800.000
G1 X78.567 Y70.267 E5.79739 F1920.000
G1 X78.526 Y69.941 E5.81525
G1 X82.319 Y69.941 E6.02115
G1 X82.319 Y69.615 E6.03887
G1 X78.584 Y69.615 E6.24159
G1 X79.284 Y69.288 F1800.000
G1 X82.319 Y69.288 E6.40632 F1920.000
G1 X82.319 Y68.962 E6.42404
G1 X79.788 Y68.962 E6.56145
G1 X80.185 Y68.635 E6.58936
G1 X82.319 Y68.635 E6.70519
G1 X82.319 Y68.309 E6.72291
G1 X80.517 Y68.309 E6.82075
G1 X80.787 Y67.982 E6.84375
G1 X82.319 Y67.982 E6.92694
G1 X82.319 Y67.656 E6.94465
G1 X81.010 Y67.656 E7.01573
G1 X81.209 Y67.330 E7.03650
G1 X82.319 Y67.330 E7.09675
G1 X82.319 Y67.003 E7.11447
G1 X81.363 Y67.003 E7.16639
G1 X81.503 Y66.677 E7.18567
G1 X81.846 Y66.677 E7.20431
G1 X81.933 Y66.645 F1800.000
G1 X82.038 Y65.754 E7.31086 F192.000
G1 X82.038 Y65.754 F1800.000
G1 X82.068 Y65.005 E7.35003 F192.000
G1 X82.038 Y64.246 E7.38971
G1 X82.038 Y64.246 F1800.000
G1 X81.988 Y63.719 E7.45262 F192.000
G1 X81.934 Y63.377 E7.49367
G1 X81.841 Y63.348 F1800.000
G1 X81.504 Y63.348 E7.51211 F1920.000
G1 X81.373 Y63.019 E7.53144
G1 X82.319 Y63.019 E7.58314
G1 X82.319 Y62.690 E7.60110
G1 X81.218 Y62.690 E7.66125
G1 X81.019 Y62.362 E7.68225
G1 X82.319 Y62.362 E7.75328
G1 X82.319 Y62.033 E7.77124
G1 X80.799 Y62.033 E7.85429
G1 X80.528 Y61.704 E7.87760
G1 X82.319 Y61.704 E7.97551
G1 X82.319 Y61.376 E7.99347
G1 X80.197 Y61.376 E8.10944
G1 X79.800 Y61.047 E8.13760
G1 X82.319 Y61.047 E8.27527
G1 X82.319 Y60.719 E8.29323
G1 X79.297 Y60.719 E8.45842
G1 X78.596 Y60.390 F1800.000
G1 X82.319 Y60.390 E8.66191 F1920.000
G1 X82.319 Y60.061 E8.67987
G1 X78.526 Y60.061 E8.88719
G1 X78.567 Y59.733 E8.90529
G1 X82.319 Y59.733 E9.11034
G1 E8.11034 F1200.00000
G92 E0
G1 X78.567 Y60.016 F1800.000
G1 E1.00000 F1200.00000
G1 X77.746 Y59.924 E1.09806 F192.000
G1 X77.746 Y59.924 F1800.000
G1 X77.273 Y59.894 E1.12280 F192.000
G1 X76.641 Y59.894 E1.15582
G1 X76.169 Y59.924 E1.18055
G1 X76.169 Y59.924 F1800.000
G1 X75.348 Y60.016 E1.27861 F192.000
G1 X75.348 Y59.733 F1800.000
G1 X71.596 Y59.733 E1.48228 F1920.000
G1 X71.596 Y60.059 E1.50000
G1 X75.389 Y60.059 E1.70590
G1 X75.331 Y60.385 E1.72390
G1 X71.596 Y60.385 E1.92662
G1 X71.596 Y60.712 E1.94434
G1 X74.631 Y60.712 E2.10907
G1 X74.127 Y61.038 E2.14164
G1 X71.596 Y61.038 E2.27904
G1 X71.596 Y61.365 E2.29676
G1 X73.730 Y61.365 E2.41258
G1 X73.398 Y61.691 E2.43783
G1 X71.596 Y61.691 E2.53567
G1 X71.596 Y62.018 E2.55339
G1 X73.128 Y62.018 E2.63658
G1 X72.905 Y62.344 E2.65804
G1 X71.596 Y62.344 E2.72912
G1 X71.596 Y62.670 E2.74683
G1 X72.706 Y62.670 E2.80709
G1 X72.552 Y62.997 E2.82667
G1 X71.596 Y62.997 E2.87859
G1 X72.069 Y63.323 E2.90979
G1 X72.412 Y63.323 E2.92843
G1 X71.982 Y63.355 F1800.000
G1 X71.877 Y64.246 E3.03499 F192.000
G1 X71.877 Y64.246 F1800.000
G1 X71.847 Y64.995 E3.07415 F192.000
G1 X71.877 Y65.754 E3.11383
G1 X71.877 Y65.754 F1800.000
G1 X71.927 Y66.281 E3.17674 F192.000
G1 X71.981 Y66.623 E3.21779
G1 X72.411 Y66.652 F1800.000
G1 X72.074 Y66.652 E3.23623 F1920.000
G1 X72.542 Y66.981 E3.26749
G1 X71.596 Y66.981 E3.31919
G1 X71.596 Y67.310 E3.33715
G1 X72.697 Y67.310 E3.39730
G1 X72.896 Y67.638 E3.41830
G1 X71.596 Y67.638 E3.48934
G1 X71.596 Y67.967 E3.50730
G1 X73.116 Y67.967 E3.59034
G1 X73.387 Y68.296 E3.61365
G1 X71.596 Y68.296 E3.71156
G1 X71.596 Y68.624 E3.72952
G1 X73.718 Y68.624 E3.84549
G1 X74.115 Y68.953 E3.87366
G1 X71.596 Y68.953 E4.01133
G1 X71.596 Y69.281 E4.02929
G1 X74.618 Y69.281 E4.19448
G1 X75.319 Y69.610 F1800.000
G1 X71.596 Y69.610 E4.39796 F1920.000
G1 X71.596 Y69.939 E4.41593
G1 X75.389 Y69.939 E4.62325
G1 X75.348 Y70.267 E4.64135
G1 X71.596 Y70.267 E4.84640
G1 E3.84640 F1200.00000
G92 E0
G1 X75.348 Y69.984 F1800.000
G1 E1.00000 F1200.00000
G1 X76.169 Y70.076 E1.09806 F192.000
G1 X76.169 Y70.076 F1800.000
G1 X76.641 Y70.106 E1.12280 F192.000
G1 X77.273 Y70.106 E1.15582
G1 X77.746 Y70.076 E1.18055
G1 X77.746 Y70.076 F1800.000
G1 X78.567 Y69.984 E1.27861 F192.000
G1 Z0.150 F1800.000
