; generated by Slic3r 1.2.9 on 2018-10-16 at 20:23:54

; external perimeters extrusion width = 0.40mm
; perimeters extrusion width = 0.40mm
; infill extrusion width = 0.40mm
; solid infill extrusion width = 0.40mm
; top infill extrusion width = 0.40mm
; support material extrusion width = 0.40mm

M107
M190 S110
M104 S230
M109 S230
G28 ; home all axes
G21 ; set units to millimeters
G90 ; use absolute coordinates
M82 ; use absolute distances for extrusion
G92 E0
G1 Z0.150 F1800.000
G1 E-1.00000 F1200.00000
G92 E0
G1 X68.438 Y57.605 F1800.000
G1 E1.00000 F1200.00000
G1 X70.475 Y56.778 E1.11486 F2400.000
G1 X86.755 Y55.098 E1.96992
G1 X87.160 Y55.078 E1.99109
G1 X99.120 Y55.078 E2.61594
G1 X100.840 Y55.472 E2.70814
G1 X102.215 Y56.578 E2.80033
G1 X103.062 Y59.020 E2.93537
G1 X103.062 Y70.980 E3.56022
G1 X102.668 Y72.700 E3.65241
G1 X101.562 Y74.075 E3.74460
G1 X99.120 Y74.922 E3.87964
G1 X87.160 Y74.922 E4.50449
G1 X86.755 Y74.902 E4.52566
G1 X70.475 Y73.222 E5.38073
G1 X68.805 Y72.652 E5.47292
G1 X67.550 Y71.411 E5.56511
G1 X66.938 Y69.300 E5.67997
G1 X66.938 Y60.700 E6.12928
G1 X67.332 Y58.980 E6.22147
G1 X68.401 Y57.652 E6.31053
G1 X68.744 Y57.767 F1800.000
G1 X70.508 Y57.091 E6.40922 F2400.000
G1 X86.788 Y55.411 E7.26428
G1 X87.160 Y55.392 E7.28377
G1 X99.120 Y55.392 E7.90862
G1 X100.765 Y55.786 E7.99701
G1 X102.053 Y56.884 E8.08541
G1 X102.748 Y59.020 E8.20277
G1 X102.748 Y70.980 E8.82762
G1 X102.354 Y72.625 E8.91602
G1 X101.256 Y73.913 E9.00441
G1 X99.120 Y74.608 E9.12178
G1 X87.160 Y74.608 E9.74663
G1 X86.788 Y74.589 E9.76612
G1 X70.508 Y72.909 E10.62118
G1 X68.911 Y72.348 E10.70957
G1 X67.743 Y71.124 E10.79797
G1 X67.252 Y69.300 E10.89666
G1 X67.252 Y60.700 E11.34596
G1 X67.646 Y59.055 E11.43436
G1 X68.705 Y57.813 E11.51962
G1 X69.048 Y57.938 F1800.000
G1 X70.540 Y57.403 E11.60241 F2400.000
G1 X86.820 Y55.723 E12.45748
G1 X87.160 Y55.706 E12.47527
G1 X99.120 Y55.706 E13.10012
G1 X100.687 Y56.100 E13.18455
G1 X101.882 Y57.188 E13.26897
G1 X102.434 Y59.020 E13.36894
G1 X102.434 Y70.980 E13.99379
G1 X102.040 Y72.547 E14.07822
G1 X100.952 Y73.742 E14.16264
G1 X99.120 Y74.294 E14.26261
G1 X87.160 Y74.294 E14.88746
G1 X86.820 Y74.277 E14.90525
G1 X70.540 Y72.597 E15.76032
G1 X69.021 Y72.044 E15.84474
G1 X67.945 Y70.839 E15.92917
G1 X67.566 Y69.300 E16.01196
G1 X67.566 Y60.700 E16.46127
G1 X67.960 Y59.133 E16.54570
G1 X69.008 Y57.983 E16.62699
G1 E15.62699 F1200.00000
G92 E0
G1 X77.597 Y67.269 F1800.000
G1 E1.00000 F1200.00000
G1 X77.293 Y67.554 E1.02175 F720.000
G1 X76.956 Y67.799 E1.04350
G1 X76.592 Y68.000 E1.06525
G1 X76.204 Y68.153 E1.08700
G1 X75.801 Y68.256 E1.10875
G1 X75.388 Y68.309 E1.13050
G1 X74.972 Y68.309 E1.15226
G1 X74.559 Y68.256 E1.17401
G1 X74.156 Y68.153 E1.19576
G1 X73.768 Y68.000 E1.21751
G1 X73.404 Y67.799 E1.23926
G1 X73.067 Y67.554 E1.26101
G1 X72.763 Y67.269 E1.28276
G1 X72.498 Y66.949 E1.30451
G1 X72.275 Y66.597 E1.32626
G1 X72.098 Y66.220 E1.34801
G1 X71.969 Y65.823 E1.36983
G1 X71.890 Y65.400 E1.39231
G1 X71.865 Y65.000 E1.41326
G1 X71.891 Y64.584 E1.43501
G1 X71.969 Y64.176 E1.45676
G1 X72.098 Y63.780 E1.47851
G1 X72.275 Y63.403 E1.50026
G1 X72.498 Y63.051 E1.52201
G1 X72.763 Y62.731 E1.54376
G1 X73.067 Y62.446 E1.56551
G1 X73.404 Y62.201 E1.58727
G1 X73.768 Y62.000 E1.60902
G1 X74.156 Y61.847 E1.63077
G1 X74.559 Y61.744 E1.65252
G1 X74.972 Y61.691 E1.67427
G1 X75.388 Y61.691 E1.69602
G1 X75.801 Y61.744 E1.71777
G1 X76.204 Y61.847 E1.73952
G1 X76.592 Y62.000 E1.76127
G1 X76.943 Y62.194 E1.78222
G1 X77.292 Y62.445 E1.80470
G1 X77.597 Y62.731 E1.82652
G1 X77.863 Y63.052 E1.84833
G1 X78.092 Y63.417 E1.87081
G1 X78.262 Y63.780 E1.89176
G1 X78.391 Y64.176 E1.91352
G1 X78.469 Y64.584 E1.93527
G1 X78.495 Y65.000 E1.95702
G1 X78.469 Y65.416 E1.97877
G1 X78.391 Y65.824 E2.00052
G1 X78.262 Y66.220 E2.02227
G1 X78.085 Y66.597 E2.04402
G1 X77.862 Y66.949 E2.06577
G1 X77.635 Y67.223 E2.08439
G1 X77.367 Y67.054 F1800.000
G1 X77.093 Y67.312 E2.10407 F720.000
G1 X76.788 Y67.533 E2.12376
G1 X76.458 Y67.715 E2.14344
G1 X76.107 Y67.854 E2.16313
G1 X75.742 Y67.947 E2.18281
G1 X75.368 Y67.994 E2.20250
G1 X74.992 Y67.994 E2.22219
G1 X74.618 Y67.947 E2.24187
G1 X74.253 Y67.854 E2.26156
G1 X73.902 Y67.715 E2.28124
G1 X73.572 Y67.533 E2.30093
G1 X73.267 Y67.312 E2.32061
G1 X72.993 Y67.054 E2.34030
G1 X72.753 Y66.764 E2.35998
G1 X72.551 Y66.445 E2.37967
G1 X72.390 Y66.105 E2.39935
G1 X72.274 Y65.746 E2.41907
G1 X72.202 Y65.362 E2.43948
G1 X72.180 Y65.000 E2.45841
G1 X72.203 Y64.624 E2.47809
G1 X72.274 Y64.254 E2.49778
G1 X72.390 Y63.895 E2.51746
G1 X72.551 Y63.555 E2.53715
G1 X72.753 Y63.236 E2.55683
G1 X72.993 Y62.946 E2.57652
G1 X73.267 Y62.688 E2.59620
G1 X73.572 Y62.467 E2.61589
G1 X73.902 Y62.285 E2.63557
G1 X74.253 Y62.146 E2.65526
G1 X74.618 Y62.053 E2.67495
G1 X74.992 Y62.006 E2.69463
G1 X75.368 Y62.006 E2.71432
G1 X75.742 Y62.053 E2.73400
G1 X76.107 Y62.146 E2.75369
G1 X76.458 Y62.285 E2.77337
G1 X76.775 Y62.460 E2.79230
G1 X77.092 Y62.688 E2.81271
G1 X77.367 Y62.946 E2.83242
G1 X77.608 Y63.237 E2.85213
G1 X77.815 Y63.568 E2.87255
G1 X77.970 Y63.895 E2.89147
G1 X78.086 Y64.254 E2.91116
G1 X78.157 Y64.624 E2.93085
G1 X78.180 Y65.000 E2.95053
G1 X78.157 Y65.376 E2.97022
G1 X78.086 Y65.746 E2.98990
G1 X77.970 Y66.105 E3.00959
G1 X77.809 Y66.445 E3.02927
G1 X77.607 Y66.764 E3.04896
G1 X77.405 Y67.008 E3.06551
G1 X77.469 Y67.417 F1800.000
G1 E2.06551 F1200.00000
G92 E0
G1 X78.966 Y68.786 F1800.000
G1 E1.00000 F1200.00000
G1 X71.394 Y68.786 E1.39558 F720.000
G1 X71.394 Y61.214 E1.79116
G1 X78.966 Y61.214 E2.18675
G1 X78.966 Y68.726 E2.57919
G1 X79.280 Y69.100 F1800.000
G1 X71.080 Y69.100 E3.00760 F720.000
G1 X71.080 Y60.900 E3.43601
G1 X79.280 Y60.900 E3.86442
G1 X79.280 Y69.040 E4.28969
G1 X78.934 Y68.900 F1800.000
G1 X78.982 Y68.707 F1800.000
G1 X76.519 Y68.707 E4.42840 F1920.000
G1 X76.455 Y68.369 E4.44782
G1 X78.982 Y68.369 E4.59017
G1 X78.982 Y68.030 E4.60925
G1 X76.564 Y68.030 E4.74544
G1 X77.110 Y67.691 E4.78166
G1 X78.982 Y67.691 E4.88707
G1 X78.982 Y67.352 E4.90615
G1 X77.499 Y67.352 E4.98964
G1 X77.790 Y67.014 E5.01477
G1 X78.982 Y67.014 E5.08190
G1 X78.982 Y66.675 E5.10098
G1 X78.011 Y66.675 E5.15566
G1 X78.178 Y66.336 E5.17695
G1 X78.517 Y66.336 E5.19602
G1 X78.609 Y66.307 F1800.000
G1 X78.700 Y65.623 E5.27793 F192.000
G1 X78.700 Y65.623 F1800.000
G1 X78.731 Y65.005 E5.31026 F192.000
G1 X78.700 Y64.377 E5.34309
G1 X78.700 Y64.377 F1800.000
G1 X78.609 Y63.693 E5.42501 F192.000
G1 X78.517 Y63.664 F1800.000
G1 X78.178 Y63.664 E5.44407 F1920.000
G1 X78.009 Y63.325 E5.46541
G1 X78.982 Y63.325 E5.52020
G1 X78.982 Y62.986 E5.53928
G1 X77.790 Y62.986 E5.60640
G1 X77.499 Y62.648 E5.63154
G1 X78.982 Y62.648 E5.71502
G1 X78.982 Y62.309 E5.73410
G1 X77.109 Y62.309 E5.83957
G1 X76.564 Y61.970 E5.87574
G1 X78.982 Y61.970 E6.01193
G1 X78.982 Y61.631 E6.03101
G1 X76.455 Y61.631 E6.17336
G1 X76.519 Y61.293 E6.19278
G1 X78.982 Y61.293 E6.33149
G1 E5.33149 F1200.00000
G92 E0
G1 X76.500 Y61.575 F1800.000
G1 E1.00000 F1200.00000
G1 X75.814 Y61.476 E1.08235 F192.000
G1 X75.813 Y61.479 F1800.000
G1 X75.398 Y61.453 E1.10409 F192.000
G1 X74.962 Y61.453 E1.12688
G1 X74.547 Y61.479 E1.14861
G1 X74.546 Y61.476 F1800.000
G1 X73.860 Y61.575 E1.23097 F192.000
G1 X73.841 Y61.293 F1800.000
G1 X71.378 Y61.293 E1.36967 F1920.000
G1 X71.378 Y61.631 E1.38875
G1 X73.905 Y61.631 E1.53110
G1 X73.796 Y61.970 E1.55115
G1 X71.378 Y61.970 E1.68734
G1 X71.378 Y62.309 E1.70642
G1 X73.250 Y62.309 E1.81183
G1 X72.861 Y62.648 E1.84090
G1 X71.378 Y62.648 E1.92438
G1 X71.378 Y62.986 E1.94346
G1 X72.570 Y62.986 E2.01059
G1 X72.349 Y63.325 E2.03337
G1 X71.378 Y63.325 E2.08805
G1 X71.843 Y63.664 E2.12045
G1 X72.182 Y63.664 E2.13952
G1 X71.751 Y63.693 F1800.000
G1 X71.660 Y64.377 E2.22143 F192.000
G1 X71.660 Y64.377 F1800.000
G1 X71.629 Y65.005 E2.25427 F192.000
G1 X71.660 Y65.620 E2.28645
G1 X71.751 Y66.307 E2.36868 F192.000
G1 X72.182 Y66.336 F1800.000
G1 X71.843 Y66.336 E2.38775 F1920.000
G1 X71.378 Y66.675 E2.42015
G1 X72.349 Y66.675 E2.47483
G1 X72.570 Y67.014 E2.49761
G1 X71.378 Y67.014 E2.56474
G1 X71.378 Y67.352 E2.58382
G1 X72.861 Y67.352 E2.66731
G1 X73.250 Y67.691 E2.69637
G1 X71.378 Y67.691 E2.80178
G1 X71.378 Y68.030 E2.82086
G1 X73.796 Y68.030 E2.95706
G1 X73.905 Y68.369 E2.97710
G1 X71.378 Y68.369 E3.11945
G1 X71.378 Y68.707 E3.13853
G1 X73.841 Y68.707 E3.27724
G1 X73.860 Y68.425 F1800.000
G1 X74.546 Y68.524 E3.35959 F192.000
G1 X74.547 Y68.521 F1800.000
G1 X74.962 Y68.547 E3.38133 F192.000
G1 X75.398 Y68.547 E3.40411
G1 X75.813 Y68.521 E3.42585
G1 X75.814 Y68.524 F1800.000
G1 X76.500 Y68.425 E3.50820 F192.000
G1 Z0.150 F1800.000
G1 Z0.150 F1800.000
G1 E2.50820 F1200.00000
G92 E0
G1 X80.480 Y69.714 F1800.000
G1 X82.247 Y71.481 F1800.000
G1 X83.574 Y71.394 F1800.000
G1 X86.160 Y71.394 F1800.000
G1 X88.302 Y66.242 F1800.000
G1 E1.00000 F1200.00000
G1 X88.184 Y65.626 E1.03277 F720.000
G1 X88.145 Y65.000 E1.06555
G1 X88.184 Y64.374 E1.09832
G1 X88.302 Y63.758 E1.13109
G1 X88.496 Y63.161 E1.16387
G1 X88.763 Y62.594 E1.19664
G1 X89.099 Y62.064 E1.22941
G1 X89.499 Y61.581 E1.26219
G1 X89.956 Y61.151 E1.29496
G1 X90.463 Y60.782 E1.32773
G1 X91.013 Y60.480 E1.36051
G1 X91.596 Y60.249 E1.39328
G1 X92.181 Y60.099 E1.42481
G1 X92.825 Y60.015 E1.45875
G1 X93.454 Y60.015 E1.49159
G1 X94.076 Y60.093 E1.52436
G1 X94.684 Y60.249 E1.55714
G1 X95.267 Y60.480 E1.58991
G1 X95.817 Y60.782 E1.62268
G1 X96.324 Y61.151 E1.65545
G1 X96.764 Y61.564 E1.68699
G1 X97.181 Y62.063 E1.72093
G1 X97.517 Y62.594 E1.75377
G1 X97.785 Y63.162 E1.78660
G1 X97.983 Y63.781 E1.82054
G1 X98.096 Y64.374 E1.85208
G1 X98.135 Y65.000 E1.88485
G1 X98.096 Y65.626 E1.91762
G1 X97.978 Y66.242 E1.95040
G1 X97.784 Y66.839 E1.98317
G1 X97.517 Y67.406 E2.01594
G1 X97.181 Y67.936 E2.04872
G1 X96.781 Y68.419 E2.08149
G1 X96.324 Y68.849 E2.11426
G1 X95.817 Y69.218 E2.14704
G1 X95.267 Y69.520 E2.17981
G1 X94.684 Y69.751 E2.21258
G1 X94.076 Y69.907 E2.24535
G1 X93.454 Y69.985 E2.27813
G1 X92.826 Y69.985 E2.31090
G1 X92.204 Y69.907 E2.34367
G1 X91.596 Y69.751 E2.37645
G1 X91.013 Y69.520 E2.40922
G1 X90.463 Y69.218 E2.44199
G1 X89.956 Y68.849 E2.47477
G1 X89.499 Y68.419 E2.50754
G1 X89.099 Y67.936 E2.54031
G1 X88.763 Y67.406 E2.57309
G1 X88.496 Y66.839 E2.60586
G1 X88.320 Y66.299 E2.63550
G1 X88.607 Y66.164 F1800.000
G1 X88.497 Y65.587 E2.66621 F720.000
G1 X88.460 Y65.000 E2.69691
G1 X88.497 Y64.413 E2.72762
G1 X88.607 Y63.836 E2.75833
G1 X88.788 Y63.277 E2.78904
G1 X89.039 Y62.745 E2.81975
G1 X89.353 Y62.249 E2.85045
G1 X89.728 Y61.796 E2.88116
G1 X90.157 Y61.394 E2.91187
G1 X90.632 Y61.048 E2.94258
G1 X91.147 Y60.765 E2.97329
G1 X91.694 Y60.549 E3.00399
G1 X92.241 Y60.408 E3.03350
G1 X92.846 Y60.329 E3.06538
G1 X93.434 Y60.329 E3.09611
G1 X94.017 Y60.403 E3.12682
G1 X94.586 Y60.549 E3.15752
G1 X95.133 Y60.765 E3.18823
G1 X95.648 Y61.048 E3.21894
G1 X96.123 Y61.394 E3.24965
G1 X96.535 Y61.780 E3.27916
G1 X96.926 Y62.249 E3.31103
G1 X97.241 Y62.745 E3.34176
G1 X97.492 Y63.277 E3.37250
G1 X97.678 Y63.859 E3.40437
G1 X97.783 Y64.413 E3.43388
G1 X97.820 Y65.000 E3.46459
G1 X97.783 Y65.587 E3.49529
G1 X97.673 Y66.164 E3.52600
G1 X97.492 Y66.723 E3.55671
G1 X97.241 Y67.255 E3.58742
G1 X96.927 Y67.751 E3.61813
G1 X96.552 Y68.204 E3.64883
G1 X96.123 Y68.606 E3.67954
G1 X95.648 Y68.952 E3.71025
G1 X95.133 Y69.235 E3.74096
G1 X94.586 Y69.451 E3.77166
G1 X94.017 Y69.597 E3.80237
G1 X93.434 Y69.671 E3.83308
G1 X92.846 Y69.671 E3.86379
G1 X92.263 Y69.597 E3.89450
G1 X91.694 Y69.451 E3.92521
G1 X91.147 Y69.235 E3.95591
G1 X90.632 Y68.952 E3.98662
G1 X90.157 Y68.606 E4.01733
G1 X89.728 Y68.204 E4.04804
G1 X89.353 Y67.751 E4.07874
G1 X89.039 Y67.255 E4.10945
G1 X88.788 Y66.723 E4.14016
G1 X88.625 Y66.221 E4.16773
G1 X88.224 Y66.048 F1800.000
G1 E3.16773 F1200.00000
G92 E0
G1 X87.674 Y70.466 F1800.000
G1 E1.00000 F1200.00000
G1 X87.674 Y59.534 E1.57112 F1920.000
G1 X98.606 Y59.534 E2.14225
G1 X98.606 Y70.466 E2.71337
G1 X87.734 Y70.466 E3.28136
G1 X87.360 Y70.780 F1800.000
G1 X87.360 Y59.220 E3.88531 F1440.000
G1 X98.920 Y59.220 E4.48927
G1 X98.920 Y70.780 E5.09322
G1 X87.420 Y70.780 E5.69403
G1 X87.560 Y70.434 F1800.000
G1 X87.658 Y70.387 F1800.000
G1 X91.508 Y70.387 E5.91035 F1920.000
G1 X91.551 Y70.049 E5.92949
G1 X87.658 Y70.049 E6.14821
G1 X87.658 Y69.712 E6.16719
G1 X91.433 Y69.712 E6.37928
G1 X90.720 Y69.374 F1800.000
G1 X87.658 Y69.374 E6.55132 F1920.000
G1 X87.658 Y69.036 E6.57030
G1 X90.208 Y69.036 E6.71356
G1 X89.804 Y68.698 E6.74315
G1 X87.658 Y68.698 E6.86371
G1 X87.658 Y68.360 E6.88270
G1 X89.468 Y68.360 E6.98437
G1 X89.188 Y68.022 E7.00901
G1 X87.658 Y68.022 E7.09497
G1 X87.658 Y67.684 E7.11396
G1 X88.964 Y67.684 E7.18731
G1 X88.764 Y67.346 E7.20938
G1 X87.658 Y67.346 E7.27150
G1 X87.658 Y67.009 E7.29048
G1 X88.605 Y67.009 E7.34367
G1 X88.136 Y66.671 E7.37614
G1 X88.474 Y66.671 E7.39510
G1 X88.043 Y66.641 F1800.000
G1 X87.992 Y66.311 E7.43472 F192.000
G1 X87.940 Y65.764 E7.50002
G1 X87.940 Y65.764 F1800.000
G1 X87.909 Y65.005 E7.53971 F192.000
G1 X87.940 Y64.236 E7.57992
G1 X87.940 Y64.236 F1800.000
G1 X87.992 Y63.689 E7.64523 F192.000
G1 X88.043 Y63.359 E7.68485
G1 X88.474 Y63.329 F1800.000
G1 X88.136 Y63.329 E7.70380 F1920.000
G1 X87.658 Y62.991 E7.73669
G1 X88.605 Y62.991 E7.78988
G1 X88.764 Y62.654 E7.81086
G1 X87.658 Y62.654 E7.87298
G1 X87.658 Y62.316 E7.89197
G1 X88.964 Y62.316 E7.96532
G1 X89.188 Y61.978 E7.98811
G1 X87.658 Y61.978 E8.07408
G1 X87.658 Y61.640 E8.09306
G1 X89.468 Y61.640 E8.19473
G1 X89.804 Y61.302 E8.22151
G1 X87.658 Y61.302 E8.34207
G1 X87.658 Y60.964 E8.36106
G1 X90.208 Y60.964 E8.50431
G1 X90.720 Y60.626 E8.53879
G1 X87.658 Y60.626 E8.71083
G1 X87.658 Y60.288 E8.72982
G1 X91.433 Y60.288 E8.94190
G1 X91.551 Y59.951 E8.96201
G1 X87.658 Y59.951 E9.18073
G1 X87.658 Y59.613 E9.19972
G1 X91.508 Y59.613 E9.41604
G1 X91.509 Y59.897 F1800.000
G1 X92.366 Y59.803 E9.51839 F192.000
G1 X92.366 Y59.803 F1800.000
G1 X92.815 Y59.774 E9.54191 F192.000
G1 X93.464 Y59.774 E9.57580
G1 X93.934 Y59.804 E9.60044
G1 X94.771 Y59.897 E9.70044 F192.000
G1 X94.847 Y60.288 F1800.000
G1 X98.622 Y60.288 E9.91253 F1920.000
G1 X98.622 Y59.951 E9.93151
G1 X94.729 Y59.951 E10.15024
G1 X94.772 Y59.613 E10.16938
G1 X98.622 Y59.613 E10.38570
G1 E9.38570 F1200.00000
G92 E0
G1 X95.560 Y60.626 F1800.000
G1 E1.00000 F1200.00000
G1 X98.622 Y60.626 E1.17204 F1920.000
G1 X98.622 Y60.964 E1.19103
G1 X96.072 Y60.964 E1.33429
G1 X96.476 Y61.302 E1.36388
G1 X98.622 Y61.302 E1.48444
G1 X98.622 Y61.640 E1.50342
G1 X96.809 Y61.640 E1.60526
G1 X97.092 Y61.978 E1.63000
G1 X98.622 Y61.978 E1.71597
G1 X98.622 Y62.316 E1.73496
G1 X97.316 Y62.316 E1.80832
G1 X97.516 Y62.654 E1.83038
G1 X98.622 Y62.654 E1.89250
G1 X98.622 Y62.992 E1.91148
G1 X97.675 Y62.992 E1.96467
G1 X97.806 Y63.329 E1.98503
G1 X98.145 Y63.329 E2.00409
G1 X98.236 Y63.360 F1800.000
G1 X98.340 Y64.236 E2.10889 F192.000
G1 X98.340 Y64.236 F1800.000
G1 X98.371 Y64.995 E2.14858 F192.000
G1 X98.340 Y65.764 E2.18878
G1 X98.340 Y65.764 F1800.000
G1 X98.288 Y66.311 E2.25409 F192.000
G1 X98.237 Y66.641 E2.29371
G1 X98.144 Y66.671 F1800.000
G1 X97.806 Y66.671 E2.31267 F1920.000
G1 X97.675 Y67.009 E2.33304
G1 X98.622 Y67.009 E2.38623
G1 X98.622 Y67.346 E2.40521
G1 X97.516 Y67.346 E2.46733
G1 X97.316 Y67.684 E2.48939
G1 X98.622 Y67.684 E2.56275
G1 X98.622 Y68.022 E2.58174
G1 X97.092 Y68.022 E2.66770
G1 X96.812 Y68.360 E2.69234
G1 X98.622 Y68.360 E2.79401
G1 X98.622 Y68.698 E2.81300
G1 X96.476 Y68.698 E2.93356
G1 X96.072 Y69.036 E2.96315
G1 X98.622 Y69.036 E3.10641
G1 X98.622 Y69.374 E3.12539
G1 X95.560 Y69.374 E3.29743
G1 X94.847 Y69.712 F1800.000
G1 X98.622 Y69.712 E3.50952 F1920.000
G1 X98.622 Y70.049 E3.52850
G1 X94.729 Y70.049 E3.74722
G1 X94.772 Y70.387 E3.76636
G1 X98.622 Y70.387 E3.98268
G1 E2.98268 F1200.00000
G92 E0
G1 X94.771 Y70.103 F1800.000
G1 E1.00000 F1200.00000
G1 X93.934 Y70.196 E1.10001 F192.000
G1 X93.464 Y70.226 E1.12464 F192.000
G1 X92.816 Y70.226 E1.15845
G1 X92.346 Y70.196 E1.18309
G1 X92.346 Y70.196 F1800.000
G1 X91.509 Y70.103 E1.28310 F192.000
G1 Z0.150 F1800.000
M104 S225 ; set temperature
G1 Z0.550 F1800.000
