; generated by Slic3r 1.2.9 on 2018-10-17 at 11:22:44

; external perimeters extrusion width = 0.40mm
; perimeters extrusion width = 0.40mm
; infill extrusion width = 0.40mm
; solid infill extrusion width = 0.40mm
; top infill extrusion width = 0.40mm
; support material extrusion width = 0.40mm

M107
M190 S110
M104 S230
M109 S230
G28 ; home all axes
G21 ; set units to millimeters
G90 ; use absolute coordinates
M82 ; use absolute distances for extrusion
G92 E0
G1 Z0.150 F1800.000
G1 E-1.00000 F1200.00000
G92 E0
G1 X75.712 Y57.540 F1800.000
G1 E1.00000 F1200.00000
G1 X76.818 Y56.165 E1.09219 F2400.000
G1 X79.260 Y55.318 E1.22723
G1 X90.740 Y55.318 E1.82700
G1 X92.460 Y55.712 E1.91920
G1 X93.835 Y56.818 E2.01139
G1 X94.682 Y59.260 E2.14643
G1 X94.682 Y70.740 E2.74620
G1 X94.288 Y72.460 E2.83839
G1 X93.182 Y73.835 E2.93059
G1 X90.740 Y74.682 E3.06563
G1 X79.260 Y74.682 E3.66540
G1 X77.540 Y74.288 E3.75759
G1 X76.165 Y73.182 E3.84978
G1 X75.318 Y70.740 E3.98482
G1 X75.318 Y59.260 E4.58459
G1 X75.699 Y57.599 E4.67365
G1 X76.026 Y57.615 F1800.000
G1 X77.124 Y56.327 E4.76205 F2400.000
G1 X79.260 Y55.632 E4.87942
G1 X90.740 Y55.632 E5.47919
G1 X92.385 Y56.026 E5.56758
G1 X93.673 Y57.124 E5.65598
G1 X94.368 Y59.260 E5.77335
G1 X94.368 Y70.740 E6.37312
G1 X93.974 Y72.385 E6.46151
G1 X92.876 Y73.673 E6.54991
G1 X90.740 Y74.368 E6.66728
G1 X79.260 Y74.368 E7.26705
G1 X77.615 Y73.974 E7.35544
G1 X76.327 Y72.876 E7.44384
G1 X75.632 Y70.740 E7.56121
G1 X75.632 Y59.260 E8.16098
G1 X76.012 Y57.673 E8.24624
G1 X76.340 Y57.693 F1800.000
G1 X77.428 Y56.498 E8.33067 F2400.000
G1 X79.260 Y55.946 E8.43063
G1 X90.740 Y55.946 E9.03040
G1 X92.307 Y56.340 E9.11483
G1 X93.502 Y57.428 E9.19926
G1 X94.054 Y59.260 E9.29922
G1 X94.054 Y70.740 E9.89899
G1 X93.660 Y72.307 E9.98342
G1 X92.572 Y73.502 E10.06784
G1 X90.740 Y74.054 E10.16781
G1 X79.260 Y74.054 E10.76758
G1 X77.693 Y73.660 E10.85201
G1 X76.498 Y72.572 E10.93643
G1 X75.946 Y70.740 E11.03640
G1 X75.946 Y59.260 E11.63617
G1 X76.325 Y57.751 E11.71746
G1 E10.71746 F1200.00000
G92 E0
G1 X88.847 Y67.795 F1800.000
G1 E1.00000 F1200.00000
G1 X88.466 Y68.255 E1.03120 F720.000
G1 X88.031 Y68.664 E1.06240
G1 X87.548 Y69.015 E1.09360
G1 X87.025 Y69.303 E1.12479
G1 X86.469 Y69.522 E1.15599
G1 X85.891 Y69.671 E1.18719
G1 X85.261 Y69.751 E1.22035
G1 X84.699 Y69.746 E1.24972
G1 X84.109 Y69.671 E1.28080
G1 X83.531 Y69.522 E1.31200
G1 X82.975 Y69.303 E1.34320
G1 X82.452 Y69.015 E1.37440
G1 X81.969 Y68.664 E1.40560
G1 X81.534 Y68.255 E1.43680
G1 X81.153 Y67.795 E1.46799
G1 X80.833 Y67.291 E1.49919
G1 X80.579 Y66.750 E1.53039
G1 X80.394 Y66.183 E1.56159
G1 X80.282 Y65.596 E1.59279
G1 X80.245 Y64.999 E1.62405
G1 X80.287 Y64.382 E1.65635
G1 X80.394 Y63.817 E1.68638
G1 X80.579 Y63.249 E1.71757
G1 X80.833 Y62.709 E1.74877
G1 X81.153 Y62.205 E1.77997
G1 X81.534 Y61.745 E1.81117
G1 X81.969 Y61.336 E1.84237
G1 X82.452 Y60.985 E1.87357
G1 X82.975 Y60.697 E1.90477
G1 X83.531 Y60.478 E1.93596
G1 X84.087 Y60.335 E1.96599
G1 X84.700 Y60.254 E1.99829
G1 X85.299 Y60.254 E2.02955
G1 X85.891 Y60.329 E2.06075
G1 X86.469 Y60.478 E2.09195
G1 X87.025 Y60.697 E2.12315
G1 X87.548 Y60.985 E2.15435
G1 X88.031 Y61.336 E2.18554
G1 X88.466 Y61.745 E2.21674
G1 X88.847 Y62.205 E2.24794
G1 X89.167 Y62.709 E2.27914
G1 X89.421 Y63.249 E2.31034
G1 X89.606 Y63.817 E2.34154
G1 X89.718 Y64.404 E2.37274
G1 X89.755 Y65.001 E2.40400
G1 X89.713 Y65.618 E2.43630
G1 X89.606 Y66.183 E2.46632
G1 X89.421 Y66.750 E2.49752
G1 X89.167 Y67.291 E2.52872
G1 X88.879 Y67.744 E2.55678
G1 X88.592 Y67.610 F1800.000
G1 X88.237 Y68.040 E2.58592 F720.000
G1 X87.830 Y68.421 E2.61505
G1 X87.379 Y68.749 E2.64418
G1 X86.891 Y69.018 E2.67332
G1 X86.372 Y69.223 E2.70245
G1 X85.832 Y69.362 E2.73158
G1 X85.243 Y69.436 E2.76261
G1 X84.720 Y69.432 E2.78991
G1 X84.168 Y69.362 E2.81900
G1 X83.628 Y69.223 E2.84813
G1 X83.109 Y69.018 E2.87727
G1 X82.621 Y68.749 E2.90640
G1 X82.170 Y68.421 E2.93553
G1 X81.763 Y68.040 E2.96467
G1 X81.408 Y67.610 E2.99380
G1 X81.109 Y67.139 E3.02293
G1 X80.871 Y66.635 E3.05207
G1 X80.699 Y66.104 E3.08120
G1 X80.595 Y65.557 E3.11033
G1 X80.560 Y65.000 E3.13949
G1 X80.599 Y64.422 E3.16973
G1 X80.699 Y63.896 E3.19772
G1 X80.871 Y63.365 E3.22686
G1 X81.109 Y62.861 E3.25599
G1 X81.408 Y62.390 E3.28512
G1 X81.763 Y61.960 E3.31426
G1 X82.170 Y61.579 E3.34339
G1 X82.621 Y61.251 E3.37252
G1 X83.109 Y60.982 E3.40166
G1 X83.628 Y60.777 E3.43079
G1 X84.147 Y60.644 E3.45879
G1 X84.721 Y60.568 E3.48902
G1 X85.279 Y60.568 E3.51818
G1 X85.832 Y60.638 E3.54731
G1 X86.372 Y60.777 E3.57645
G1 X86.891 Y60.982 E3.60558
G1 X87.379 Y61.251 E3.63471
G1 X87.830 Y61.579 E3.66385
G1 X88.237 Y61.960 E3.69298
G1 X88.592 Y62.390 E3.72211
G1 X88.891 Y62.861 E3.75125
G1 X89.129 Y63.365 E3.78038
G1 X89.301 Y63.896 E3.80951
G1 X89.405 Y64.443 E3.83865
G1 X89.440 Y65.000 E3.86781
G1 X89.401 Y65.578 E3.89804
G1 X89.301 Y66.104 E3.92604
G1 X89.129 Y66.635 E3.95517
G1 X88.891 Y67.139 E3.98431
G1 X88.625 Y67.559 E4.01030
G1 X88.747 Y67.979 F1800.000
G1 E3.01030 F1200.00000
G92 E0
G1 X90.226 Y70.226 F1800.000
G1 E1.00000 F1200.00000
G1 X79.774 Y70.226 E1.54605 F1920.000
G1 X79.774 Y59.774 E2.09209
G1 X90.226 Y59.774 E2.63814
G1 X90.226 Y70.166 E3.18105
G1 X90.540 Y70.540 F1800.000
G1 X79.460 Y70.540 E3.75993 F1440.000
G1 X79.460 Y59.460 E4.33880
G1 X90.540 Y59.460 E4.91767
G1 X90.540 Y70.480 E5.49341
G1 X90.194 Y70.340 F1800.000
G1 X90.242 Y70.147 F1800.000
G1 X86.587 Y70.147 E5.68750 F1920.000
G1 X86.547 Y69.828 E5.70460
G1 X90.242 Y69.828 E5.90083
G1 X90.242 Y69.509 E5.91779
G1 X86.569 Y69.509 E6.11284
G1 X87.258 Y69.189 F1800.000
G1 X90.242 Y69.189 E6.27130 F1920.000
G1 X90.242 Y68.870 E6.28826
G1 X87.753 Y68.870 E6.42044
G1 X88.143 Y68.550 E6.44722
G1 X90.242 Y68.550 E6.55867
G1 X90.242 Y68.231 E6.57563
G1 X88.468 Y68.231 E6.66983
G1 X88.732 Y67.912 E6.69185
G1 X90.242 Y67.912 E6.77201
G1 X90.242 Y67.592 E6.78898
G1 X88.951 Y67.592 E6.85754
G1 X89.146 Y67.273 E6.87742
G1 X90.242 Y67.273 E6.93561
G1 X90.242 Y66.954 E6.95258
G1 X89.296 Y66.954 E7.00279
G1 X89.426 Y66.634 E7.02111
G1 X89.764 Y66.634 E7.03903
G1 X89.857 Y66.605 F1800.000
G1 X89.912 Y66.251 E7.08152 F192.000
G1 X89.960 Y65.744 E7.14203
G1 X89.966 Y65.744 F1800.000
G1 X89.991 Y64.997 E7.18111 F192.000
G1 X89.960 Y64.256 E7.21984
G1 X89.960 Y64.256 F1800.000
G1 X89.912 Y63.749 E7.28035 F192.000
G1 X89.857 Y63.395 E7.32284
G1 X89.764 Y63.366 F1800.000
G1 X89.426 Y63.366 E7.34076 F1920.000
G1 X89.296 Y63.046 E7.35908
G1 X90.242 Y63.046 E7.40929
G1 X90.242 Y62.727 E7.42625
G1 X89.146 Y62.727 E7.48445
G1 X88.951 Y62.408 E7.50433
G1 X90.242 Y62.408 E7.57289
G1 X90.242 Y62.088 E7.58985
G1 X88.732 Y62.088 E7.67002
G1 X88.468 Y61.769 E7.69203
G1 X90.242 Y61.769 E7.78623
G1 X90.242 Y61.450 E7.80319
G1 X88.143 Y61.450 E7.91465
G1 X87.753 Y61.130 E7.94143
G1 X90.242 Y61.130 E8.07360
G1 X90.242 Y60.811 E8.09056
G1 X87.258 Y60.811 E8.24902
G1 X86.569 Y60.491 F1800.000
G1 X90.242 Y60.491 E8.44407 F1920.000
G1 X90.242 Y60.172 E8.46103
G1 X86.547 Y60.172 E8.65726
G1 X86.587 Y59.853 E8.67436
G1 X90.242 Y59.853 E8.86844
G1 E7.86844 F1200.00000
G92 E0
G1 X86.587 Y60.135 F1800.000
G1 E1.00000 F1200.00000
G1 X85.783 Y60.044 E1.09611 F192.000
G1 X85.783 Y60.044 F1800.000
G1 X85.308 Y60.014 E1.12094 F192.000
G1 X84.690 Y60.014 E1.15326
G1 X84.237 Y60.043 E1.17697
G1 X84.237 Y60.043 F1800.000
G1 X83.413 Y60.135 E1.27544 F192.000
G1 X83.413 Y59.853 F1800.000
G1 X79.758 Y59.853 E1.46952 F1920.000
G1 X79.758 Y60.172 E1.48649
G1 X83.453 Y60.172 E1.68271
G1 X83.431 Y60.491 E1.69972
G1 X79.758 Y60.491 E1.89477
G1 X79.758 Y60.811 E1.91173
G1 X82.742 Y60.811 E2.07019
G1 X82.247 Y61.130 E2.10147
G1 X79.758 Y61.130 E2.23364
G1 X79.758 Y61.450 E2.25060
G1 X81.857 Y61.450 E2.36205
G1 X81.532 Y61.769 E2.38625
G1 X79.758 Y61.769 E2.48045
G1 X79.758 Y62.088 E2.49741
G1 X81.268 Y62.088 E2.57758
G1 X81.049 Y62.408 E2.59813
G1 X79.758 Y62.408 E2.66669
G1 X79.758 Y62.727 E2.68365
G1 X80.854 Y62.727 E2.74185
G1 X80.704 Y63.046 E2.76060
G1 X79.758 Y63.046 E2.81081
G1 X80.236 Y63.366 E2.84134
G1 X80.574 Y63.366 E2.85926
G1 X80.143 Y63.395 F1800.000
G1 X80.088 Y63.749 E2.90175 F192.000
G1 X80.040 Y64.256 E2.96226
G1 X80.034 Y64.256 F1800.000
G1 X80.009 Y65.003 E3.00134 F192.000
G1 X80.040 Y65.744 E3.04007
G1 X80.040 Y65.744 F1800.000
G1 X80.088 Y66.251 E3.10057 F192.000
G1 X80.143 Y66.605 E3.14307
G1 X80.574 Y66.634 F1800.000
G1 X80.236 Y66.634 E3.16099 F1920.000
G1 X80.704 Y66.954 E3.19106
G1 X79.758 Y66.954 E3.24128
G1 X79.758 Y67.273 E3.25824
G1 X80.854 Y67.273 E3.31644
G1 X81.049 Y67.592 E3.33632
G1 X79.758 Y67.592 E3.40488
G1 X79.758 Y67.912 E3.42184
G1 X81.268 Y67.912 E3.50200
G1 X81.532 Y68.231 E3.52402
G1 X79.758 Y68.231 E3.61822
G1 X79.758 Y68.550 E3.63518
G1 X81.857 Y68.550 E3.74663
G1 X82.247 Y68.870 E3.77342
G1 X79.758 Y68.870 E3.90559
G1 X79.758 Y69.189 E3.92255
G1 X82.742 Y69.189 E4.08101
G1 X83.431 Y69.509 F1800.000
G1 X79.758 Y69.509 E4.27606 F1920.000
G1 X79.758 Y69.828 E4.29302
G1 X83.453 Y69.828 E4.48925
G1 X83.413 Y70.147 E4.50635
G1 X79.758 Y70.147 E4.70044
G1 E3.70044 F1200.00000
G92 E0
G1 X83.413 Y69.865 F1800.000
G1 E1.00000 F1200.00000
G1 X84.217 Y69.956 E1.09611 F192.000
G1 X84.217 Y69.956 F1800.000
G1 X84.688 Y69.986 E1.12075 F192.000
G1 X85.270 Y69.988 E1.15115
G1 X85.783 Y69.956 E1.17802
G1 X85.783 Y69.956 F1800.000
G1 X86.587 Y69.865 E1.27412 F192.000
G1 Z0.150 F1800.000
M104 S225 ; set temperature
G1 Z0.550 F1800.000
G1 E0.27412 F1200.00000
G92 E0
G1 X88.466 Y68.255 F1800.000
G1 E1.00000 F1200.00000
G1 X88.031 Y68.664 E1.03120 F900.000
G1 X87.548 Y69.015 E1.06240
G1 X87.006 Y69.313 E1.09473
G1 X86.468 Y69.523 E1.12487
G1 X85.891 Y69.671 E1.15600
G1 X85.299 Y69.746 E1.18720
G1 X84.701 Y69.746 E1.21840
G1 X84.109 Y69.671 E1.24960
G1 X83.531 Y69.522 E1.28080
G1 X82.975 Y69.303 E1.31199
G1 X82.452 Y69.015 E1.34319
G1 X81.966 Y68.662 E1.37457
G1 X81.491 Y68.203 E1.40909
G1 X81.153 Y67.795 E1.43677
G1 X80.833 Y67.291 E1.46796
G1 X80.579 Y66.750 E1.49916
G1 X80.393 Y66.179 E1.53054
G1 X80.278 Y65.529 E1.56506
G1 X80.245 Y65.000 E1.59274
G1 X80.282 Y64.404 E1.62393
G1 X80.394 Y63.817 E1.65513
G1 X80.579 Y63.249 E1.68633
G1 X80.833 Y62.709 E1.71753
G1 X81.153 Y62.205 E1.74873
G1 X81.534 Y61.745 E1.77993
G1 X81.969 Y61.336 E1.81113
G1 X82.452 Y60.985 E1.84232
G1 X82.975 Y60.697 E1.87352
G1 X83.531 Y60.478 E1.90472
G1 X84.109 Y60.329 E1.93592
G1 X84.701 Y60.254 E1.96712
G1 X85.299 Y60.254 E1.99832
G1 X85.891 Y60.329 E2.02952
G1 X86.469 Y60.478 E2.06071
G1 X87.025 Y60.697 E2.09191
G1 X87.548 Y60.985 E2.12311
G1 X88.036 Y61.339 E2.15460
G1 X88.540 Y61.833 E2.19147
G1 X88.847 Y62.205 E2.21667
G1 X89.167 Y62.709 E2.24787
G1 X89.421 Y63.249 E2.27907
G1 X89.606 Y63.817 E2.31027
G1 X89.718 Y64.404 E2.34146
G1 X89.755 Y65.000 E2.37266
G1 X89.718 Y65.596 E2.40386
G1 X89.606 Y66.183 E2.43506
G1 X89.421 Y66.750 E2.46626
G1 X89.167 Y67.291 E2.49746
G1 X88.847 Y67.795 E2.52866
G1 X88.505 Y68.209 E2.55672
G1 X88.237 Y68.040 F1800.000
G1 X87.830 Y68.421 E2.58585 F900.000
G1 X87.379 Y68.749 E2.61499
G1 X86.872 Y69.028 E2.64522
G1 X86.372 Y69.223 E2.67329
G1 X85.832 Y69.362 E2.70239
G1 X85.279 Y69.432 E2.73153
G1 X84.721 Y69.432 E2.76066
G1 X84.168 Y69.362 E2.78979
G1 X83.628 Y69.223 E2.81893
G1 X83.109 Y69.018 E2.84806
G1 X82.621 Y68.749 E2.87719
G1 X82.168 Y68.421 E2.90640
G1 X81.721 Y67.989 E2.93885
G1 X81.408 Y67.610 E2.96457
G1 X81.109 Y67.139 E2.99370
G1 X80.871 Y66.635 E3.02284
G1 X80.699 Y66.103 E3.05204
G1 X80.591 Y65.491 E3.08449
G1 X80.560 Y65.000 E3.11021
G1 X80.595 Y64.443 E3.13935
G1 X80.699 Y63.896 E3.16848
G1 X80.871 Y63.365 E3.19761
G1 X81.109 Y62.861 E3.22675
G1 X81.408 Y62.390 E3.25588
G1 X81.763 Y61.960 E3.28501
G1 X82.170 Y61.579 E3.31415
G1 X82.621 Y61.251 E3.34328
G1 X83.109 Y60.982 E3.37241
G1 X83.628 Y60.777 E3.40155
G1 X84.168 Y60.638 E3.43068
G1 X84.721 Y60.568 E3.45981
G1 X85.279 Y60.568 E3.48895
G1 X85.832 Y60.638 E3.51808
G1 X86.372 Y60.777 E3.54721
G1 X86.891 Y60.982 E3.57635
G1 X87.379 Y61.251 E3.60548
G1 X87.832 Y61.580 E3.63473
G1 X88.308 Y62.046 E3.66953
G1 X88.592 Y62.390 E3.69284
G1 X88.891 Y62.861 E3.72198
G1 X89.129 Y63.365 E3.75111
G1 X89.301 Y63.896 E3.78024
G1 X89.405 Y64.443 E3.80938
G1 X89.440 Y65.000 E3.83851
G1 X89.405 Y65.557 E3.86764
G1 X89.301 Y66.104 E3.89678
G1 X89.129 Y66.635 E3.92591
G1 X88.891 Y67.139 E3.95504
G1 X88.592 Y67.610 E3.98418
G1 X88.275 Y67.993 E4.01017
G1 X88.344 Y68.425 F1800.000
G1 E3.01017 F1200.00000
G92 E0
G1 X90.226 Y70.226 F1800.000
G1 E1.00000 F1200.00000
G1 X79.774 Y70.226 E1.54605 F2400.000
G1 X79.774 Y59.774 E2.09209
G1 X90.226 Y59.774 E2.63814
G1 X90.226 Y70.166 E3.18105
G1 X90.540 Y70.540 F1800.000
G1 X79.460 Y70.540 E3.75993 F1800.000
G1 X79.460 Y59.460 E4.33880
G1 X90.540 Y59.460 E4.91767
G1 X90.540 Y70.480 E5.49341
G1 X90.194 Y70.340 F1800.000
G1 X90.090 Y70.218 F1800.000
G1 X90.090 Y66.789 E5.70295 F9000.000
G1 X89.607 Y67.214 E5.74227
G1 X89.607 Y70.218 E5.92580
G1 X89.125 Y70.218 E5.95528
G1 X89.125 Y67.668 E6.11112
G1 X88.642 Y68.121 E6.15157
G1 X88.642 Y70.218 E6.27973
G1 X88.159 Y70.218 E6.30921
G1 X88.159 Y68.574 E6.40968
G1 X87.677 Y69.027 E6.45012
G1 X87.677 Y70.218 E6.52291
G1 X87.194 Y70.218 E6.55240
G1 X87.194 Y69.480 E6.59750
G1 X86.712 Y69.933 E6.63794
G1 X86.712 Y70.218 E6.65536
G1 X86.590 Y69.865 F1800.000
G1 X85.783 Y69.956 E6.75179 F240.000
G1 X85.783 Y69.956 F1800.000
G1 X85.308 Y69.986 E6.77663 F240.000
G1 X84.692 Y69.986 E6.80886
G1 X84.217 Y69.956 E6.83369
G1 X84.217 Y69.956 F1800.000
G1 X83.413 Y69.865 E6.92980 F240.000
G1 X83.374 Y69.771 F1800.000
G1 X83.374 Y69.429 E6.94766 F2400.000
G1 X83.250 Y70.218 F1800.000
G1 X83.250 Y69.933 E6.96467 F9000.000
G1 X82.773 Y70.218 E6.99778
G1 X82.773 Y69.473 E7.04220
G1 X82.296 Y69.013 E7.08168
G1 X82.296 Y70.218 E7.15351
G1 X81.819 Y70.218 E7.18193
G1 X81.819 Y68.552 E7.28117
G1 X81.342 Y68.092 E7.32066
G1 X81.342 Y70.218 E7.44731
G1 X80.865 Y70.218 E7.47573
G1 X80.865 Y67.632 E7.62980
G1 X80.387 Y67.172 E7.66928
G1 X80.387 Y70.218 E7.85077
G1 X79.910 Y70.218 E7.87918
G1 X79.910 Y66.739 E8.08642
G1 X80.143 Y66.605 F1800.000
G1 X80.087 Y66.245 E8.12970 F240.000
G1 X80.041 Y65.718 E8.19253
G1 X80.041 Y65.718 F1800.000
G1 X80.009 Y65.005 E8.22980 F240.000
G1 X80.040 Y64.256 E8.26895
G1 X80.040 Y64.256 F1800.000
G1 X80.088 Y63.749 E8.32945 F240.000
G1 X80.143 Y63.395 E8.37195
G1 X80.196 Y63.439 F1800.000
G1 X80.196 Y63.203 E8.39030 F2400.000
G1 X80.663 Y62.791 E8.43869
G1 X80.663 Y63.027 E8.45699
G1 X79.910 Y63.211 F1800.000
G1 X79.910 Y59.782 E8.66653 F9000.000
G1 X80.393 Y59.782 E8.69601
G1 X80.393 Y62.786 E8.87954
G1 X80.875 Y62.332 E8.91998
G1 X80.875 Y59.782 E9.07583
G1 X81.358 Y59.782 E9.10531
G1 X81.358 Y61.879 E9.23347
G1 X81.841 Y61.426 E9.27391
G1 X81.841 Y59.782 E9.37438
G1 X82.323 Y59.782 E9.40386
G1 X82.323 Y60.973 E9.47665
G1 X82.806 Y60.520 E9.51710
G1 X82.806 Y59.782 E9.56220
G1 X83.288 Y59.782 E9.59168
G1 X83.288 Y60.067 E9.60910
G1 X83.413 Y60.135 F1800.000
G1 X84.217 Y60.044 E9.70521 F240.000
G1 X84.217 Y60.044 F1800.000
G1 X84.692 Y60.014 E9.73004 F240.000
G1 X85.308 Y60.014 E9.76228
G1 X85.783 Y60.044 E9.78711
G1 X85.783 Y60.044 F1800.000
G1 X86.587 Y60.135 E9.88322 F240.000
G1 X86.772 Y60.067 F1800.000
G1 X86.772 Y59.782 E9.89998 F9000.000
G1 X87.246 Y59.782 E9.92780
G1 X87.246 Y60.532 E9.97182
G1 X87.720 Y60.996 E10.01076
G1 X87.720 Y59.782 E10.08205
G1 X88.194 Y59.782 E10.10986
G1 X88.194 Y61.461 E10.20840
G1 X88.668 Y61.925 E10.24734
G1 X88.668 Y59.782 E10.37314
G1 X89.142 Y59.782 E10.40095
G1 X89.142 Y62.390 E10.55401
G1 X89.616 Y62.854 E10.59296
G1 X89.616 Y59.782 E10.77327
G1 X90.090 Y59.782 E10.80109
G1 X90.090 Y63.291 E11.00702
G1 X89.857 Y63.395 F1800.000
G1 X89.912 Y63.749 E11.04951 F240.000
G1 X89.960 Y64.256 E11.11002
G1 X89.960 Y64.256 F1800.000
G1 X89.991 Y65.005 E11.14917 F240.000
G1 X89.960 Y65.744 E11.18781
G1 X89.912 Y66.251 E11.24832 F240.000
G1 X89.857 Y66.605 E11.29081
G1 X89.804 Y66.797 F1800.000
G1 X89.804 Y66.561 E11.30917 F2400.000
G1 X89.337 Y66.973 E11.35760
G1 X89.337 Y67.209 E11.37590
G1 E10.37590 F1200.00000
G92 E0
G1 X86.835 Y69.370 F1800.000
