; generated by Slic3r 1.2.9 on 2018-10-17 at 11:46:46

; external perimeters extrusion width = 0.40mm
; perimeters extrusion width = 0.40mm
; infill extrusion width = 0.40mm
; solid infill extrusion width = 0.40mm
; top infill extrusion width = 0.40mm
; support material extrusion width = 0.40mm

M107
M190 S110
M104 S230
M109 S230
G28 ; home all axes
G21 ; set units to millimeters
G90 ; use absolute coordinates
M82 ; use absolute distances for extrusion
G92 E0
G1 Z0.150 F1800.000
G1 E-1.00000 F1200.00000
G92 E0
G1 X75.792 Y57.620 F1800.000
G1 E1.00000 F1200.00000
G1 X76.898 Y56.245 E1.09219 F2400.000
G1 X79.340 Y55.398 E1.22723
G1 X90.660 Y55.398 E1.81864
G1 X92.380 Y55.792 E1.91084
G1 X93.755 Y56.898 E2.00303
G1 X94.602 Y59.340 E2.13807
G1 X94.602 Y70.660 E2.72948
G1 X94.208 Y72.380 E2.82168
G1 X93.102 Y73.755 E2.91387
G1 X90.660 Y74.602 E3.04891
G1 X79.340 Y74.602 E3.64032
G1 X77.620 Y74.208 E3.73251
G1 X76.245 Y73.102 E3.82471
G1 X75.398 Y70.660 E3.95974
G1 X75.398 Y59.340 E4.55116
G1 X75.779 Y57.679 E4.64022
G1 X76.106 Y57.695 F1800.000
G1 X77.204 Y56.407 E4.72861 F2400.000
G1 X79.340 Y55.712 E4.84598
G1 X90.660 Y55.712 E5.43739
G1 X92.305 Y56.106 E5.52579
G1 X93.593 Y57.204 E5.61418
G1 X94.288 Y59.340 E5.73155
G1 X94.288 Y70.660 E6.32296
G1 X93.894 Y72.305 E6.41136
G1 X92.796 Y73.593 E6.49975
G1 X90.660 Y74.288 E6.61712
G1 X79.340 Y74.288 E7.20854
G1 X77.695 Y73.894 E7.29693
G1 X76.407 Y72.796 E7.38533
G1 X75.712 Y70.660 E7.50269
G1 X75.712 Y59.340 E8.09411
G1 X76.092 Y57.753 E8.17937
G1 X76.420 Y57.773 F1800.000
G1 X77.508 Y56.578 E8.26379 F2400.000
G1 X79.340 Y56.026 E8.36376
G1 X90.660 Y56.026 E8.95517
G1 X92.227 Y56.420 E9.03960
G1 X93.422 Y57.508 E9.12402
G1 X93.974 Y59.340 E9.22399
G1 X93.974 Y70.660 E9.81540
G1 X93.580 Y72.227 E9.89983
G1 X92.492 Y73.422 E9.98425
G1 X90.660 Y73.974 E10.08422
G1 X79.340 Y73.974 E10.67563
G1 X77.773 Y73.580 E10.76006
G1 X76.578 Y72.492 E10.84448
G1 X76.026 Y70.660 E10.94445
G1 X76.026 Y59.340 E11.53586
G1 X76.405 Y57.831 E11.61715
G1 E10.61715 F1200.00000
G92 E0
G1 X88.782 Y67.748 F1800.000
G1 E1.00000 F1200.00000
G1 X88.408 Y68.200 E1.03067 F720.000
G1 X87.980 Y68.602 E1.06135
G1 X87.505 Y68.947 E1.09202
G1 X86.991 Y69.230 E1.12269
G1 X86.445 Y69.446 E1.15337
G1 X85.876 Y69.592 E1.18404
G1 X85.294 Y69.666 E1.21472
G1 X84.706 Y69.666 E1.24539
G1 X84.124 Y69.592 E1.27606
G1 X83.555 Y69.446 E1.30674
G1 X83.009 Y69.230 E1.33741
G1 X82.495 Y68.947 E1.36808
G1 X82.019 Y68.602 E1.39882
G1 X81.578 Y68.183 E1.43058
G1 X81.218 Y67.748 E1.46010
G1 X80.903 Y67.252 E1.49077
G1 X80.653 Y66.721 E1.52144
G1 X80.471 Y66.161 E1.55218
G1 X80.360 Y65.564 E1.58394
G1 X80.325 Y65.000 E1.61346
G1 X80.362 Y64.414 E1.64413
G1 X80.472 Y63.837 E1.67480
G1 X80.653 Y63.279 E1.70548
G1 X80.903 Y62.748 E1.73615
G1 X81.218 Y62.252 E1.76683
G1 X81.592 Y61.800 E1.79750
G1 X82.020 Y61.398 E1.82817
G1 X82.477 Y61.066 E1.85769
G1 X83.008 Y60.770 E1.88945
G1 X83.555 Y60.554 E1.92019
G1 X84.124 Y60.408 E1.95086
G1 X84.706 Y60.334 E1.98153
G1 X85.294 Y60.334 E2.01221
G1 X85.876 Y60.408 E2.04288
G1 X86.445 Y60.554 E2.07355
G1 X86.991 Y60.770 E2.10423
G1 X87.505 Y61.053 E2.13490
G1 X87.981 Y61.398 E2.16564
G1 X88.422 Y61.817 E2.19740
G1 X88.782 Y62.252 E2.22691
G1 X89.097 Y62.748 E2.25759
G1 X89.347 Y63.279 E2.28826
G1 X89.528 Y63.837 E2.31894
G1 X89.638 Y64.414 E2.34961
G1 X89.675 Y65.000 E2.38028
G1 X89.638 Y65.586 E2.41096
G1 X89.528 Y66.163 E2.44163
G1 X89.347 Y66.721 E2.47230
G1 X89.097 Y67.252 E2.50298
G1 X88.814 Y67.697 E2.53052
G1 X88.528 Y67.563 F1800.000
G1 X88.179 Y67.985 E2.55913 F720.000
G1 X87.779 Y68.360 E2.58773
G1 X87.336 Y68.682 E2.61634
G1 X86.857 Y68.945 E2.64495
G1 X86.347 Y69.147 E2.67356
G1 X85.817 Y69.283 E2.70217
G1 X85.274 Y69.352 E2.73078
G1 X84.726 Y69.352 E2.75938
G1 X84.183 Y69.283 E2.78799
G1 X83.653 Y69.147 E2.81660
G1 X83.143 Y68.945 E2.84521
G1 X82.664 Y68.682 E2.87382
G1 X82.220 Y68.359 E2.90245
G1 X81.808 Y67.968 E2.93214
G1 X81.472 Y67.563 E2.95963
G1 X81.179 Y67.101 E2.98824
G1 X80.946 Y66.605 E3.01685
G1 X80.776 Y66.084 E3.04548
G1 X80.673 Y65.525 E3.07518
G1 X80.640 Y65.000 E3.10267
G1 X80.674 Y64.453 E3.13128
G1 X80.777 Y63.916 E3.15989
G1 X80.946 Y63.395 E3.18849
G1 X81.179 Y62.899 E3.21710
G1 X81.472 Y62.437 E3.24571
G1 X81.821 Y62.015 E3.27432
G1 X82.221 Y61.640 E3.30293
G1 X82.646 Y61.331 E3.33042
G1 X83.143 Y61.055 E3.36011
G1 X83.653 Y60.853 E3.38874
G1 X84.183 Y60.717 E3.41735
G1 X84.726 Y60.648 E3.44596
G1 X85.274 Y60.648 E3.47457
G1 X85.817 Y60.717 E3.50318
G1 X86.347 Y60.853 E3.53179
G1 X86.857 Y61.055 E3.56039
G1 X87.336 Y61.318 E3.58900
G1 X87.780 Y61.641 E3.61764
G1 X88.192 Y62.032 E3.64733
G1 X88.528 Y62.437 E3.67482
G1 X88.821 Y62.899 E3.70343
G1 X89.054 Y63.395 E3.73204
G1 X89.223 Y63.916 E3.76065
G1 X89.326 Y64.453 E3.78925
G1 X89.360 Y65.000 E3.81786
G1 X89.326 Y65.547 E3.84647
G1 X89.223 Y66.084 E3.87508
G1 X89.054 Y66.605 E3.90369
G1 X88.821 Y67.101 E3.93230
G1 X88.560 Y67.512 E3.95777
G1 X88.683 Y67.932 F1800.000
G1 E2.95777 F1200.00000
G92 E0
G1 X90.146 Y70.146 F1800.000
G1 E1.00000 F1200.00000
G1 X79.854 Y70.146 E1.53769 F1920.000
G1 X79.854 Y59.854 E2.07538
G1 X90.146 Y59.854 E2.61306
G1 X90.146 Y70.086 E3.14762
G1 X90.460 Y70.460 F1800.000
G1 X79.540 Y70.460 E3.71813 F1440.000
G1 X79.540 Y59.540 E4.28865
G1 X90.460 Y59.540 E4.85916
G1 X90.460 Y70.400 E5.42654
G1 X90.114 Y70.260 F1800.000
G1 E4.42654 F1200.00000
G92 E0
G1 X89.684 Y66.622 F1800.000
G1 E1.00000 F1200.00000
G1 X89.346 Y66.622 E1.01933 F1920.000
G1 X89.202 Y66.967 E1.04074
G1 X90.162 Y66.967 E1.09573
G1 X90.162 Y67.311 E1.11547
G1 X89.035 Y67.311 E1.18004
G1 X88.816 Y67.656 E1.20342
G1 X90.162 Y67.656 E1.28051
G1 X90.162 Y68.000 E1.30025
G1 X88.555 Y68.000 E1.39228
G1 X88.246 Y68.345 E1.41883
G1 X90.162 Y68.345 E1.52860
G1 X90.162 Y68.689 E1.54834
G1 X87.866 Y68.689 E1.67988
G1 X87.375 Y69.034 E1.71423
G1 X90.162 Y69.034 E1.87387
G1 X90.162 Y69.378 E1.89361
G1 X86.681 Y69.378 E2.09301
G1 X86.529 Y69.723 E2.11460
G1 X90.162 Y69.723 E2.32273
G1 X90.162 Y70.067 E2.34247
G1 X86.573 Y70.067 E2.54811
G1 X86.572 Y69.786 F1800.000
G1 X85.779 Y69.876 E2.64292 F192.000
G1 X85.779 Y69.876 F1800.000
G1 X85.303 Y69.906 E2.66782 F192.000
G1 X84.697 Y69.906 E2.69953
G1 X84.221 Y69.876 E2.72442
G1 X84.221 Y69.876 F1800.000
G1 X83.428 Y69.786 E2.81924 F192.000
G1 X83.319 Y69.378 F1800.000
G1 X79.838 Y69.378 E3.01864 F1920.000
G1 X79.838 Y69.723 E3.03838
G1 X83.471 Y69.723 E3.24651
G1 X83.427 Y70.067 E3.26641
G1 X79.838 Y70.067 E3.47204
G1 E2.47204 F1200.00000
G92 E0
G1 X82.625 Y69.034 F1800.000
G1 E1.00000 F1200.00000
G1 X79.838 Y69.034 E1.15965 F1920.000
G1 X79.838 Y68.689 E1.17939
G1 X82.134 Y68.689 E1.31093
G1 X81.757 Y68.345 E1.34019
G1 X79.838 Y68.345 E1.45013
G1 X79.838 Y68.000 E1.46987
G1 X81.445 Y68.000 E1.56190
G1 X81.184 Y67.656 E1.58665
G1 X79.838 Y67.656 E1.66374
G1 X79.838 Y67.311 E1.68348
G1 X80.965 Y67.311 E1.74805
G1 X80.798 Y66.967 E1.76999
G1 X79.838 Y66.967 E1.82498
G1 X80.316 Y66.622 E1.85874
G1 X80.654 Y66.622 E1.87807
G1 X80.223 Y66.592 F1800.000
G1 X80.166 Y66.229 E1.92180 F192.000
G1 X80.120 Y65.728 E1.98146
G1 X80.120 Y65.728 F1800.000
G1 X80.089 Y65.005 E2.01929 F192.000
G1 X80.120 Y64.263 E2.05809
G1 X80.120 Y64.263 F1800.000
G1 X80.167 Y63.769 E2.11700 F192.000
G1 X80.223 Y63.408 E2.16045
G1 X80.316 Y63.378 F1800.000
G1 X80.654 Y63.378 E2.17978 F1920.000
G1 X80.798 Y63.033 E2.20119
G1 X79.838 Y63.033 E2.25618
G1 X79.838 Y62.689 E2.27592
G1 X80.965 Y62.689 E2.34048
G1 X81.184 Y62.344 E2.36387
G1 X79.838 Y62.344 E2.44096
G1 X79.838 Y62.000 E2.46070
G1 X81.445 Y62.000 E2.55273
G1 X81.754 Y61.655 E2.57927
G1 X79.838 Y61.655 E2.68905
G1 X79.838 Y61.311 E2.70879
G1 X82.134 Y61.311 E2.84033
G1 X82.630 Y60.966 E2.87489
G1 X79.838 Y60.966 E3.03481
G1 X79.838 Y60.622 E3.05455
G1 X83.319 Y60.622 E3.25395
G1 X83.471 Y60.277 E3.27554
G1 X79.838 Y60.277 E3.48366
G1 X79.838 Y59.933 E3.50340
G1 X83.427 Y59.933 E3.70904
G1 X83.428 Y60.214 F1800.000
G1 X84.221 Y60.124 E3.80385 F192.000
G1 X84.221 Y60.124 F1800.000
G1 X84.697 Y60.094 E3.82875 F192.000
G1 X85.303 Y60.094 E3.86046
G1 X85.779 Y60.124 E3.88536
G1 X85.779 Y60.124 F1800.000
G1 X86.572 Y60.214 E3.98017 F192.000
G1 X86.681 Y60.622 F1800.000
G1 X90.162 Y60.622 E4.17957 F1920.000
G1 X90.162 Y60.277 E4.19931
G1 X86.529 Y60.277 E4.40744
G1 X86.573 Y59.933 E4.42734
G1 X90.162 Y59.933 E4.63297
G1 E3.63297 F1200.00000
G92 E0
G1 X87.375 Y60.966 F1800.000
G1 E1.00000 F1200.00000
G1 X90.162 Y60.966 E1.15965 F1920.000
G1 X90.162 Y61.311 E1.17939
G1 X87.866 Y61.311 E1.31093
G1 X88.243 Y61.655 E1.34019
G1 X90.162 Y61.655 E1.45013
G1 X90.162 Y62.000 E1.46987
G1 X88.555 Y62.000 E1.56189
G1 X88.816 Y62.344 E1.58664
G1 X90.162 Y62.344 E1.66374
G1 X90.162 Y62.689 E1.68348
G1 X89.035 Y62.689 E1.74805
G1 X89.202 Y63.033 E1.76999
G1 X90.162 Y63.033 E1.82498
G1 X89.684 Y63.378 E1.85873
G1 X89.346 Y63.378 E1.87806
G1 X89.777 Y63.408 F1800.000
G1 X89.833 Y63.769 E1.92152 F192.000
G1 X89.880 Y64.263 E1.98042
G1 X89.880 Y64.263 F1800.000
G1 X89.911 Y64.995 E2.01871 F192.000
G1 X89.880 Y65.737 E2.05751
G1 X89.880 Y65.737 F1800.000
G1 X89.833 Y66.231 E2.11642 F192.000
G1 X89.777 Y66.592 E2.15987
G1 Z0.150 F1800.000
M104 S225 ; set temperature
G1 Z0.550 F1800.000
G1 E1.15987 F1200.00000
G92 E0
G1 X88.408 Y68.200 F1800.000
G1 E1.00000 F1200.00000
G1 X87.980 Y68.602 E1.03067 F900.000
G1 X87.505 Y68.947 E1.06135
G1 X86.991 Y69.230 E1.09202
G1 X86.445 Y69.446 E1.12269
G1 X85.874 Y69.593 E1.15346
G1 X85.293 Y69.666 E1.18405
G1 X84.706 Y69.666 E1.21472
G1 X84.124 Y69.592 E1.24539
G1 X83.555 Y69.446 E1.27606
G1 X83.009 Y69.230 E1.30674
G1 X82.495 Y68.947 E1.33741
G1 X82.020 Y68.602 E1.36808
G1 X81.592 Y68.200 E1.39876
G1 X81.218 Y67.748 E1.42943
G1 X80.903 Y67.252 E1.46011
G1 X80.653 Y66.721 E1.49078
G1 X80.471 Y66.159 E1.52163
G1 X80.358 Y65.520 E1.55556
G1 X80.325 Y65.000 E1.58278
G1 X80.362 Y64.414 E1.61345
G1 X80.472 Y63.837 E1.64412
G1 X80.653 Y63.279 E1.67480
G1 X80.903 Y62.748 E1.70547
G1 X81.218 Y62.252 E1.73615
G1 X81.592 Y61.800 E1.76682
G1 X82.020 Y61.398 E1.79749
G1 X82.495 Y61.053 E1.82817
G1 X83.009 Y60.770 E1.85884
G1 X83.555 Y60.554 E1.88951
G1 X84.126 Y60.407 E1.92028
G1 X84.707 Y60.334 E1.95087
G1 X85.294 Y60.334 E1.98154
G1 X85.876 Y60.408 E2.01221
G1 X86.445 Y60.554 E2.04288
G1 X86.991 Y60.770 E2.07356
G1 X87.505 Y61.053 E2.10423
G1 X87.980 Y61.398 E2.13490
G1 X88.408 Y61.800 E2.16558
G1 X88.782 Y62.252 E2.19625
G1 X89.097 Y62.748 E2.22693
G1 X89.347 Y63.279 E2.25760
G1 X89.528 Y63.837 E2.28827
G1 X89.638 Y64.414 E2.31895
G1 X89.675 Y65.000 E2.34962
G1 X89.638 Y65.589 E2.38048
G1 X89.508 Y66.226 E2.41440
G1 X89.347 Y66.721 E2.44162
G1 X89.097 Y67.252 E2.47229
G1 X88.782 Y67.748 E2.50297
G1 X88.446 Y68.154 E2.53051
G1 X88.179 Y67.985 F1800.000
G1 X87.779 Y68.360 E2.55911 F900.000
G1 X87.336 Y68.682 E2.58772
G1 X86.857 Y68.945 E2.61633
G1 X86.347 Y69.147 E2.64494
G1 X85.815 Y69.284 E2.67363
G1 X85.274 Y69.352 E2.70216
G1 X84.726 Y69.352 E2.73076
G1 X84.183 Y69.283 E2.75937
G1 X83.653 Y69.147 E2.78798
G1 X83.143 Y68.945 E2.81659
G1 X82.664 Y68.682 E2.84520
G1 X82.221 Y68.360 E2.87381
G1 X81.821 Y67.985 E2.90241
G1 X81.472 Y67.563 E2.93102
G1 X81.179 Y67.101 E2.95963
G1 X80.946 Y66.605 E2.98824
G1 X80.776 Y66.083 E3.01692
G1 X80.670 Y65.483 E3.04878
G1 X80.640 Y65.000 E3.07404
G1 X80.674 Y64.453 E3.10265
G1 X80.777 Y63.916 E3.13126
G1 X80.946 Y63.395 E3.15987
G1 X81.179 Y62.899 E3.18848
G1 X81.472 Y62.437 E3.21709
G1 X81.821 Y62.015 E3.24569
G1 X82.221 Y61.640 E3.27430
G1 X82.664 Y61.318 E3.30291
G1 X83.143 Y61.055 E3.33152
G1 X83.653 Y60.853 E3.36013
G1 X84.185 Y60.716 E3.38882
G1 X84.726 Y60.648 E3.41735
G1 X85.274 Y60.648 E3.44595
G1 X85.817 Y60.717 E3.47456
G1 X86.347 Y60.853 E3.50317
G1 X86.857 Y61.055 E3.53178
G1 X87.336 Y61.318 E3.56039
G1 X87.779 Y61.640 E3.58899
G1 X88.179 Y62.015 E3.61760
G1 X88.528 Y62.437 E3.64621
G1 X88.821 Y62.899 E3.67482
G1 X89.054 Y63.395 E3.70343
G1 X89.223 Y63.916 E3.73204
G1 X89.326 Y64.453 E3.76065
G1 X89.360 Y65.000 E3.78925
G1 X89.326 Y65.548 E3.81793
G1 X89.204 Y66.145 E3.84979
G1 X89.054 Y66.605 E3.87506
G1 X88.821 Y67.101 E3.90366
G1 X88.528 Y67.563 E3.93227
G1 X88.217 Y67.939 E3.95775
G1 X88.286 Y68.370 F1800.000
G1 E2.95775 F1200.00000
G92 E0
G1 X90.146 Y70.146 F1800.000
G1 E1.00000 F1200.00000
G1 X79.854 Y70.146 E1.53769 F2400.000
G1 X79.854 Y59.854 E2.07538
G1 X90.146 Y59.854 E2.61306
G1 X90.146 Y70.086 E3.14762
G1 X90.460 Y70.460 F1800.000
G1 X79.540 Y70.460 E3.71813 F1800.000
G1 X79.540 Y59.540 E4.28865
G1 X90.460 Y59.540 E4.85916
G1 X90.460 Y70.400 E5.42654
G1 X90.114 Y70.260 F1800.000
G1 X90.010 Y70.138 F1800.000
G1 X90.010 Y66.754 E5.62672 F9000.000
G1 X89.534 Y67.174 E5.66423
G1 X89.534 Y70.138 E5.83961
G1 X89.058 Y70.138 E5.86775
G1 X89.058 Y67.620 E6.01671
G1 X88.583 Y68.067 E6.05531
G1 X88.583 Y70.138 E6.17786
G1 X88.107 Y70.138 E6.20599
G1 X88.107 Y68.513 E6.30212
G1 X87.632 Y68.960 E6.34071
G1 X87.632 Y70.138 E6.41042
G1 X87.156 Y70.138 E6.43855
G1 X87.156 Y69.407 E6.48184
G1 X86.680 Y69.853 E6.52044
G1 X86.680 Y70.138 E6.53730
G1 X86.572 Y69.786 F1800.000
G1 X85.781 Y69.876 E6.63192 F240.000
G1 X85.781 Y69.876 F1800.000
G1 X85.303 Y69.906 E6.65691 F240.000
G1 X84.697 Y69.906 E6.68861
G1 X84.221 Y69.876 E6.71351
G1 X84.221 Y69.876 F1800.000
G1 X83.428 Y69.786 E6.80832 F240.000
G1 X83.389 Y69.648 F1800.000
G1 X83.389 Y69.349 E6.82395 F2400.000
G1 X83.320 Y70.138 F1800.000
G1 X83.320 Y69.853 E6.84082 F9000.000
G1 X82.844 Y70.138 E6.87362
G1 X82.844 Y69.407 E6.91691
G1 X82.368 Y68.960 E6.95550
G1 X82.368 Y70.138 E7.02521
G1 X81.893 Y70.138 E7.05334
G1 X81.893 Y68.513 E7.14947
G1 X81.417 Y68.067 E7.18806
G1 X81.417 Y70.138 E7.31061
G1 X80.942 Y70.138 E7.33875
G1 X80.942 Y67.620 E7.48771
G1 X80.466 Y67.174 E7.52631
G1 X80.466 Y70.138 E7.70169
G1 X79.990 Y70.138 E7.72983
G1 X79.990 Y66.754 E7.93001
G1 X80.223 Y66.592 F1800.000
G1 X80.166 Y66.224 E7.97424 F240.000
G1 X80.121 Y65.712 E8.03535
G1 X80.121 Y65.712 F1800.000
G1 X80.089 Y65.005 E8.07232 F240.000
G1 X80.120 Y64.263 E8.11112
G1 X80.120 Y64.263 F1800.000
G1 X80.167 Y63.769 E8.17003 F240.000
G1 X80.223 Y63.408 E8.21348
G1 X80.296 Y63.454 F1800.000
G1 X80.296 Y63.218 E8.23049 F2400.000
G1 X80.729 Y62.839 E8.27192
G1 X80.729 Y63.074 E8.28887
G1 X79.990 Y63.246 F1800.000
G1 X79.990 Y59.862 E8.48905 F9000.000
G1 X80.466 Y59.862 E8.51719
G1 X80.466 Y62.826 E8.69257
G1 X80.942 Y62.380 E8.73117
G1 X80.942 Y59.862 E8.88013
G1 X81.417 Y59.862 E8.90827
G1 X81.417 Y61.933 E9.03081
G1 X81.893 Y61.487 E9.06941
G1 X81.893 Y59.862 E9.16553
G1 X82.368 Y59.862 E9.19367
G1 X82.368 Y61.040 E9.26337
G1 X82.844 Y60.593 E9.30197
G1 X82.844 Y59.862 E9.34526
G1 X83.320 Y59.862 E9.37339
G1 X83.320 Y60.147 E9.39026
G1 X83.428 Y60.214 F1800.000
G1 X84.219 Y60.124 E9.48487 F240.000
G1 X84.219 Y60.124 F1800.000
G1 X84.697 Y60.094 E9.50986 F240.000
G1 X85.303 Y60.094 E9.54156
G1 X85.779 Y60.124 E9.56646
G1 X85.779 Y60.124 F1800.000
G1 X86.572 Y60.214 E9.66128 F240.000
G1 X86.680 Y60.147 F1800.000
G1 X86.680 Y59.862 E9.67814 F9000.000
G1 X87.156 Y59.862 E9.70628
G1 X87.156 Y60.593 E9.74956
G1 X87.632 Y61.040 E9.78816
G1 X87.632 Y59.862 E9.85787
G1 X88.107 Y59.862 E9.88600
G1 X88.107 Y61.487 E9.98213
G1 X88.583 Y61.933 E10.02072
G1 X88.583 Y59.862 E10.14327
G1 X89.058 Y59.862 E10.17140
G1 X89.058 Y62.380 E10.32037
G1 X89.534 Y62.826 E10.35896
G1 X89.534 Y59.862 E10.53435
G1 X90.010 Y59.862 E10.56248
G1 X90.010 Y63.246 E10.76267
G1 X89.777 Y63.408 F1800.000
G1 X89.833 Y63.769 E10.80612 F240.000
G1 X89.880 Y64.263 E10.86503
G1 X89.880 Y64.263 F1800.000
G1 X89.911 Y64.995 E10.90331 F240.000
G1 X89.888 Y65.726 E10.94149
G1 X89.881 Y65.725 F1800.000
G1 X89.777 Y66.592 E11.04527 F240.000
G1 X89.704 Y66.782 F1800.000
G1 X89.704 Y66.546 E11.06228 F2400.000
G1 X89.271 Y66.926 E11.10374
G1 X89.271 Y67.161 E11.12069
G1 E10.12069 F1200.00000
G92 E0
G1 X86.794 Y69.298 F1800.000
G1 E1.00000 F1200.00000
G1 X86.794 Y69.514 E1.01128 F2400.000
G1 E0.01128 F1200.00000
G92 E0
G1 X82.783 Y69.660 F1800.000
G1 X81.488 Y69.283 F1800.000
G1 X80.935 Y69.065 F1800.000
