; generated by Slic3r 1.2.9 on 2018-10-16 at 17:21:48

; external perimeters extrusion width = 0.40mm
; perimeters extrusion width = 0.40mm
; infill extrusion width = 0.40mm
; solid infill extrusion width = 0.40mm
; top infill extrusion width = 0.40mm
; support material extrusion width = 0.40mm

M107
M190 S110
M104 S230
M109 S230
G28 ; home all axes
G21 ; set units to millimeters
G90 ; use absolute coordinates
M82 ; use absolute distances for extrusion
G92 E0
G1 Z0.200 F1800.000
G1 E-1.00000 F1200.00000
G92 E0
G1 X18.729 Y16.884 F1800.000
G1 E1.00000 F1200.00000
G1 X18.983 Y16.637 E1.01849 F2400.000
G1 X20.085 Y15.653 E1.09571
G1 X21.116 Y14.989 E1.15976
G1 X23.686 Y13.852 E1.30659
G1 X25.117 Y13.337 E1.38603
G1 X26.248 Y13.118 E1.44621
G1 X27.307 Y13.072 E1.50158
G1 X120.593 Y11.653 E6.37591
G1 X124.982 Y11.652 E6.60519
G1 X125.352 Y11.670 E6.62456
G1 X139.921 Y13.044 E7.38911
G1 X141.597 Y13.599 E7.48130
G1 X142.862 Y14.829 E7.57349
G1 X143.494 Y16.970 E7.69008
G1 X143.494 Y47.970 E9.30967
G1 X143.334 Y49.080 E9.36829
G1 X122.922 Y118.611 E13.15420
G1 X122.059 Y120.150 E13.24639
G1 X120.611 Y121.158 E13.33858
G1 X119.503 Y121.426 E13.39814
G1 X104.645 Y122.800 E14.17772
G1 X104.281 Y122.817 E14.19672
G1 X99.953 Y122.817 E14.42287
G1 X99.588 Y122.800 E14.44192
G1 X84.745 Y121.423 E15.22074
G1 X20.429 Y114.955 E18.59787
G1 X19.517 Y114.752 E18.64668
G1 X18.374 Y114.351 E18.70995
G1 X15.516 Y113.100 E18.87295
G1 X14.486 Y112.436 E18.93700
G1 X13.383 Y111.452 E19.01422
G1 X13.130 Y111.205 E19.03271
G1 X11.391 Y109.347 E19.16566
G1 X10.713 Y108.356 E19.22835
G1 X9.959 Y106.783 E19.31952
G1 X9.813 Y106.435 E19.33920
G1 X9.029 Y104.296 E19.45823
G1 X8.793 Y103.132 E19.52031
G1 X8.695 Y101.122 E19.62542
G1 X8.695 Y100.738 E19.64547
G1 X8.793 Y98.729 E19.75058
G1 X14.399 Y24.851 E23.62144
G1 X14.629 Y23.793 E23.67800
G1 X15.413 Y21.653 E23.79704
G1 X15.559 Y21.306 E23.81672
G1 X16.313 Y19.732 E23.90789
G1 X16.990 Y18.742 E23.97058
G1 X18.688 Y16.928 E24.10039
G1 X18.959 Y17.099 F1800.000
G1 X20.295 Y15.887 E24.19461 F2400.000
G1 X21.243 Y15.276 E24.25356
G1 X23.813 Y14.139 E24.40039
G1 X25.221 Y13.633 E24.47854
G1 X26.262 Y13.432 E24.53393
G1 X27.311 Y13.386 E24.58882
G1 X120.598 Y11.967 E29.46314
G1 X124.982 Y11.966 E29.69217
G1 X125.323 Y11.983 E29.71000
G1 X139.892 Y13.357 E30.47455
G1 X141.493 Y13.905 E30.56294
G1 X142.672 Y15.118 E30.65134
G1 X143.179 Y16.970 E30.75162
G1 X143.179 Y47.970 E32.37122
G1 X143.033 Y48.992 E32.42516
G1 X122.621 Y118.522 E36.21107
G1 X121.779 Y119.990 E36.29946
G1 X120.363 Y120.916 E36.38786
G1 X119.474 Y121.113 E36.43544
G1 X104.616 Y122.488 E37.21503
G1 X104.281 Y122.503 E37.23251
G1 X99.953 Y122.503 E37.45866
G1 X99.617 Y122.488 E37.47620
G1 X84.776 Y121.110 E38.25489
G1 X20.461 Y114.642 E41.63202
G1 X19.621 Y114.456 E41.67694
G1 X18.479 Y114.054 E41.74021
G1 X15.643 Y112.813 E41.90192
G1 X14.695 Y112.202 E41.96087
G1 X13.359 Y110.990 E42.05509
G1 X11.620 Y109.132 E42.18804
G1 X10.997 Y108.220 E42.24573
G1 X10.243 Y106.647 E42.33690
G1 X10.108 Y106.327 E42.35502
G1 X9.324 Y104.188 E42.47405
G1 X9.107 Y103.116 E42.53118
G1 X9.009 Y101.107 E42.63629
G1 X9.009 Y100.754 E42.65474
G1 X9.107 Y98.744 E42.75985
G1 X14.713 Y24.874 E46.63027
G1 X14.924 Y23.901 E46.68232
G1 X15.708 Y21.761 E46.80136
G1 X15.842 Y21.442 E46.81947
G1 X16.597 Y19.868 E46.91064
G1 X17.220 Y18.956 E46.96834
G1 X18.918 Y17.143 E47.09815
G1 X19.188 Y17.313 F1800.000
G1 X20.504 Y16.122 E47.19090 F2400.000
G1 X21.370 Y15.563 E47.24474
G1 X23.940 Y14.427 E47.39157
G1 X25.325 Y13.929 E47.46843
G1 X26.276 Y13.745 E47.51902
G1 X27.316 Y13.701 E47.57343
G1 X120.603 Y12.281 E52.44775
G1 X124.982 Y12.281 E52.67654
G1 X125.293 Y12.295 E52.69282
G1 X139.862 Y13.670 E53.45737
G1 X141.386 Y14.209 E53.54179
G1 X142.473 Y15.405 E53.62622
G1 X142.865 Y16.970 E53.71048
G1 X142.865 Y47.970 E55.33007
G1 X142.731 Y48.903 E55.37935
G1 X122.319 Y118.434 E59.16525
G1 X121.500 Y119.826 E59.24968
G1 X119.445 Y120.800 E59.36850
G1 X104.587 Y122.175 E60.14808
G1 X104.281 Y122.189 E60.16405
G1 X99.953 Y122.189 E60.39020
G1 X99.646 Y122.175 E60.40621
G1 X84.808 Y120.798 E61.18478
G1 X20.492 Y114.330 E64.56191
G1 X19.725 Y114.159 E64.60294
G1 X18.583 Y113.758 E64.66621
G1 X15.770 Y112.525 E64.82664
G1 X14.904 Y111.967 E64.88048
G1 X13.588 Y110.775 E64.97323
G1 X11.849 Y108.917 E65.10617
G1 X11.280 Y108.085 E65.15888
G1 X10.526 Y106.511 E65.25004
G1 X10.403 Y106.219 E65.26659
G1 X9.619 Y104.080 E65.38562
G1 X9.421 Y103.101 E65.43781
G1 X9.323 Y101.092 E65.54292
G1 X9.323 Y100.769 E65.55977
G1 X9.421 Y98.759 E65.66488
G1 X15.026 Y24.898 E69.53485
G1 X15.219 Y24.009 E69.58240
G1 X16.003 Y21.869 E69.70143
G1 X16.126 Y21.578 E69.71798
G1 X16.880 Y20.004 E69.80915
G1 X17.449 Y19.171 E69.86185
G1 X19.147 Y17.357 E69.99166
G1 E68.99166 F1200.00000
G92 E0
G1 X32.106 Y29.827 F1800.000
G1 E1.00000 F1200.00000
G1 X29.836 Y31.477 E1.14661 F720.000
G1 X27.030 Y31.477 E1.29322
G1 X24.759 Y29.827 E1.43984
G1 X23.892 Y27.158 E1.58645
G1 X24.759 Y24.490 E1.73306
G1 X27.030 Y22.840 E1.87967
G1 X29.836 Y22.840 E2.02629
G1 X32.106 Y24.490 E2.17290
G1 X32.973 Y27.158 E2.31951
G1 X32.125 Y29.770 E2.46299
G1 X31.839 Y29.633 F1800.000
G1 X29.734 Y31.163 E2.59894 F720.000
G1 X27.132 Y31.163 E2.73488
G1 X25.027 Y29.633 E2.87083
G1 X24.997 Y29.542 E2.87584
G1 X24.222 Y27.158 E3.00677
G1 X25.027 Y24.684 E3.14272
G1 X27.132 Y23.154 E3.27867
G1 X29.734 Y23.154 E3.41461
G1 X31.839 Y24.684 E3.55056
G1 X32.643 Y27.158 E3.68651
G1 X31.857 Y29.576 E3.81932
G1 X31.963 Y30.014 F1800.000
G1 E2.81932 F1200.00000
G92 E0
G1 X32.519 Y24.189 F1800.000
G1 X33.096 Y23.396 F1800.000
G1 X32.183 Y23.444 F1800.000
G1 X32.183 Y23.038 F1800.000
G1 X31.697 Y22.553 F1800.000
G1 E1.00000 F1200.00000
G1 X25.169 Y22.553 E1.34107 F720.000
G1 X25.169 Y19.024 E1.52541
G1 X31.697 Y19.024 E1.86648
G1 X31.697 Y22.493 E2.04768
G1 X31.383 Y22.238 F1800.000
G1 X25.483 Y22.238 E2.35592 F720.000
G1 X25.483 Y19.338 E2.50743
G1 X31.383 Y19.338 E2.81567
G1 X31.383 Y22.178 E2.96405
G1 X31.383 Y22.638 F1800.000
G1 E1.96405 F1200.00000
G92 E0
G1 X33.804 Y19.157 F1800.000
G1 E1.00000 F1200.00000
G1 X34.912 Y19.963 E1.07157 F1920.000
G1 X36.266 Y21.467 E1.17732
G1 X37.279 Y23.220 E1.28308
G1 X37.904 Y25.145 E1.38884
G1 X38.116 Y27.158 E1.49460
G1 X37.904 Y29.172 E1.60036
G1 X37.279 Y31.097 E1.70612
G1 X36.266 Y32.850 E1.81188
G1 X34.912 Y34.354 E1.91764
G1 X33.274 Y35.544 E2.02340
G1 X31.425 Y36.368 E2.12916
G1 X29.445 Y36.788 E2.23492
G1 X27.421 Y36.788 E2.34068
G1 X25.441 Y36.368 E2.44644
G1 X23.591 Y35.544 E2.55220
G1 X21.954 Y34.354 E2.65796
G1 X20.599 Y32.850 E2.76372
G1 X19.587 Y31.097 E2.86948
G1 X18.961 Y29.172 E2.97524
G1 X18.750 Y27.158 E3.08100
G1 X18.961 Y25.145 E3.18676
G1 X19.587 Y23.220 E3.29251
G1 X20.599 Y21.467 E3.39827
G1 X21.954 Y19.963 E3.50403
G1 X23.591 Y18.773 E3.60979
G1 X25.441 Y17.949 E3.71555
G1 X27.421 Y17.528 E3.82131
G1 X29.445 Y17.528 E3.92707
G1 X31.425 Y17.949 E4.03283
G1 X33.274 Y18.773 E4.13859
G1 X33.755 Y19.122 E4.16965
G1 X33.988 Y18.903 F1800.000
G1 X35.123 Y19.728 E4.24294 F1440.000
G1 X36.522 Y21.281 E4.35215
G1 X36.660 Y21.520 E4.36657
G1 X36.818 Y21.552 E4.37497
G1 X36.733 Y21.648 E4.38164
G1 X37.567 Y23.092 E4.46875
G1 X38.227 Y25.121 E4.58026
G1 X38.322 Y25.185 E4.58626
G1 X38.235 Y25.287 E4.59328
G1 X38.432 Y27.158 E4.69157
G1 X38.235 Y29.029 E4.78986
G1 X38.322 Y29.132 E4.79688
G1 X38.227 Y29.195 E4.80288
G1 X37.567 Y31.225 E4.91439
G1 X36.733 Y32.669 E5.00151
G1 X36.818 Y32.765 E5.00818
G1 X36.660 Y32.797 E5.01658
G1 X36.522 Y33.036 E5.03099
G1 X35.123 Y34.589 E5.14020
G1 X33.432 Y35.818 E5.24941
G1 X31.523 Y36.668 E5.35862
G1 X29.478 Y37.103 E5.46783
G1 X27.388 Y37.103 E5.57704
G1 X25.343 Y36.668 E5.68625
G1 X23.433 Y35.818 E5.79546
G1 X21.742 Y34.589 E5.90467
G1 X20.343 Y33.036 E6.01388
G1 X20.205 Y32.797 E6.02829
G1 X20.048 Y32.765 E6.03670
G1 X20.132 Y32.669 E6.04337
G1 X19.298 Y31.225 E6.13048
G1 X18.639 Y29.195 E6.24199
G1 X18.543 Y29.132 E6.24799
G1 X18.630 Y29.029 E6.25501
G1 X18.434 Y27.158 E6.35330
G1 X18.630 Y25.287 E6.45159
G1 X18.543 Y25.185 E6.45861
G1 X18.639 Y25.121 E6.46461
G1 X19.298 Y23.092 E6.57612
G1 X20.132 Y21.648 E6.66323
G1 X20.048 Y21.552 E6.66990
G1 X20.205 Y21.520 E6.67831
G1 X20.343 Y21.281 E6.69272
G1 X21.742 Y19.728 E6.80193
G1 X23.433 Y18.499 E6.91114
G1 X25.343 Y17.649 E7.02035
G1 X27.388 Y17.214 E7.12956
G1 X29.478 Y17.214 E7.23877
G1 X31.523 Y17.649 E7.34798
G1 X33.432 Y18.499 E7.45719
G1 X33.940 Y18.868 E7.48997
G1 X33.947 Y19.301 F1800.000
G1 X33.856 Y19.199 F1800.000
G1 X31.661 Y19.199 E7.60616 F1920.000
G1 X31.661 Y19.517 E7.62302
G1 X34.294 Y19.517 E7.76241
G1 X34.732 Y19.836 E7.79109
G1 X31.661 Y19.836 E7.95368
G1 X31.661 Y20.154 E7.97053
G1 X35.100 Y20.154 E8.15260
G1 X35.387 Y20.472 E8.17529
G1 X31.661 Y20.472 E8.37254
G1 X31.661 Y20.791 E8.38939
G1 X35.673 Y20.791 E8.60182
G1 X35.960 Y21.109 E8.62450
G1 X31.661 Y21.109 E8.85211
G1 X31.661 Y21.428 E8.86897
G1 X36.247 Y21.428 E9.11175
G1 X36.454 Y21.746 E9.13188
G1 X31.661 Y21.746 E9.38566
G1 X31.661 Y22.064 E9.40251
G1 X36.638 Y22.064 E9.66603
G1 X36.822 Y22.383 E9.68549
G1 X31.661 Y22.383 E9.95874
G1 E8.95874 F1200.00000
G92 E0
G1 X33.417 Y18.881 F1800.000
G1 E1.00000 F1200.00000
G1 X23.448 Y18.881 E1.52784 F1920.000
G1 X23.010 Y19.199 E1.55652
G1 X25.204 Y19.199 E1.67271
G1 X25.204 Y19.517 E1.68956
G1 X22.572 Y19.517 E1.82895
G1 X22.133 Y19.836 E1.85763
G1 X25.204 Y19.836 E2.02022
G1 X25.204 Y20.154 E2.03708
G1 X21.766 Y20.154 E2.21915
G1 X21.479 Y20.472 E2.24183
G1 X25.204 Y20.472 E2.43908
G1 X25.204 Y20.791 E2.45594
G1 X21.192 Y20.791 E2.66837
G1 X20.906 Y21.109 E2.69105
G1 X25.204 Y21.109 E2.91866
G1 X25.204 Y21.428 E2.93551
G1 X20.619 Y21.428 E3.17830
G1 X20.411 Y21.746 E3.19842
G1 X25.204 Y21.746 E3.45220
G1 X25.204 Y22.064 E3.46906
G1 X20.227 Y22.064 E3.73258
G1 X20.044 Y22.383 E3.75204
G1 X25.204 Y22.383 E4.02529
G1 X25.901 Y23.656 F1800.000
G1 X19.412 Y23.656 E4.36884 F1920.000
G1 X19.309 Y23.975 E4.38656
G1 X25.463 Y23.975 E4.71239
G1 X25.024 Y24.293 E4.74107
G1 X19.205 Y24.293 E5.04916
G1 X19.102 Y24.611 E5.06689
G1 X24.752 Y24.611 E5.36606
G1 X24.649 Y24.930 E5.38379
G1 X18.999 Y24.930 E5.68296
G1 X18.915 Y25.248 E5.70038
G1 X24.546 Y25.248 E5.99850
G1 X24.442 Y25.567 E6.01623
G1 X18.882 Y25.567 E6.31064
G1 X18.848 Y25.885 E6.32759
G1 X24.339 Y25.885 E6.61829
G1 X24.235 Y26.203 E6.63602
G1 X18.815 Y26.203 E6.92301
G1 X18.781 Y26.522 E6.93996
G1 X24.132 Y26.522 E7.22326
G1 X24.028 Y26.840 E7.24098
G1 X18.748 Y26.840 E7.52057
G1 X18.734 Y27.158 E7.53744
G1 X23.925 Y27.158 E7.81226
G1 X24.028 Y27.477 E7.82999
G1 X18.748 Y27.477 E8.10958
G1 X18.781 Y27.795 E8.12653
G1 X24.132 Y27.795 E8.40982
G1 X24.235 Y28.114 E8.42755
G1 X18.815 Y28.114 E8.71455
G1 X18.848 Y28.432 E8.73150
G1 X24.339 Y28.432 E9.02220
G1 X24.442 Y28.750 E9.03993
G1 X18.882 Y28.750 E9.33434
G1 X18.915 Y29.069 E9.35129
G1 X24.546 Y29.069 E9.64940
G1 X24.649 Y29.387 E9.66713
G1 X18.999 Y29.387 E9.96630
G1 X19.102 Y29.705 E9.98402
G1 X24.752 Y29.705 E10.28320
G1 X25.025 Y30.024 E10.30537
G1 X19.205 Y30.024 E10.61347
G1 X19.309 Y30.342 E10.63120
G1 X25.463 Y30.342 E10.95702
G1 X25.901 Y30.661 E10.98570
G1 X19.412 Y30.661 E11.32925
G1 X19.516 Y30.979 E11.34698
G1 X26.339 Y30.979 E11.70825
G1 X26.777 Y31.297 E11.73693
G1 X19.676 Y31.297 E12.11293
G1 X19.860 Y31.616 E12.13240
G1 X37.006 Y31.616 E13.04022
G1 X36.822 Y31.934 E13.05969
G1 X20.044 Y31.934 E13.94805
G1 X20.227 Y32.253 E13.96752
G1 X36.638 Y32.253 E14.83641
G1 X36.454 Y32.571 E14.85588
G1 X20.411 Y32.571 E15.70531
G1 X20.619 Y32.889 E15.72544
G1 X36.247 Y32.889 E16.55288
G1 X35.960 Y33.208 E16.57556
G1 X20.906 Y33.208 E17.37264
G1 X21.192 Y33.526 E17.39532
G1 X35.673 Y33.526 E18.16204
G1 X35.387 Y33.844 E18.18473
G1 X21.479 Y33.844 E18.92109
G1 X21.766 Y34.163 E18.94378
G1 X35.100 Y34.163 E19.64979
G1 X34.732 Y34.481 E19.67555
G1 X22.134 Y34.481 E20.34260
G1 X22.572 Y34.800 E20.37128
G1 X34.294 Y34.800 E20.99192
G1 X33.855 Y35.118 E21.02060
G1 X23.010 Y35.118 E21.59485
G1 X23.448 Y35.436 E21.62352
G1 X33.417 Y35.436 E22.15136
G1 X32.752 Y35.755 F1800.000
G1 X24.114 Y35.755 E22.60871 F1920.000
G1 X24.829 Y36.073 F1800.000
G1 X32.037 Y36.073 E22.99033 F1920.000
G1 X31.125 Y36.392 F1800.000
G1 X25.741 Y36.392 E23.27540 F1920.000
G1 X27.238 Y36.710 F1800.000
G1 X29.627 Y36.710 E23.40187 F1920.000
G1 E22.40187 F1200.00000
G92 E0
G1 X30.088 Y31.297 F1800.000
G1 E1.00000 F1200.00000
G1 X37.190 Y31.297 E1.37600 F1920.000
G1 X37.350 Y30.979 E1.39487
G1 X30.526 Y30.979 E1.75614
G1 X30.965 Y30.661 E1.78482
G1 X37.453 Y30.661 E2.12837
G1 X37.557 Y30.342 E2.14610
G1 X31.403 Y30.342 E2.47192
G1 X31.841 Y30.024 E2.50060
G1 X37.660 Y30.024 E2.80870
G1 X37.763 Y29.705 E2.82643
G1 X32.113 Y29.705 E3.12560
G1 X32.216 Y29.387 E3.14333
G1 X37.867 Y29.387 E3.44250
G1 X37.950 Y29.069 E3.45992
G1 X32.320 Y29.069 E3.75804
G1 X32.423 Y28.750 E3.77577
G1 X37.984 Y28.750 E4.07018
G1 X38.017 Y28.432 E4.08713
G1 X32.527 Y28.432 E4.37783
G1 X32.630 Y28.114 E4.39556
G1 X38.051 Y28.114 E4.68256
G1 X38.084 Y27.795 E4.69951
G1 X32.734 Y27.795 E4.98280
G1 X32.837 Y27.477 E5.00052
G1 X38.118 Y27.477 E5.28011
G1 X38.131 Y27.158 E5.29699
G1 X32.941 Y27.158 E5.57180
G1 X32.837 Y26.840 E5.58953
G1 X38.118 Y26.840 E5.86912
G1 X38.084 Y26.522 E5.88607
G1 X32.734 Y26.522 E6.16936
G1 X32.630 Y26.203 E6.18709
G1 X38.051 Y26.203 E6.47409
G1 X38.017 Y25.885 E6.49104
G1 X32.527 Y25.885 E6.78174
G1 X32.423 Y25.567 E6.79947
G1 X37.984 Y25.567 E7.09388
G1 X37.950 Y25.248 E7.11083
G1 X32.320 Y25.248 E7.40894
G1 X32.216 Y24.930 E7.42667
G1 X37.867 Y24.930 E7.72584
G1 X37.763 Y24.611 E7.74356
G1 X32.113 Y24.611 E8.04274
G1 X31.841 Y24.293 E8.06491
G1 X37.660 Y24.293 E8.37301
G1 X37.557 Y23.975 E8.39073
G1 X31.403 Y23.975 E8.71656
G1 X30.965 Y23.656 E8.74524
G1 X37.453 Y23.656 E9.08879
G1 X37.350 Y23.338 E9.10651
G1 X30.526 Y23.338 E9.46779
G1 X30.088 Y23.019 E9.49647
G1 X37.190 Y23.019 E9.87246
G1 X37.006 Y22.701 E9.89193
G1 X19.860 Y22.701 E10.79976
G1 X19.676 Y23.019 E10.81922
G1 X26.777 Y23.019 E11.19522
G1 X26.339 Y23.338 E11.22390
G1 X19.516 Y23.338 E11.58518
G1 E10.58518 F1200.00000
G92 E0
G1 X24.114 Y18.562 F1800.000
G1 E1.00000 F1200.00000
G1 X32.752 Y18.562 E1.45735 F1920.000
G1 X32.037 Y18.244 F1800.000
G1 X24.829 Y18.244 E1.83898 F1920.000
G1 X25.741 Y17.925 F1800.000
G1 X31.125 Y17.925 E2.12406 F1920.000
G1 X29.627 Y17.607 F1800.000
G1 X27.238 Y17.607 E2.25054 F1920.000
G1 E1.25054 F1200.00000
G92 E0
G1 X26.091 Y39.437 F1800.000
G1 X30.775 Y61.658 F1800.000
G1 X29.443 Y68.202 F1800.000
G1 X29.203 Y68.399 F1800.000
G1 X25.175 Y88.651 F1800.000
G1 X24.236 Y96.612 F1800.000
G1 E1.00000 F1200.00000
G1 X26.506 Y98.261 E1.14661 F720.000
G1 X27.374 Y100.930 E1.29322
G1 X26.506 Y103.599 E1.43984
G1 X24.236 Y105.249 E1.58645
G1 X21.430 Y105.249 E1.73306
G1 X19.160 Y103.599 E1.87967
G1 X18.292 Y100.930 E2.02629
G1 X19.160 Y98.261 E2.17290
G1 X21.430 Y96.612 E2.31951
G1 X24.176 Y96.612 E2.46299
G1 X24.134 Y96.926 F1800.000
G1 X26.239 Y98.455 E2.59894 F720.000
G1 X27.043 Y100.930 E2.73488
G1 X26.239 Y103.405 E2.87083
G1 X24.134 Y104.934 E3.00677
G1 X21.532 Y104.934 E3.14272
G1 X19.427 Y103.405 E3.27867
G1 X18.623 Y100.930 E3.41461
G1 X19.427 Y98.455 E3.55056
G1 X21.532 Y96.926 E3.68651
G1 X24.074 Y96.926 E3.81932
G1 X24.458 Y96.691 F1800.000
G1 E2.81932 F1200.00000
G92 E0
G1 X26.097 Y96.324 F1800.000
G1 E1.00000 F1200.00000
G1 X19.569 Y96.324 E1.34107 F720.000
G1 X19.569 Y92.796 E1.52541
G1 X26.097 Y92.796 E1.86648
G1 X26.097 Y96.264 E2.04768
G1 X25.783 Y96.010 F1800.000
G1 X19.883 Y96.010 E2.35592 F720.000
G1 X19.883 Y93.110 E2.50743
G1 X25.783 Y93.110 E2.81567
G1 X25.783 Y95.950 E2.96405
G1 X25.783 Y96.410 F1800.000
G1 E1.96405 F1200.00000
G92 E0
G1 X28.204 Y92.929 F1800.000
G1 E1.00000 F1200.00000
G1 X29.312 Y93.734 E1.07157 F1920.000
G1 X30.667 Y95.239 E1.17732
G1 X31.679 Y96.992 E1.28308
G1 X32.304 Y98.917 E1.38884
G1 X32.516 Y100.930 E1.49460
G1 X32.304 Y102.943 E1.60036
G1 X31.679 Y104.869 E1.70612
G1 X30.667 Y106.622 E1.81188
G1 X29.312 Y108.126 E1.91764
