; generated by Slic3r 1.2.9 on 2018-10-17 at 09:01:58

; external perimeters extrusion width = 0.40mm
; perimeters extrusion width = 0.40mm
; infill extrusion width = 0.40mm
; solid infill extrusion width = 0.40mm
; top infill extrusion width = 0.40mm
; support material extrusion width = 0.40mm

M107
M190 S110
M104 S230
M109 S230
G28 ; home all axes
G21 ; set units to millimeters
G90 ; use absolute coordinates
M82 ; use absolute distances for extrusion
G92 E0
G1 Z0.150 F1800.000
G1 E-1.00000 F1200.00000
G92 E0
G1 X64.452 Y47.780 F1800.000
G1 E1.00000 F1200.00000
G1 X65.558 Y46.405 E1.09219 F2400.000
G1 X67.643 Y45.574 E1.20943
G1 X82.745 Y44.199 E2.00171
G1 X83.102 Y44.183 E2.02040
G1 X87.431 Y44.183 E2.24655
G1 X87.801 Y44.200 E2.26592
G1 X102.370 Y45.575 E3.03047
G1 X104.046 Y46.130 E3.12266
G1 X105.311 Y47.360 E3.21485
G1 X105.942 Y49.500 E3.33144
G1 X105.942 Y80.500 E4.95103
G1 X105.548 Y82.220 E5.04323
G1 X104.442 Y83.595 E5.13542
G1 X102.363 Y84.426 E5.25237
G1 X87.505 Y85.800 E6.03195
G1 X87.142 Y85.817 E6.05095
G1 X82.813 Y85.817 E6.27710
G1 X82.449 Y85.800 E6.29615
G1 X67.636 Y84.426 E7.07339
G1 X65.960 Y83.873 E7.16558
G1 X64.692 Y82.645 E7.25777
G1 X64.058 Y80.500 E7.37467
G1 X64.058 Y49.500 E8.99426
G1 X64.439 Y47.839 E9.08332
G1 X64.766 Y47.855 F1800.000
G1 X65.864 Y46.567 E9.17171 F2400.000
G1 X67.671 Y45.887 E9.27260
G1 X82.773 Y44.512 E10.06488
G1 X83.102 Y44.497 E10.08208
G1 X87.431 Y44.497 E10.30823
G1 X87.772 Y44.513 E10.32606
G1 X102.341 Y45.888 E11.09060
G1 X103.942 Y46.435 E11.17900
G1 X105.121 Y47.649 E11.26739
G1 X105.628 Y49.500 E11.36768
G1 X105.628 Y80.500 E12.98727
G1 X105.234 Y82.145 E13.07567
G1 X104.136 Y83.433 E13.16406
G1 X102.334 Y84.113 E13.26468
G1 X87.476 Y85.488 E14.04426
G1 X87.142 Y85.503 E14.06175
G1 X82.813 Y85.503 E14.28790
G1 X82.478 Y85.488 E14.30543
G1 X67.665 Y84.113 E15.08267
G1 X66.063 Y83.568 E15.17106
G1 X64.882 Y82.356 E15.25946
G1 X64.372 Y80.500 E15.36003
G1 X64.372 Y49.500 E16.97962
G1 X64.752 Y47.913 E17.06488
G1 X65.080 Y47.933 F1800.000
G1 X66.168 Y46.738 E17.14931 F2400.000
G1 X67.700 Y46.199 E17.23413
G1 X82.802 Y44.825 E18.02640
G1 X83.102 Y44.811 E18.04211
G1 X87.431 Y44.811 E18.26826
G1 X87.742 Y44.826 E18.28455
G1 X102.311 Y46.200 E19.04909
G1 X103.835 Y46.740 E19.13352
G1 X104.922 Y47.936 E19.21794
G1 X105.314 Y49.500 E19.30221
G1 X105.314 Y80.500 E20.92180
G1 X104.920 Y82.067 E21.00623
G1 X103.832 Y83.262 E21.09065
G1 X102.305 Y83.800 E21.17522
G1 X87.447 Y85.175 E21.95480
G1 X87.142 Y85.189 E21.97077
G1 X82.813 Y85.189 E22.19692
G1 X82.507 Y85.175 E22.21294
G1 X67.694 Y83.800 E22.99018
G1 X66.170 Y83.263 E23.07460
G1 X65.081 Y82.069 E23.15903
G1 X64.686 Y80.500 E23.24355
G1 X64.686 Y49.500 E24.86314
G1 X65.065 Y47.991 E24.94444
G1 E23.94444 F1200.00000
G92 E0
G1 X93.514 Y78.014 F1800.000
G1 E1.00000 F1200.00000
G1 X76.486 Y78.014 E1.88964 F1920.000
G1 X76.486 Y51.986 E3.24949
G1 X93.514 Y51.986 E4.13913
G1 X93.514 Y77.954 E5.49584
G1 X93.200 Y77.700 F1800.000
G1 X76.800 Y77.700 E6.35266 F1440.000
G1 X76.800 Y52.300 E7.67968
G1 X93.200 Y52.300 E8.53650
G1 X93.200 Y77.640 E9.86038
G1 X93.200 Y78.100 F1800.000
G1 E8.86038 F1200.00000
G92 E0
G1 X76.000 Y78.500 F1800.000
G1 X72.500 Y76.000 F1800.000
G1 X72.243 Y70.468 F1800.000
G1 X71.736 Y67.265 F1800.000
G1 X72.529 Y66.111 F1800.000
G1 E1.00000 F1200.00000
G1 X72.111 Y66.529 E1.03089 F720.000
G1 X71.584 Y66.797 E1.06178
G1 X71.000 Y66.890 E1.09267
G1 X70.416 Y66.797 E1.12356
G1 X69.889 Y66.529 E1.15445
G1 X69.471 Y66.111 E1.18534
G1 X69.203 Y65.584 E1.21623
G1 X69.110 Y65.000 E1.24712
G1 X69.203 Y64.416 E1.27801
G1 X69.471 Y63.889 E1.30890
G1 X69.889 Y63.471 E1.33979
G1 X70.416 Y63.203 E1.37068
G1 X70.965 Y63.116 E1.39972
G1 X71.579 Y63.200 E1.43211
G1 X72.111 Y63.471 E1.46328
G1 X72.529 Y63.889 E1.49417
G1 X72.797 Y64.416 E1.52506
G1 X72.890 Y65.000 E1.55595
G1 X72.797 Y65.584 E1.58684
G1 X72.556 Y66.057 E1.61459
G1 X72.272 Y65.924 F1800.000
G1 X71.924 Y66.272 E1.64028 F720.000
G1 X71.486 Y66.495 E1.66597
G1 X71.000 Y66.572 E1.69166
G1 X70.514 Y66.495 E1.71735
G1 X70.076 Y66.272 E1.74305
G1 X69.728 Y65.924 E1.76874
G1 X69.505 Y65.486 E1.79443
G1 X69.428 Y65.000 E1.82012
G1 X69.505 Y64.514 E1.84581
G1 X69.728 Y64.076 E1.87150
G1 X70.076 Y63.728 E1.89719
G1 X70.514 Y63.505 E1.92288
G1 X70.968 Y63.433 E1.94690
G1 X71.484 Y63.504 E1.97408
G1 X71.924 Y63.728 E1.99988
G1 X72.272 Y64.076 E2.02557
G1 X72.495 Y64.514 E2.05126
G1 X72.572 Y65.000 E2.07695
G1 X72.495 Y65.486 E2.10264
G1 X72.299 Y65.870 E2.12520
G1 X72.415 Y66.297 F1800.000
G1 E1.12520 F1200.00000
G92 E0
G1 X73.382 Y65.000 F1800.000
G1 X76.000 Y51.000 F1800.000
G1 X94.000 Y51.000 F1800.000
G1 X96.109 Y61.582 F1800.000
G1 X95.446 Y63.607 F1800.000
G1 X95.317 Y64.794 F1800.000
G1 X96.618 Y65.000 F1800.000
G1 X97.110 Y65.000 F1800.000
G1 E1.00000 F1200.00000
G1 X97.203 Y64.416 E1.03089 F720.000
G1 X97.471 Y63.889 E1.06178
G1 X97.889 Y63.471 E1.09267
G1 X98.416 Y63.203 E1.12356
G1 X98.965 Y63.116 E1.15260
G1 X99.579 Y63.200 E1.18499
G1 X100.111 Y63.471 E1.21616
G1 X100.529 Y63.889 E1.24705
G1 X100.797 Y64.416 E1.27794
G1 X100.890 Y65.000 E1.30883
G1 X100.797 Y65.584 E1.33972
G1 X100.529 Y66.111 E1.37061
G1 X100.111 Y66.529 E1.40150
G1 X99.584 Y66.797 E1.43239
G1 X99.000 Y66.890 E1.46328
G1 X98.416 Y66.797 E1.49417
G1 X97.889 Y66.529 E1.52506
G1 X97.471 Y66.111 E1.55595
G1 X97.203 Y65.584 E1.58684
G1 X97.120 Y65.059 E1.61459
G1 X97.428 Y65.000 F1800.000
G1 X97.505 Y64.514 E1.64028 F720.000
G1 X97.728 Y64.076 E1.66597
G1 X98.076 Y63.728 E1.69166
G1 X98.514 Y63.505 E1.71736
G1 X98.968 Y63.433 E1.74137
G1 X99.484 Y63.504 E1.76856
G1 X99.924 Y63.728 E1.79436
G1 X100.272 Y64.076 E1.82005
G1 X100.495 Y64.514 E1.84574
G1 X100.572 Y65.000 E1.87143
G1 X100.495 Y65.486 E1.89712
G1 X100.272 Y65.924 E1.92281
G1 X99.924 Y66.272 E1.94850
G1 X99.486 Y66.495 E1.97419
G1 X99.000 Y66.572 E1.99988
G1 X98.514 Y66.495 E2.02557
G1 X98.076 Y66.272 E2.05126
G1 X97.728 Y65.924 E2.07695
G1 X97.505 Y65.486 E2.10264
G1 X97.438 Y65.059 E2.12520
G1 X97.093 Y64.782 F1800.000
G1 E1.12520 F1200.00000
G92 E0
G1 X101.486 Y79.986 F1800.000
G1 E1.00000 F1200.00000
G1 X68.514 Y79.986 E2.72260 F1920.000
G1 X68.514 Y50.014 E4.28847
G1 X101.486 Y50.014 E6.01107
G1 X101.486 Y79.926 E7.57380
G1 X101.800 Y80.300 F1800.000
G1 X68.200 Y80.300 E9.32923 F1440.000
G1 X68.200 Y49.700 E10.92793
G1 X101.800 Y49.700 E12.68336
G1 X101.800 Y80.240 E14.27892
G1 X101.454 Y80.100 F1800.000
G1 X101.502 Y79.907 F1800.000
G1 X68.498 Y79.907 E16.01973 F1920.000
G1 X68.498 Y79.590 E16.03646
G1 X101.502 Y79.590 E17.77727
G1 X101.502 Y79.273 E17.79400
G1 X68.498 Y79.273 E19.53480
G1 X68.498 Y78.956 E19.55154
G1 X101.502 Y78.956 E21.29234
G1 X101.502 Y78.639 E21.30907
G1 X68.498 Y78.639 E23.04988
G1 E22.04988 F1200.00000
G92 E0
G1 X72.033 Y66.586 F1800.000
G1 E1.00000 F1200.00000
G1 X76.522 Y66.586 E1.23673 F1920.000
G1 X76.522 Y66.269 E1.25346
G1 X72.359 Y66.269 E1.47300
G1 X72.581 Y65.952 E1.49342
G1 X76.522 Y65.952 E1.70125
G1 X76.522 Y65.634 E1.71798
G1 X72.743 Y65.634 E1.91729
G1 X72.805 Y65.317 E1.93433
G1 X76.522 Y65.317 E2.13039
G1 X76.522 Y65.000 E2.14712
G1 X72.855 Y65.000 E2.34054
G1 X72.805 Y64.683 E2.35747
G1 X76.522 Y64.683 E2.55354
G1 X76.522 Y64.366 E2.57027
G1 X72.743 Y64.366 E2.76957
G1 X72.581 Y64.048 E2.78835
G1 X76.522 Y64.048 E2.99618
G1 X76.522 Y63.731 E3.01291
G1 X72.359 Y63.731 E3.23245
G1 X72.034 Y63.414 E3.25643
G1 X76.522 Y63.414 E3.49316
G1 X76.522 Y63.097 E3.50989
G1 X68.498 Y63.097 E3.93309
G1 X68.498 Y63.414 E3.94982
G1 X69.966 Y63.414 E4.02725
G1 X69.641 Y63.731 E4.05124
G1 X68.498 Y63.731 E4.11149
G1 X68.498 Y64.048 E4.12822
G1 X69.419 Y64.048 E4.17675
G1 X68.498 Y62.780 F1800.000
G1 X76.522 Y62.780 E4.59994 F1920.000
G1 X76.522 Y62.463 E4.61667
G1 X68.498 Y62.463 E5.03987
G1 X68.498 Y62.145 E5.05660
G1 X76.522 Y62.145 E5.47979
G1 X76.522 Y61.828 E5.49652
G1 X68.498 Y61.828 E5.91972
G1 X68.498 Y61.511 E5.93645
G1 X76.522 Y61.511 E6.35964
G1 X76.522 Y61.194 E6.37637
G1 X68.498 Y61.194 E6.79957
G1 X68.498 Y60.877 E6.81630
G1 X76.522 Y60.877 E7.23949
G1 X76.522 Y60.560 E7.25622
G1 X68.498 Y60.560 E7.67942
G1 X68.498 Y60.242 E7.69615
G1 X76.522 Y60.242 E8.11934
G1 X76.522 Y59.925 E8.13607
G1 X68.498 Y59.925 E8.55927
G1 X68.498 Y59.608 E8.57600
G1 X76.522 Y59.608 E8.99919
G1 X76.522 Y59.291 E9.01592
G1 X68.498 Y59.291 E9.43912
G1 X68.498 Y58.974 E9.45585
G1 X76.522 Y58.974 E9.87904
G1 X76.522 Y58.656 E9.89577
G1 X68.498 Y58.656 E10.31897
G1 X68.498 Y58.339 E10.33570
G1 X76.522 Y58.339 E10.75889
G1 X76.522 Y58.022 E10.77562
G1 X68.498 Y58.022 E11.19882
G1 X68.498 Y57.705 E11.21555
G1 X76.522 Y57.705 E11.63874
G1 X76.522 Y57.388 E11.65547
G1 X68.498 Y57.388 E12.07867
G1 X68.498 Y57.071 E12.09540
G1 X76.522 Y57.071 E12.51859
G1 X76.522 Y56.753 E12.53532
G1 X68.498 Y56.753 E12.95852
G1 X68.498 Y56.436 E12.97525
G1 X76.522 Y56.436 E13.39844
G1 X76.522 Y56.119 E13.41517
G1 X68.498 Y56.119 E13.83837
G1 X68.498 Y55.802 E13.85510
G1 X76.522 Y55.802 E14.27829
G1 X76.522 Y55.485 E14.29502
G1 X68.498 Y55.485 E14.71822
G1 X68.498 Y55.168 E14.73495
G1 X76.522 Y55.168 E15.15814
G1 X76.522 Y54.850 E15.17487
G1 X68.498 Y54.850 E15.59807
G1 X68.498 Y54.533 E15.61480
G1 X76.522 Y54.533 E16.03799
G1 X76.522 Y54.216 E16.05472
G1 X68.498 Y54.216 E16.47791
G1 X68.498 Y53.899 E16.49465
G1 X76.522 Y53.899 E16.91784
G1 X76.522 Y53.582 E16.93457
G1 X68.498 Y53.582 E17.35776
G1 X68.498 Y53.264 E17.37449
G1 X76.522 Y53.264 E17.79769
G1 X76.522 Y52.947 E17.81442
G1 X68.498 Y52.947 E18.23761
G1 X68.498 Y52.630 E18.25434
G1 X76.522 Y52.630 E18.67754
G1 X76.522 Y52.313 E18.69427
G1 X68.498 Y52.313 E19.11746
G1 X68.498 Y51.996 E19.13419
G1 X76.522 Y51.996 E19.55739
G1 E18.55739 F1200.00000
G92 E0
G1 X76.000 Y51.500 F1800.000
G1 X72.500 Y54.000 F1800.000
G1 X72.243 Y59.532 F1800.000
G1 X71.736 Y62.735 F1800.000
G1 X69.419 Y65.952 F1800.000
G1 E1.00000 F1200.00000
G1 X68.498 Y65.952 E1.04853 F1920.000
G1 X68.498 Y66.269 E1.06526
G1 X69.641 Y66.269 E1.12551
G1 X69.967 Y66.586 E1.14950
G1 X68.498 Y66.586 E1.22694
G1 X68.498 Y66.903 E1.24367
G1 X76.522 Y66.903 E1.66686
G1 X76.522 Y67.220 E1.68359
G1 X68.498 Y67.220 E2.10679
G1 X68.498 Y67.537 E2.12352
G1 X76.522 Y67.537 E2.54671
G1 X76.522 Y67.855 E2.56344
G1 X68.498 Y67.855 E2.98664
G1 X68.498 Y68.172 E3.00337
G1 X76.522 Y68.172 E3.42656
G1 X76.522 Y68.489 E3.44329
G1 X68.498 Y68.489 E3.86649
G1 X68.498 Y68.806 E3.88322
G1 X76.522 Y68.806 E4.30641
G1 X76.522 Y69.123 E4.32314
G1 X68.498 Y69.123 E4.74634
G1 X68.498 Y69.440 E4.76307
G1 X76.522 Y69.440 E5.18626
G1 X76.522 Y69.758 E5.20299
G1 X68.498 Y69.758 E5.62619
G1 X68.498 Y70.075 E5.64292
G1 X76.522 Y70.075 E6.06611
G1 X76.522 Y70.392 E6.08284
G1 X68.498 Y70.392 E6.50604
G1 X68.498 Y70.709 E6.52277
G1 X76.522 Y70.709 E6.94596
G1 X76.522 Y71.026 E6.96269
G1 X68.498 Y71.026 E7.38588
G1 X68.498 Y71.344 E7.40261
G1 X76.522 Y71.344 E7.82581
G1 X76.522 Y71.661 E7.84254
G1 X68.498 Y71.661 E8.26573
G1 X68.498 Y71.978 E8.28246
G1 X76.522 Y71.978 E8.70566
G1 X76.522 Y72.295 E8.72239
G1 X68.498 Y72.295 E9.14558
G1 X68.498 Y72.612 E9.16231
G1 X76.522 Y72.612 E9.58551
G1 X76.522 Y72.929 E9.60224
G1 X68.498 Y72.929 E10.02543
G1 X68.498 Y73.247 E10.04216
G1 X76.522 Y73.247 E10.46536
G1 X76.522 Y73.564 E10.48209
G1 X68.498 Y73.564 E10.90528
G1 X68.498 Y73.881 E10.92201
G1 X76.522 Y73.881 E11.34521
G1 X76.522 Y74.198 E11.36194
G1 X68.498 Y74.198 E11.78513
G1 X68.498 Y74.515 E11.80186
G1 X76.522 Y74.515 E12.22506
G1 X76.522 Y74.833 E12.24179
G1 X68.498 Y74.833 E12.66498
G1 X68.498 Y75.150 E12.68171
G1 X76.522 Y75.150 E13.10491
G1 X76.522 Y75.467 E13.12164
G1 X68.498 Y75.467 E13.54483
G1 X68.498 Y75.784 E13.56156
G1 X76.522 Y75.784 E13.98476
G1 X76.522 Y76.101 E14.00149
G1 X68.498 Y76.101 E14.42468
G1 X68.498 Y76.418 E14.44141
G1 X76.522 Y76.418 E14.86461
G1 X76.522 Y76.736 E14.88134
G1 X68.498 Y76.736 E15.30453
G1 X68.498 Y77.053 E15.32126
G1 X76.522 Y77.053 E15.74446
G1 X76.522 Y77.370 E15.76119
G1 X68.498 Y77.370 E16.18438
G1 X68.498 Y77.687 E16.20111
G1 X76.522 Y77.687 E16.62431
G1 X76.522 Y78.004 E16.64104
G1 X68.498 Y78.004 E17.06423
G1 X68.498 Y78.321 E17.08096
G1 X101.502 Y78.321 E18.82177
G1 E17.82177 F1200.00000
G92 E0
G1 X93.478 Y78.004 F1800.000
G1 E1.00000 F1200.00000
G1 X101.502 Y78.004 E1.42319 F1920.000
G1 X101.502 Y77.687 E1.43992
G1 X93.478 Y77.687 E1.86312
G1 X93.478 Y77.370 E1.87985
G1 X101.502 Y77.370 E2.30304
G1 X101.502 Y77.053 E2.31977
G1 X93.478 Y77.053 E2.74297
G1 X93.478 Y76.736 E2.75970
G1 X101.502 Y76.736 E3.18289
G1 X101.502 Y76.418 E3.19962
G1 X93.478 Y76.418 E3.62282
G1 X93.478 Y76.101 E3.63955
G1 X101.502 Y76.101 E4.06274
G1 X101.502 Y75.784 E4.07947
G1 X93.478 Y75.784 E4.50267
G1 X93.478 Y75.467 E4.51940
G1 X101.502 Y75.467 E4.94259
G1 X101.502 Y75.150 E4.95932
G1 X93.478 Y75.150 E5.38252
G1 X93.478 Y74.833 E5.39925
G1 X101.502 Y74.833 E5.82244
G1 X101.502 Y74.515 E5.83917
G1 X93.478 Y74.515 E6.26237
G1 X93.478 Y74.198 E6.27910
G1 X101.502 Y74.198 E6.70229
G1 X101.502 Y73.881 E6.71902
G1 X93.478 Y73.881 E7.14222
G1 X93.478 Y73.564 E7.15895
G1 X101.502 Y73.564 E7.58214
G1 X101.502 Y73.247 E7.59887
G1 X93.478 Y73.247 E8.02207
G1 X93.478 Y72.929 E8.03880
G1 X101.502 Y72.929 E8.46199
G1 X101.502 Y72.612 E8.47872
G1 X93.478 Y72.612 E8.90192
G1 X93.478 Y72.295 E8.91865
G1 X101.502 Y72.295 E9.34184
G1 X101.502 Y71.978 E9.35857
G1 X93.478 Y71.978 E9.78177
G1 X93.478 Y71.661 E9.79850
G1 X101.502 Y71.661 E10.22169
G1 X101.502 Y71.344 E10.23842
G1 X93.478 Y71.344 E10.66162
G1 X93.478 Y71.026 E10.67835
G1 X101.502 Y71.026 E11.10154
G1 X101.502 Y70.709 E11.11827
G1 X93.478 Y70.709 E11.54147
G1 X93.478 Y70.392 E11.55820
G1 X101.502 Y70.392 E11.98139
G1 X101.502 Y70.075 E11.99812
G1 X93.478 Y70.075 E12.42132
G1 X93.478 Y69.758 E12.43805
G1 X101.502 Y69.758 E12.86124
G1 X101.502 Y69.440 E12.87797
G1 X93.478 Y69.440 E13.30116
G1 X93.478 Y69.123 E13.31790
G1 X101.502 Y69.123 E13.74109
G1 X101.502 Y68.806 E13.75782
G1 X93.478 Y68.806 E14.18101
G1 X93.478 Y68.489 E14.19774
G1 X101.502 Y68.489 E14.62094
G1 X101.502 Y68.172 E14.63767
G1 X93.478 Y68.172 E15.06086
G1 X93.478 Y67.855 E15.07759
G1 X101.502 Y67.855 E15.50079
G1 X101.502 Y67.537 E15.51752
G1 X93.478 Y67.537 E15.94071
G1 X93.478 Y67.220 E15.95744
G1 X101.502 Y67.220 E16.38064
G1 X100.581 Y65.952 F1800.000
G1 X101.502 Y65.952 E16.42917 F1920.000
G1 X101.502 Y66.269 E16.44590
G1 X100.359 Y66.269 E16.50615
G1 X100.033 Y66.586 E16.53014
G1 X101.502 Y66.586 E16.60758
G1 X101.502 Y66.903 E16.62431
G1 X93.478 Y66.903 E17.04750
G1 X93.478 Y66.586 E17.06423
G1 X97.967 Y66.586 E17.30096
G1 X97.641 Y66.269 E17.32495
G1 X93.478 Y66.269 E17.54449
G1 X93.478 Y65.952 E17.56122
G1 X97.419 Y65.952 E17.76905
G1 X97.257 Y65.634 E17.78783
G1 X93.478 Y65.634 E17.98714
G1 X93.478 Y65.317 E18.00387
G1 X97.195 Y65.317 E18.19993
G1 X97.145 Y65.000 E18.21687
G1 X93.478 Y65.000 E18.41028
G1 X93.478 Y64.683 E18.42701
G1 X97.195 Y64.683 E18.62307
G1 X97.257 Y64.366 E18.64011
G1 X93.478 Y64.366 E18.83942
G1 X93.478 Y64.048 E18.85615
G1 X97.419 Y64.048 E19.06398
G1 X97.641 Y63.731 E19.08440
G1 X93.478 Y63.731 E19.30393
G1 X93.478 Y63.414 E19.32066
G1 X97.966 Y63.414 E19.55739
G1 E18.55739 F1200.00000
G92 E0
G1 X99.736 Y62.735 F1800.000
G1 X100.131 Y61.960 F1800.000
G1 X100.587 Y62.705 F1800.000
G1 X100.400 Y63.073 F1800.000
G1 X100.581 Y64.048 F1800.000
G1 E1.00000 F1200.00000
G1 X101.502 Y64.048 E1.04853 F1920.000
G1 X101.502 Y63.731 E1.06526
G1 X100.359 Y63.731 E1.12551
G1 X100.034 Y63.414 E1.14950
G1 X101.502 Y63.414 E1.22693
G1 X101.502 Y63.097 E1.24366
G1 X93.478 Y63.097 E1.66686
G1 X93.478 Y62.780 E1.68359
G1 X101.502 Y62.780 E2.10678
G1 X101.502 Y62.463 E2.12351
G1 X93.478 Y62.463 E2.54671
G1 X93.478 Y62.145 E2.56344
G1 X101.502 Y62.145 E2.98663
G1 X101.502 Y61.828 E3.00336
G1 X93.478 Y61.828 E3.42656
G1 X93.478 Y61.511 E3.44329
G1 X101.502 Y61.511 E3.86648
G1 X101.502 Y61.194 E3.88321
G1 X93.478 Y61.194 E4.30641
G1 X93.478 Y60.877 E4.32314
G1 X101.502 Y60.877 E4.74633
G1 X101.502 Y60.560 E4.76306
G1 X93.478 Y60.560 E5.18625
G1 X93.478 Y60.242 E5.20298
