; generated by Slic3r 1.2.9 on 2018-10-17 at 13:10:04

; external perimeters extrusion width = 0.40mm
; perimeters extrusion width = 0.40mm
; infill extrusion width = 0.40mm
; solid infill extrusion width = 0.40mm
; top infill extrusion width = 0.40mm
; support material extrusion width = 0.40mm

M107
M190 S110
M104 S230
M109 S230
G28 ; home all axes
G21 ; set units to millimeters
G90 ; use absolute coordinates
M82 ; use absolute distances for extrusion
G92 E0
G1 Z0.150 F1800.000
G1 E-1.00000 F1200.00000
G92 E0
G1 X49.452 Y22.780 F1800.000
G1 E1.00000 F1200.00000
G1 X50.558 Y21.405 E1.09219 F2400.000
G1 X53.000 Y20.558 E1.22723
G1 X117.000 Y20.558 E4.57091
G1 X118.720 Y20.952 E4.66310
G1 X120.095 Y22.058 E4.75529
G1 X120.942 Y24.500 E4.89033
G1 X120.942 Y105.500 E9.12217
G1 X120.548 Y107.220 E9.21436
G1 X119.442 Y108.595 E9.30656
G1 X117.000 Y109.442 E9.44159
G1 X53.000 Y109.442 E12.78527
G1 X51.280 Y109.048 E12.87746
G1 X49.905 Y107.942 E12.96965
G1 X49.058 Y105.500 E13.10469
G1 X49.058 Y24.500 E17.33653
G1 X49.439 Y22.839 E17.42559
G1 X49.766 Y22.855 F1800.000
G1 X50.864 Y21.567 E17.51398 F2400.000
G1 X53.000 Y20.872 E17.63135
G1 X117.000 Y20.872 E20.97503
G1 X118.645 Y21.266 E21.06342
G1 X119.933 Y22.364 E21.15182
G1 X120.628 Y24.500 E21.26919
G1 X120.628 Y105.500 E25.50102
G1 X120.234 Y107.145 E25.58942
G1 X119.136 Y108.433 E25.67781
G1 X117.000 Y109.128 E25.79518
G1 X53.000 Y109.128 E29.13885
G1 X51.355 Y108.734 E29.22725
G1 X50.067 Y107.636 E29.31565
G1 X49.372 Y105.500 E29.43301
G1 X49.372 Y24.500 E33.66485
G1 X49.752 Y22.913 E33.75011
G1 X50.080 Y22.933 F1800.000
G1 X51.168 Y21.738 E33.83454 F2400.000
G1 X53.000 Y21.186 E33.93450
G1 X117.000 Y21.186 E37.27818
G1 X118.567 Y21.580 E37.36260
G1 X119.762 Y22.668 E37.44703
G1 X120.314 Y24.500 E37.54700
G1 X120.314 Y105.500 E41.77883
G1 X119.920 Y107.067 E41.86326
G1 X118.832 Y108.262 E41.94768
G1 X117.000 Y108.814 E42.04765
G1 X53.000 Y108.814 E45.39132
G1 X51.433 Y108.420 E45.47575
G1 X50.238 Y107.332 E45.56018
G1 X49.686 Y105.500 E45.66014
G1 X49.686 Y24.500 E49.89198
G1 X50.065 Y22.991 E49.97327
G1 E48.97327 F1200.00000
G92 E0
G1 X101.090 Y100.684 F1800.000
G1 E1.00000 F1200.00000
G1 X102.045 Y101.377 E1.06167 F720.000
G1 X102.410 Y102.500 E1.12333
G1 X102.045 Y103.623 E1.18500
G1 X101.090 Y104.316 E1.24666
G1 X99.910 Y104.316 E1.30833
G1 X98.955 Y103.623 E1.36999
G1 X98.590 Y102.500 E1.43166
G1 X98.955 Y101.377 E1.49333
G1 X99.910 Y100.684 E1.55499
G1 X101.030 Y100.684 E1.61352
G1 X100.988 Y100.998 F1800.000
G1 X101.778 Y101.572 E1.66452 F720.000
G1 X102.079 Y102.500 E1.71552
G1 X101.778 Y103.428 E1.76652
G1 X100.988 Y104.002 E1.81752
G1 X100.012 Y104.002 E1.86852
G1 X99.222 Y103.428 E1.91952
G1 X98.921 Y102.500 E1.97052
G1 X99.222 Y101.572 E2.02152
G1 X100.012 Y100.998 E2.07252
G1 X100.928 Y100.998 E2.12039
G1 X101.312 Y100.763 F1800.000
G1 E1.12039 F1200.00000
G92 E0
G1 X101.090 Y76.316 F1800.000
G1 E1.00000 F1200.00000
G1 X99.910 Y76.316 E1.06167 F720.000
G1 X98.955 Y75.623 E1.12333
G1 X98.590 Y74.500 E1.18500
G1 X98.955 Y73.377 E1.24666
G1 X99.910 Y72.684 E1.30833
G1 X101.090 Y72.684 E1.36999
G1 X102.045 Y73.377 E1.43166
G1 X102.410 Y74.500 E1.49333
G1 X102.045 Y75.623 E1.55499
G1 X101.139 Y76.281 E1.61352
G1 X100.988 Y76.002 F1800.000
G1 X100.012 Y76.002 E1.66452 F720.000
G1 X99.222 Y75.428 E1.71552
G1 X98.921 Y74.500 E1.76652
G1 X99.222 Y73.572 E1.81752
G1 X100.012 Y72.998 E1.86852
G1 X100.988 Y72.998 E1.91952
G1 X101.778 Y73.572 E1.97052
G1 X102.079 Y74.500 E2.02152
G1 X101.778 Y75.428 E2.07252
G1 X101.037 Y75.967 E2.12039
G1 X100.864 Y76.383 F1800.000
G1 E1.12039 F1200.00000
G92 E0
G1 X102.458 Y73.077 F1800.000
G1 X104.771 Y69.894 F1800.000
G1 X104.552 Y69.735 F1800.000
G1 X106.865 Y66.551 F1800.000
G1 X107.278 Y66.251 F1800.000
G1 E1.00000 F1200.00000
G1 X106.872 Y65.000 E1.06871 F720.000
G1 X107.278 Y63.749 E1.13743
G1 X108.342 Y62.976 E1.20614
G1 X109.658 Y62.976 E1.27486
G1 X110.722 Y63.749 E1.34357
G1 X111.128 Y65.000 E1.41229
G1 X110.722 Y66.251 E1.48100
G1 X109.658 Y67.024 E1.54971
G1 X108.342 Y67.024 E1.61843
G1 X107.327 Y66.286 E1.68401
G1 X107.546 Y66.057 F1800.000
G1 X107.202 Y65.000 E1.74206 F720.000
G1 X107.546 Y63.943 E1.80011
G1 X108.444 Y63.290 E1.85815
G1 X109.556 Y63.290 E1.91620
G1 X110.454 Y63.943 E1.97425
G1 X110.798 Y65.000 E2.03230
G1 X110.454 Y66.057 E2.09035
G1 X109.556 Y66.710 E2.14839
G1 X108.444 Y66.710 E2.20645
G1 X107.594 Y66.092 E2.26136
G1 X107.146 Y66.057 F1800.000
G1 E1.26136 F1200.00000
G92 E0
G1 X101.090 Y57.316 F1800.000
G1 E1.00000 F1200.00000
G1 X99.910 Y57.316 E1.06167 F720.000
G1 X98.955 Y56.623 E1.12333
G1 X98.590 Y55.500 E1.18500
G1 X98.955 Y54.377 E1.24666
G1 X99.910 Y53.684 E1.30833
G1 X101.090 Y53.684 E1.36999
G1 X102.045 Y54.377 E1.43166
G1 X102.410 Y55.500 E1.49333
G1 X102.045 Y56.623 E1.55499
G1 X101.139 Y57.281 E1.61352
G1 X100.988 Y57.002 F1800.000
G1 X100.012 Y57.002 E1.66452 F720.000
G1 X99.294 Y56.481 E1.71087
G1 X99.222 Y56.428 E1.71552
G1 X98.921 Y55.500 E1.76652
G1 X99.222 Y54.572 E1.81752
G1 X100.012 Y53.998 E1.86852
G1 X100.988 Y53.998 E1.91952
G1 X101.778 Y54.572 E1.97052
G1 X102.079 Y55.500 E2.02152
G1 X101.778 Y56.428 E2.07252
G1 X101.037 Y56.967 E2.12039
G1 X100.864 Y57.383 F1800.000
G1 E1.12039 F1200.00000
G92 E0
G1 X101.248 Y53.198 F1800.000
G1 X101.248 Y41.500 F1800.000
G1 X101.248 Y41.500 F1800.000
G1 X101.248 Y29.802 F1800.000
G1 X101.090 Y29.316 F1800.000
G1 E1.00000 F1200.00000
G1 X99.910 Y29.316 E1.06167 F720.000
G1 X98.955 Y28.623 E1.12333
G1 X98.590 Y27.500 E1.18500
G1 X98.955 Y26.377 E1.24666
G1 X99.910 Y25.684 E1.30833
G1 X101.090 Y25.684 E1.36999
G1 X102.045 Y26.377 E1.43166
G1 X102.410 Y27.500 E1.49333
G1 X102.045 Y28.623 E1.55499
G1 X101.139 Y29.281 E1.61352
G1 X100.988 Y29.002 F1800.000
G1 X100.012 Y29.002 E1.66452 F720.000
G1 X99.222 Y28.428 E1.71552
G1 X98.921 Y27.500 E1.76652
G1 X99.222 Y26.572 E1.81752
G1 X100.012 Y25.998 E1.86852
G1 X100.988 Y25.998 E1.91952
G1 X101.778 Y26.572 E1.97052
G1 X102.079 Y27.500 E2.02152
G1 X101.778 Y28.428 E2.07252
G1 X101.037 Y28.967 E2.12039
G1 X100.864 Y29.383 F1800.000
G1 E1.12039 F1200.00000
G92 E0
G1 X71.410 Y27.500 F1800.000
G1 E1.00000 F1200.00000
G1 X71.045 Y28.623 E1.06167 F720.000
G1 X70.090 Y29.316 E1.12333
G1 X68.910 Y29.316 E1.18500
G1 X67.955 Y28.623 E1.24666
G1 X67.590 Y27.500 E1.30833
G1 X67.955 Y26.377 E1.36999
G1 X68.910 Y25.684 E1.43166
G1 X70.090 Y25.684 E1.49333
G1 X71.045 Y26.377 E1.55499
G1 X71.391 Y27.443 E1.61352
G1 X71.079 Y27.500 F1800.000
G1 X70.778 Y28.428 E1.66452 F720.000
G1 X69.988 Y29.002 E1.71552
G1 X69.012 Y29.002 E1.76652
G1 X68.222 Y28.428 E1.81752
G1 X67.921 Y27.500 E1.86852
G1 X68.222 Y26.572 E1.91952
G1 X69.012 Y25.998 E1.97052
G1 X69.988 Y25.998 E2.02152
G1 X70.778 Y26.572 E2.07252
G1 X71.061 Y27.443 E2.12039
G1 X71.403 Y27.735 F1800.000
G1 E1.12039 F1200.00000
G92 E0
G1 X70.090 Y53.684 F1800.000
G1 E1.00000 F1200.00000
G1 X71.045 Y54.377 E1.06167 F720.000
G1 X71.410 Y55.500 E1.12333
G1 X71.045 Y56.623 E1.18500
G1 X70.090 Y57.316 E1.24666
G1 X68.910 Y57.316 E1.30833
G1 X67.955 Y56.623 E1.37000
G1 X67.590 Y55.500 E1.43166
G1 X67.955 Y54.377 E1.49333
G1 X68.910 Y53.684 E1.55499
G1 X70.030 Y53.684 E1.61352
G1 X69.988 Y53.998 F1800.000
G1 X70.778 Y54.572 E1.66452 F720.000
G1 X71.079 Y55.500 E1.71552
G1 X70.778 Y56.428 E1.76652
G1 X69.988 Y57.002 E1.81752
G1 X69.012 Y57.002 E1.86852
G1 X68.222 Y56.428 E1.91952
G1 X67.921 Y55.500 E1.97052
G1 X68.222 Y54.572 E2.02152
G1 X69.012 Y53.998 E2.07252
G1 X69.928 Y53.998 E2.12039
G1 X70.312 Y53.763 F1800.000
G1 E1.12039 F1200.00000
G92 E0
G1 X67.542 Y56.923 F1800.000
G1 X65.229 Y60.106 F1800.000
G1 X65.448 Y60.266 F1800.000
G1 X63.135 Y63.449 F1800.000
G1 X62.722 Y63.749 F1800.000
G1 E1.00000 F1200.00000
G1 X63.128 Y65.000 E1.06871 F720.000
G1 X62.722 Y66.251 E1.13743
G1 X61.658 Y67.024 E1.20614
G1 X60.342 Y67.024 E1.27486
G1 X59.278 Y66.251 E1.34357
G1 X58.872 Y65.000 E1.41229
G1 X59.278 Y63.749 E1.48100
G1 X60.342 Y62.976 E1.54971
G1 X61.658 Y62.976 E1.61843
G1 X62.673 Y63.714 E1.68401
G1 X62.454 Y63.943 F1800.000
G1 X62.798 Y65.000 E1.74206 F720.000
G1 X62.454 Y66.057 E1.80011
G1 X61.556 Y66.710 E1.85815
G1 X60.444 Y66.710 E1.91620
G1 X59.546 Y66.057 E1.97425
G1 X59.202 Y65.000 E2.03230
G1 X59.546 Y63.943 E2.09035
G1 X60.444 Y63.290 E2.14839
G1 X61.556 Y63.290 E2.20645
G1 X62.406 Y63.908 E2.26136
G1 X62.854 Y63.943 F1800.000
G1 E1.26136 F1200.00000
G92 E0
G1 X68.910 Y72.684 F1800.000
G1 E1.00000 F1200.00000
G1 X70.090 Y72.684 E1.06167 F720.000
G1 X71.045 Y73.377 E1.12333
G1 X71.410 Y74.500 E1.18500
G1 X71.045 Y75.623 E1.24666
G1 X70.090 Y76.316 E1.30833
G1 X68.910 Y76.316 E1.36999
G1 X67.955 Y75.623 E1.43166
G1 X67.590 Y74.500 E1.49333
G1 X67.955 Y73.377 E1.55499
G1 X68.861 Y72.719 E1.61352
G1 X69.012 Y72.998 F1800.000
G1 X69.988 Y72.998 E1.66452 F720.000
G1 X70.706 Y73.519 E1.71087
G1 X70.778 Y73.572 E1.71552
G1 X71.079 Y74.500 E1.76652
G1 X70.778 Y75.428 E1.81752
G1 X69.988 Y76.002 E1.86852
G1 X69.012 Y76.002 E1.91952
G1 X68.222 Y75.428 E1.97052
G1 X67.921 Y74.500 E2.02152
G1 X68.222 Y73.572 E2.07252
G1 X68.963 Y73.033 E2.12039
G1 X69.136 Y72.617 F1800.000
G1 E1.12039 F1200.00000
G92 E0
G1 X68.752 Y76.802 F1800.000
G1 X68.752 Y88.500 F1800.000
G1 X68.752 Y88.500 F1800.000
G1 X68.752 Y100.198 F1800.000
G1 X68.910 Y100.684 F1800.000
G1 E1.00000 F1200.00000
G1 X70.090 Y100.684 E1.06167 F720.000
G1 X71.045 Y101.377 E1.12333
G1 X71.410 Y102.500 E1.18500
G1 X71.045 Y103.623 E1.24666
G1 X70.090 Y104.316 E1.30833
G1 X68.910 Y104.316 E1.36999
G1 X67.955 Y103.623 E1.43166
G1 X67.590 Y102.500 E1.49333
G1 X67.955 Y101.377 E1.55499
G1 X68.861 Y100.719 E1.61352
G1 X69.012 Y100.998 F1800.000
G1 X69.988 Y100.998 E1.66452 F720.000
G1 X70.778 Y101.572 E1.71552
G1 X71.079 Y102.500 E1.76652
G1 X70.778 Y103.428 E1.81752
G1 X69.988 Y104.002 E1.86852
G1 X69.012 Y104.002 E1.91952
G1 X68.222 Y103.428 E1.97052
G1 X67.921 Y102.500 E2.02152
G1 X68.222 Y101.572 E2.07252
G1 X68.963 Y101.033 E2.12039
G1 X69.136 Y100.617 F1800.000
G1 E1.12039 F1200.00000
G92 E0
G1 X53.514 Y104.986 F1800.000
G1 E1.00000 F1200.00000
G1 X53.514 Y25.014 E5.17811 F1920.000
G1 X116.486 Y25.014 E8.46807
G1 X116.486 Y104.986 E12.64618
G1 X53.574 Y104.986 E15.93300
G1 X53.200 Y105.300 F1800.000
G1 X53.200 Y24.700 E20.14394 F1440.000
G1 X116.800 Y24.700 E23.46672
G1 X116.800 Y105.300 E27.67766
G1 X53.260 Y105.300 E30.99730
G1 X53.400 Y104.954 F1800.000
G1 E29.99730 F1200.00000
G92 E0
G1 X68.815 Y104.651 F1800.000
G1 E1.00000 F1200.00000
G1 X70.185 Y104.651 E1.16277 F192.000
G1 X68.851 Y104.907 F1800.000
G1 X53.498 Y104.907 E1.96505 F1920.000
G1 X53.498 Y104.593 E1.98147
G1 X68.853 Y104.593 E2.78387
G1 X68.853 Y104.279 E2.80029
G1 X53.498 Y104.279 E3.60267
G1 X53.498 Y103.965 E3.61909
G1 X68.421 Y103.965 E4.39888
G1 X67.997 Y103.650 E4.42645
G1 X53.498 Y103.650 E5.18409
G1 X53.498 Y103.336 E5.20051
G1 X67.895 Y103.336 E5.95281
G1 X67.793 Y103.022 E5.97008
G1 X53.498 Y103.022 E6.71704
G1 X53.498 Y102.708 E6.73346
G1 X67.690 Y102.708 E7.47509
G1 X67.657 Y102.394 E7.49161
G1 X53.498 Y102.394 E8.23152
G1 X53.498 Y102.079 E8.24794
G1 X67.760 Y102.079 E8.99318
G1 X67.862 Y101.765 E9.01045
G1 X53.498 Y101.765 E9.76103
G1 X53.498 Y101.451 E9.77745
G1 X67.964 Y101.451 E10.53337
G1 X68.281 Y101.137 E10.55670
G1 X53.498 Y101.137 E11.32920
G1 X53.498 Y100.822 E11.34562
G1 X68.714 Y100.822 E12.14071
G1 E11.14071 F1200.00000
G92 E0
G1 X99.714 Y100.822 F1800.000
G1 E1.00000 F1200.00000
G1 X70.286 Y100.822 E2.53777 F1920.000
G1 X70.719 Y101.137 E2.56571
G1 X99.281 Y101.137 E4.05828
G1 X98.964 Y101.451 E4.08161
G1 X71.036 Y101.451 E5.54102
G1 X71.138 Y101.765 E5.55829
G1 X98.862 Y101.765 E7.00703
G1 X98.760 Y102.079 E7.02429
G1 X71.240 Y102.079 E8.46236
G1 X71.342 Y102.394 E8.47963
G1 X98.657 Y102.394 E9.90702
G1 X98.690 Y102.708 E9.92353
G1 X71.310 Y102.708 E11.35437
G1 X71.207 Y103.022 E11.37164
G1 X98.793 Y103.022 E12.81315
G1 X98.895 Y103.336 E12.83041
G1 X71.105 Y103.336 E14.28259
G1 X71.003 Y103.650 E14.29986
G1 X98.997 Y103.650 E15.76271
G1 X99.421 Y103.965 E15.79028
G1 X70.579 Y103.965 E17.29743
G1 X70.147 Y104.279 E17.32537
G1 X99.853 Y104.279 E18.87772
G1 X99.853 Y104.593 E18.89414
G1 X70.147 Y104.593 E20.44652
G1 X70.149 Y104.907 E20.46294
G1 X99.851 Y104.907 E22.01508
G1 E21.01508 F1200.00000
G92 E0
G1 X116.502 Y104.907 F1800.000
G1 E1.00000 F1200.00000
G1 X101.149 Y104.907 E1.80228 F1920.000
G1 X101.147 Y104.593 E1.81870
G1 X116.502 Y104.593 E2.62110
G1 X116.502 Y104.279 E2.63752
G1 X101.147 Y104.279 E3.43991
G1 X101.579 Y103.965 E3.46785
G1 X116.502 Y103.965 E4.24763
G1 X116.502 Y103.650 E4.26405
G1 X102.003 Y103.650 E5.02169
G1 X102.105 Y103.336 E5.03896
G1 X116.502 Y103.336 E5.79126
G1 X116.502 Y103.022 E5.80768
G1 X102.207 Y103.022 E6.55464
G1 X102.310 Y102.708 E6.57191
G1 X116.502 Y102.708 E7.31354
G1 X116.502 Y102.394 E7.32996
G1 X102.342 Y102.394 E8.06987
G1 X102.240 Y102.079 E8.08714
G1 X116.502 Y102.079 E8.83238
G1 X116.502 Y101.765 E8.84880
G1 X102.138 Y101.765 E9.59939
G1 X102.036 Y101.451 E9.61665
G1 X116.502 Y101.451 E10.37257
G1 X116.502 Y101.137 E10.38899
G1 X101.719 Y101.137 E11.16148
G1 X101.286 Y100.822 E11.18942
G1 X116.502 Y100.822 E11.98452
G1 X116.502 Y100.508 E12.00094
G1 X53.498 Y100.508 E15.29329
G1 X53.498 Y100.194 E15.30971
G1 X116.502 Y100.194 E18.60206
G1 X116.502 Y99.880 E18.61848
G1 X53.498 Y99.880 E21.91083
G1 X53.498 Y99.565 E21.92725
G1 X116.502 Y99.565 E25.21960
G1 X116.502 Y99.251 E25.23602
G1 X53.498 Y99.251 E28.52837
G1 X53.498 Y98.937 E28.54479
G1 X116.502 Y98.937 E31.83714
G1 X116.502 Y98.623 E31.85356
G1 X53.498 Y98.623 E35.14591
G1 X53.498 Y98.309 E35.16233
G1 X116.502 Y98.309 E38.45468
G1 X116.502 Y97.994 E38.47110
G1 X53.498 Y97.994 E41.76345
G1 X53.498 Y97.680 E41.77987
G1 X116.502 Y97.680 E45.07222
G1 X116.502 Y97.366 E45.08864
G1 X53.498 Y97.366 E48.38099
G1 X53.498 Y97.052 E48.39741
G1 X116.502 Y97.052 E51.68976
G1 X116.502 Y96.737 E51.70618
G1 X53.498 Y96.737 E54.99853
G1 X53.498 Y96.423 E55.01495
G1 X116.502 Y96.423 E58.30730
G1 X116.502 Y96.109 E58.32372
G1 X53.498 Y96.109 E61.61607
G1 X53.498 Y95.795 E61.63249
G1 X116.502 Y95.795 E64.92484
G1 X116.502 Y95.480 E64.94126
G1 X53.498 Y95.480 E68.23361
G1 X53.498 Y95.166 E68.25003
G1 X116.502 Y95.166 E71.54238
G1 X116.502 Y94.852 E71.55880
G1 X53.498 Y94.852 E74.85115
G1 X53.498 Y94.538 E74.86757
G1 X116.502 Y94.538 E78.15992
G1 X116.502 Y94.224 E78.17634
G1 X53.498 Y94.224 E81.46869
G1 X53.498 Y93.909 E81.48511
G1 X116.502 Y93.909 E84.77746
G1 X116.502 Y93.595 E84.79388
G1 X53.498 Y93.595 E88.08623
G1 X53.498 Y93.281 E88.10265
G1 X116.502 Y93.281 E91.39500
G1 X116.502 Y92.967 E91.41142
G1 X53.498 Y92.967 E94.70377
G1 X53.498 Y92.652 E94.72019
G1 X116.502 Y92.652 E98.01254
G1 X116.502 Y92.338 E98.02896
G1 X53.498 Y92.338 E101.32131
G1 X53.498 Y92.024 E101.33773
G1 X116.502 Y92.024 E104.63008
G1 X116.502 Y91.710 E104.64650
G1 X53.498 Y91.710 E107.93885
G1 X53.498 Y91.395 E107.95527
G1 X116.502 Y91.395 E111.24762
G1 X116.502 Y91.081 E111.26404
G1 X53.498 Y91.081 E114.55639
G1 X53.498 Y90.767 E114.57281
G1 X116.502 Y90.767 E117.86516
G1 X116.502 Y90.453 E117.88158
G1 X53.498 Y90.453 E121.17393
G1 X53.498 Y90.139 E121.19035
G1 X116.502 Y90.139 E124.48270
G1 X116.502 Y89.824 E124.49912
G1 X53.498 Y89.824 E127.79147
G1 X53.498 Y89.510 E127.80789
G1 X116.502 Y89.510 E131.10024
G1 X116.502 Y89.196 E131.11666
G1 X53.498 Y89.196 E134.40901
G1 X53.498 Y88.882 E134.42543
G1 X116.502 Y88.882 E137.71778
G1 X116.502 Y88.567 E137.73420
G1 X53.498 Y88.567 E141.02655
G1 X53.498 Y88.253 E141.04297
G1 X116.502 Y88.253 E144.33532
G1 X116.502 Y87.939 E144.35174
G1 X53.498 Y87.939 E147.64409
G1 X53.498 Y87.625 E147.66051
G1 X116.502 Y87.625 E150.95286
G1 X116.502 Y87.310 E150.96928
G1 X53.498 Y87.310 E154.26163
G1 X53.498 Y86.996 E154.27805
G1 X116.502 Y86.996 E157.57040
G1 X116.502 Y86.682 E157.58682
G1 X53.498 Y86.682 E160.87917
G1 X53.498 Y86.368 E160.89559
G1 X116.502 Y86.368 E164.18794
G1 X116.502 Y86.054 E164.20436
G1 X53.498 Y86.054 E167.49671
G1 X53.498 Y85.739 E167.51313
G1 X116.502 Y85.739 E170.80548
